MODULE scanHypar_f8_T_ROB1
VAR extjoint extj := [9E9,9E9,9E9,9E9,9E9,9E9];
VAR confdata conf := [0,0,0,0];
PERS tooldata azureKinect:=[TRUE,[[-18.478,-68.949,83.547],[-0.08734,0.097,0.73679,-0.66341]],[0.001,[20,0,52],[1,0,0,0],0,0,0]];
TASK PERS wobjdata DefaultFrame:=[FALSE,TRUE,"",[[0,0,0],[1,0,0,0]],[[0,0,0],[1,0,0,0]]];
TASK PERS speeddata Speed000:=[500,180,5000,1080];
TASK PERS speeddata Speed001:=[250,180,5000,1080];
TASK PERS zonedata Zone000:=[FALSE,0.5,0.5,0.5,0.05,0.5,0.05];
TASK PERS zonedata Zone001:=[FALSE,0.01,0.01,0.01,0.001,0.01,0.001];
PROC Main()
ConfL \Off;
PathAccLim FALSE, TRUE\DecelMax := .1;
SetDO \Sync, DO_0, 0;
SetDO \Sync, DO_1, 0;
MoveAbsJ [[0,0,0,0,-90,105],extj],Speed000,Zone000,azureKinect;
SetDO \Sync, DO_0, 1;
MoveL [[781.492,707.107,1022.499],[-0.16507,-0.60291,0.68757,-0.36946],conf,extj],Speed001,Zone001,azureKinect \WObj:=DefaultFrame;
WaitTime \InPos, 2;
SetDO \Sync, DO_1, 1;
WaitTime \InPos, 1;
SetDO \Sync, DO_1, 0;
MoveL [[842.654,707.107,1039.378],[-0.19575,-0.61888,0.67947,-0.34204],conf,extj],Speed001,Zone001,azureKinect \WObj:=DefaultFrame;
WaitTime \InPos, 2;
SetDO \Sync, DO_1, 1;
WaitTime \InPos, 1;
SetDO \Sync, DO_1, 0;
MoveL [[905.083,707.107,1050.707],[-0.22604,-0.6336,0.67,-0.31393],conf,extj],Speed001,Zone001,azureKinect \WObj:=DefaultFrame;
WaitTime \InPos, 2;
SetDO \Sync, DO_1, 1;
WaitTime \InPos, 1;
SetDO \Sync, DO_1, 0;
MoveL [[968.276,707.107,1056.395],[-0.25587,-0.64705,0.65919,-0.28519],conf,extj],Speed001,Zone001,azureKinect \WObj:=DefaultFrame;
WaitTime \InPos, 2;
SetDO \Sync, DO_1, 1;
WaitTime \InPos, 1;
SetDO \Sync, DO_1, 0;
MoveL [[1031.724,707.107,1056.395],[0.28519,0.65919,-0.64705,0.25587],conf,extj],Speed001,Zone001,azureKinect \WObj:=DefaultFrame;
WaitTime \InPos, 2;
SetDO \Sync, DO_1, 1;
WaitTime \InPos, 1;
SetDO \Sync, DO_1, 0;
MoveL [[1094.917,707.107,1050.707],[0.31393,0.67,-0.6336,0.22604],conf,extj],Speed001,Zone001,azureKinect \WObj:=DefaultFrame;
WaitTime \InPos, 2;
SetDO \Sync, DO_1, 1;
WaitTime \InPos, 1;
SetDO \Sync, DO_1, 0;
MoveL [[1157.346,707.107,1039.378],[0.34204,0.67947,-0.61888,0.19575],conf,extj],Speed001,Zone001,azureKinect \WObj:=DefaultFrame;
WaitTime \InPos, 2;
SetDO \Sync, DO_1, 1;
WaitTime \InPos, 1;
SetDO \Sync, DO_1, 0;
MoveL [[1218.508,707.107,1022.499],[0.36946,0.68757,-0.60291,0.16507],conf,extj],Speed001,Zone001,azureKinect \WObj:=DefaultFrame;
WaitTime \InPos, 2;
SetDO \Sync, DO_1, 1;
WaitTime \InPos, 1;
SetDO \Sync, DO_1, 0;
MoveL [[738.348,532.032,1155.283],[-0.08705,-0.64048,0.70173,-0.29963],conf,extj],Speed001,Zone001,azureKinect \WObj:=DefaultFrame;
WaitTime \InPos, 2;
SetDO \Sync, DO_1, 1;
WaitTime \InPos, 1;
SetDO \Sync, DO_1, 0;
MoveL [[811.586,532.032,1175.495],[-0.11844,-0.65328,0.69712,-0.2706],conf,extj],Speed001,Zone001,azureKinect \WObj:=DefaultFrame;
WaitTime \InPos, 2;
SetDO \Sync, DO_1, 1;
WaitTime \InPos, 1;
SetDO \Sync, DO_1, 0;
MoveL [[886.341,532.032,1189.061],[-0.1496,-0.66476,0.6911,-0.24102],conf,extj],Speed001,Zone001,azureKinect \WObj:=DefaultFrame;
WaitTime \InPos, 2;
SetDO \Sync, DO_1, 1;
WaitTime \InPos, 1;
SetDO \Sync, DO_1, 0;
MoveL [[962.012,532.032,1195.872],[-0.18046,-0.67491,0.68369,-0.21095],conf,extj],Speed001,Zone001,azureKinect \WObj:=DefaultFrame;
WaitTime \InPos, 2;
SetDO \Sync, DO_1, 1;
WaitTime \InPos, 1;
SetDO \Sync, DO_1, 0;
MoveL [[1037.988,532.032,1195.872],[0.21095,0.68369,-0.67491,0.18046],conf,extj],Speed001,Zone001,azureKinect \WObj:=DefaultFrame;
WaitTime \InPos, 2;
SetDO \Sync, DO_1, 1;
WaitTime \InPos, 1;
SetDO \Sync, DO_1, 0;
MoveL [[1113.659,532.032,1189.061],[0.24102,0.6911,-0.66476,0.1496],conf,extj],Speed001,Zone001,azureKinect \WObj:=DefaultFrame;
WaitTime \InPos, 2;
SetDO \Sync, DO_1, 1;
WaitTime \InPos, 1;
SetDO \Sync, DO_1, 0;
MoveL [[1188.414,532.032,1175.495],[0.2706,0.69712,-0.65328,0.11844],conf,extj],Speed001,Zone001,azureKinect \WObj:=DefaultFrame;
WaitTime \InPos, 2;
SetDO \Sync, DO_1, 1;
WaitTime \InPos, 1;
SetDO \Sync, DO_1, 0;
MoveL [[1261.652,532.032,1155.283],[0.29963,0.70173,-0.64048,0.08705],conf,extj],Speed001,Zone001,azureKinect \WObj:=DefaultFrame;
WaitTime \InPos, 2;
SetDO \Sync, DO_1, 1;
WaitTime \InPos, 1;
SetDO \Sync, DO_1, 0;
MoveL [[708.324,330.279,1247.686],[-0.00793,-0.67,0.70706,-0.22604],conf,extj],Speed001,Zone001,azureKinect \WObj:=DefaultFrame;
WaitTime \InPos, 2;
SetDO \Sync, DO_1, 1;
WaitTime \InPos, 1;
SetDO \Sync, DO_1, 0;
MoveL [[789.966,330.279,1270.218],[-0.03965,-0.67947,0.70599,-0.19575],conf,extj],Speed001,Zone001,azureKinect \WObj:=DefaultFrame;
WaitTime \InPos, 2;
SetDO \Sync, DO_1, 1;
WaitTime \InPos, 1;
SetDO \Sync, DO_1, 0;
MoveL [[873.299,330.279,1285.341],[-0.07128,-0.68757,0.7035,-0.16507],conf,extj],Speed001,Zone001,azureKinect \WObj:=DefaultFrame;
WaitTime \InPos, 2;
SetDO \Sync, DO_1, 1;
WaitTime \InPos, 1;
SetDO \Sync, DO_1, 0;
MoveL [[957.653,330.279,1292.933],[-0.10277,-0.69428,0.6996,-0.13406],conf,extj],Speed001,Zone001,azureKinect \WObj:=DefaultFrame;
WaitTime \InPos, 2;
SetDO \Sync, DO_1, 1;
WaitTime \InPos, 1;
SetDO \Sync, DO_1, 0;
MoveL [[1042.347,330.279,1292.933],[0.13406,0.6996,-0.69428,0.10277],conf,extj],Speed001,Zone001,azureKinect \WObj:=DefaultFrame;
WaitTime \InPos, 2;
SetDO \Sync, DO_1, 1;
WaitTime \InPos, 1;
SetDO \Sync, DO_1, 0;
MoveL [[1126.701,330.279,1285.341],[0.16507,0.7035,-0.68757,0.07128],conf,extj],Speed001,Zone001,azureKinect \WObj:=DefaultFrame;
WaitTime \InPos, 2;
SetDO \Sync, DO_1, 1;
WaitTime \InPos, 1;
SetDO \Sync, DO_1, 0;
MoveL [[1210.034,330.279,1270.218],[0.19575,0.70599,-0.67947,0.03965],conf,extj],Speed001,Zone001,azureKinect \WObj:=DefaultFrame;
WaitTime \InPos, 2;
SetDO \Sync, DO_1, 1;
WaitTime \InPos, 1;
SetDO \Sync, DO_1, 0;
MoveL [[1291.676,330.279,1247.686],[0.22604,0.70706,-0.67,0.00793],conf,extj],Speed001,Zone001,azureKinect \WObj:=DefaultFrame;
WaitTime \InPos, 2;
SetDO \Sync, DO_1, 1;
WaitTime \InPos, 1;
SetDO \Sync, DO_1, 0;
MoveL [[692.926,111.964,1295.076],[0.07128,-0.6911,0.7035,-0.1496],conf,extj],Speed001,Zone001,azureKinect \WObj:=DefaultFrame;
WaitTime \InPos, 2;
SetDO \Sync, DO_1, 1;
WaitTime \InPos, 1;
SetDO \Sync, DO_1, 0;
MoveL [[778.878,111.964,1318.798],[0.03965,-0.69712,0.70599,-0.11844],conf,extj],Speed001,Zone001,azureKinect \WObj:=DefaultFrame;
WaitTime \InPos, 2;
SetDO \Sync, DO_1, 1;
WaitTime \InPos, 1;
SetDO \Sync, DO_1, 0;
MoveL [[866.611,111.964,1334.719],[0.00793,-0.70173,0.70706,-0.08705],conf,extj],Speed001,Zone001,azureKinect \WObj:=DefaultFrame;
WaitTime \InPos, 2;
SetDO \Sync, DO_1, 1;
WaitTime \InPos, 1;
SetDO \Sync, DO_1, 0;
MoveL [[955.417,111.964,1342.712],[-0.0238,-0.70493,0.70671,-0.05548],conf,extj],Speed001,Zone001,azureKinect \WObj:=DefaultFrame;
WaitTime \InPos, 2;
SetDO \Sync, DO_1, 1;
WaitTime \InPos, 1;
SetDO \Sync, DO_1, 0;
MoveL [[1044.583,111.964,1342.712],[0.05548,0.70671,-0.70493,0.0238],conf,extj],Speed001,Zone001,azureKinect \WObj:=DefaultFrame;
WaitTime \InPos, 2;
SetDO \Sync, DO_1, 1;
WaitTime \InPos, 1;
SetDO \Sync, DO_1, 0;
MoveL [[1133.389,111.964,1334.719],[0.08705,0.70706,-0.70173,-0.00793],conf,extj],Speed001,Zone001,azureKinect \WObj:=DefaultFrame;
WaitTime \InPos, 2;
SetDO \Sync, DO_1, 1;
WaitTime \InPos, 1;
SetDO \Sync, DO_1, 0;
MoveL [[1221.122,111.964,1318.798],[0.11844,0.70599,-0.69712,-0.03965],conf,extj],Speed001,Zone001,azureKinect \WObj:=DefaultFrame;
WaitTime \InPos, 2;
SetDO \Sync, DO_1, 1;
WaitTime \InPos, 1;
SetDO \Sync, DO_1, 0;
MoveL [[1307.074,111.964,1295.076],[0.1496,0.7035,-0.6911,-0.07128],conf,extj],Speed001,Zone001,azureKinect \WObj:=DefaultFrame;
WaitTime \InPos, 2;
SetDO \Sync, DO_1, 1;
WaitTime \InPos, 1;
SetDO \Sync, DO_1, 0;
MoveL [[692.926,-111.964,1295.076],[-0.1496,0.7035,-0.6911,0.07128],conf,extj],Speed001,Zone001,azureKinect \WObj:=DefaultFrame;
WaitTime \InPos, 2;
SetDO \Sync, DO_1, 1;
WaitTime \InPos, 1;
SetDO \Sync, DO_1, 0;
MoveL [[778.878,-111.964,1318.798],[-0.11844,0.70599,-0.69712,0.03965],conf,extj],Speed001,Zone001,azureKinect \WObj:=DefaultFrame;
WaitTime \InPos, 2;
SetDO \Sync, DO_1, 1;
WaitTime \InPos, 1;
SetDO \Sync, DO_1, 0;
MoveL [[866.611,-111.964,1334.719],[-0.08705,0.70706,-0.70173,0.00793],conf,extj],Speed001,Zone001,azureKinect \WObj:=DefaultFrame;
WaitTime \InPos, 2;
SetDO \Sync, DO_1, 1;
WaitTime \InPos, 1;
SetDO \Sync, DO_1, 0;
MoveL [[955.417,-111.964,1342.712],[-0.05548,0.70671,-0.70493,-0.0238],conf,extj],Speed001,Zone001,azureKinect \WObj:=DefaultFrame;
WaitTime \InPos, 2;
SetDO \Sync, DO_1, 1;
WaitTime \InPos, 1;
SetDO \Sync, DO_1, 0;
MoveL [[1044.583,-111.964,1342.712],[0.0238,-0.70493,0.70671,0.05548],conf,extj],Speed001,Zone001,azureKinect \WObj:=DefaultFrame;
WaitTime \InPos, 2;
SetDO \Sync, DO_1, 1;
WaitTime \InPos, 1;
SetDO \Sync, DO_1, 0;
MoveL [[1133.389,-111.964,1334.719],[-0.00793,-0.70173,0.70706,0.08705],conf,extj],Speed001,Zone001,azureKinect \WObj:=DefaultFrame;
WaitTime \InPos, 2;
SetDO \Sync, DO_1, 1;
WaitTime \InPos, 1;
SetDO \Sync, DO_1, 0;
MoveL [[1221.122,-111.964,1318.798],[-0.03965,-0.69712,0.70599,0.11844],conf,extj],Speed001,Zone001,azureKinect \WObj:=DefaultFrame;
WaitTime \InPos, 2;
SetDO \Sync, DO_1, 1;
WaitTime \InPos, 1;
SetDO \Sync, DO_1, 0;
MoveL [[1307.074,-111.964,1295.076],[-0.07128,-0.6911,0.7035,0.1496],conf,extj],Speed001,Zone001,azureKinect \WObj:=DefaultFrame;
WaitTime \InPos, 2;
SetDO \Sync, DO_1, 1;
WaitTime \InPos, 1;
SetDO \Sync, DO_1, 0;
MoveL [[708.324,-330.279,1247.686],[-0.22604,0.70706,-0.67,-0.00793],conf,extj],Speed001,Zone001,azureKinect \WObj:=DefaultFrame;
WaitTime \InPos, 2;
SetDO \Sync, DO_1, 1;
WaitTime \InPos, 1;
SetDO \Sync, DO_1, 0;
MoveL [[789.966,-330.279,1270.218],[-0.19575,0.70599,-0.67947,-0.03965],conf,extj],Speed001,Zone001,azureKinect \WObj:=DefaultFrame;
WaitTime \InPos, 2;
SetDO \Sync, DO_1, 1;
WaitTime \InPos, 1;
SetDO \Sync, DO_1, 0;
MoveL [[873.299,-330.279,1285.341],[-0.16507,0.7035,-0.68757,-0.07128],conf,extj],Speed001,Zone001,azureKinect \WObj:=DefaultFrame;
WaitTime \InPos, 2;
SetDO \Sync, DO_1, 1;
WaitTime \InPos, 1;
SetDO \Sync, DO_1, 0;
MoveL [[957.653,-330.279,1292.933],[-0.13406,0.6996,-0.69428,-0.10277],conf,extj],Speed001,Zone001,azureKinect \WObj:=DefaultFrame;
WaitTime \InPos, 2;
SetDO \Sync, DO_1, 1;
WaitTime \InPos, 1;
SetDO \Sync, DO_1, 0;
MoveL [[1042.347,-330.279,1292.933],[0.10277,-0.69428,0.6996,0.13406],conf,extj],Speed001,Zone001,azureKinect \WObj:=DefaultFrame;
WaitTime \InPos, 2;
SetDO \Sync, DO_1, 1;
WaitTime \InPos, 1;
SetDO \Sync, DO_1, 0;
MoveL [[1126.701,-330.279,1285.341],[0.07128,-0.68757,0.7035,0.16507],conf,extj],Speed001,Zone001,azureKinect \WObj:=DefaultFrame;
WaitTime \InPos, 2;
SetDO \Sync, DO_1, 1;
WaitTime \InPos, 1;
SetDO \Sync, DO_1, 0;
MoveL [[1210.034,-330.279,1270.218],[0.03965,-0.67947,0.70599,0.19575],conf,extj],Speed001,Zone001,azureKinect \WObj:=DefaultFrame;
WaitTime \InPos, 2;
SetDO \Sync, DO_1, 1;
WaitTime \InPos, 1;
SetDO \Sync, DO_1, 0;
MoveL [[1291.676,-330.279,1247.686],[0.00793,-0.67,0.70706,0.22604],conf,extj],Speed001,Zone001,azureKinect \WObj:=DefaultFrame;
WaitTime \InPos, 2;
SetDO \Sync, DO_1, 1;
WaitTime \InPos, 1;
SetDO \Sync, DO_1, 0;
MoveL [[738.348,-532.032,1155.283],[-0.29963,0.70173,-0.64048,-0.08705],conf,extj],Speed001,Zone001,azureKinect \WObj:=DefaultFrame;
WaitTime \InPos, 2;
SetDO \Sync, DO_1, 1;
WaitTime \InPos, 1;
SetDO \Sync, DO_1, 0;
MoveL [[811.586,-532.032,1175.495],[-0.2706,0.69712,-0.65328,-0.11844],conf,extj],Speed001,Zone001,azureKinect \WObj:=DefaultFrame;
WaitTime \InPos, 2;
SetDO \Sync, DO_1, 1;
WaitTime \InPos, 1;
SetDO \Sync, DO_1, 0;
MoveL [[886.341,-532.032,1189.061],[-0.24102,0.6911,-0.66476,-0.1496],conf,extj],Speed001,Zone001,azureKinect \WObj:=DefaultFrame;
WaitTime \InPos, 2;
SetDO \Sync, DO_1, 1;
WaitTime \InPos, 1;
SetDO \Sync, DO_1, 0;
MoveL [[962.012,-532.032,1195.872],[-0.21095,0.68369,-0.67491,-0.18046],conf,extj],Speed001,Zone001,azureKinect \WObj:=DefaultFrame;
WaitTime \InPos, 2;
SetDO \Sync, DO_1, 1;
WaitTime \InPos, 1;
SetDO \Sync, DO_1, 0;
MoveL [[1037.988,-532.032,1195.872],[0.18046,-0.67491,0.68369,0.21095],conf,extj],Speed001,Zone001,azureKinect \WObj:=DefaultFrame;
WaitTime \InPos, 2;
SetDO \Sync, DO_1, 1;
WaitTime \InPos, 1;
SetDO \Sync, DO_1, 0;
MoveL [[1113.659,-532.032,1189.061],[0.1496,-0.66476,0.6911,0.24102],conf,extj],Speed001,Zone001,azureKinect \WObj:=DefaultFrame;
WaitTime \InPos, 2;
SetDO \Sync, DO_1, 1;
WaitTime \InPos, 1;
SetDO \Sync, DO_1, 0;
MoveL [[1188.414,-532.032,1175.495],[0.11844,-0.65328,0.69712,0.2706],conf,extj],Speed001,Zone001,azureKinect \WObj:=DefaultFrame;
WaitTime \InPos, 2;
SetDO \Sync, DO_1, 1;
WaitTime \InPos, 1;
SetDO \Sync, DO_1, 0;
MoveL [[1261.652,-532.032,1155.283],[0.08705,-0.64048,0.70173,0.29963],conf,extj],Speed001,Zone001,azureKinect \WObj:=DefaultFrame;
WaitTime \InPos, 2;
SetDO \Sync, DO_1, 1;
WaitTime \InPos, 1;
SetDO \Sync, DO_1, 0;
MoveL [[781.492,-707.107,1022.499],[-0.36946,0.68757,-0.60291,-0.16507],conf,extj],Speed001,Zone001,azureKinect \WObj:=DefaultFrame;
WaitTime \InPos, 2;
SetDO \Sync, DO_1, 1;
WaitTime \InPos, 1;
SetDO \Sync, DO_1, 0;
MoveL [[842.654,-707.107,1039.378],[-0.34204,0.67947,-0.61888,-0.19575],conf,extj],Speed001,Zone001,azureKinect \WObj:=DefaultFrame;
WaitTime \InPos, 2;
SetDO \Sync, DO_1, 1;
WaitTime \InPos, 1;
SetDO \Sync, DO_1, 0;
MoveL [[905.083,-707.107,1050.707],[-0.31393,0.67,-0.6336,-0.22604],conf,extj],Speed001,Zone001,azureKinect \WObj:=DefaultFrame;
WaitTime \InPos, 2;
SetDO \Sync, DO_1, 1;
WaitTime \InPos, 1;
SetDO \Sync, DO_1, 0;
MoveL [[968.276,-707.107,1056.395],[-0.28519,0.65919,-0.64705,-0.25587],conf,extj],Speed001,Zone001,azureKinect \WObj:=DefaultFrame;
WaitTime \InPos, 2;
SetDO \Sync, DO_1, 1;
WaitTime \InPos, 1;
SetDO \Sync, DO_1, 0;
MoveL [[1031.724,-707.107,1056.395],[0.25587,-0.64705,0.65919,0.28519],conf,extj],Speed001,Zone001,azureKinect \WObj:=DefaultFrame;
WaitTime \InPos, 2;
SetDO \Sync, DO_1, 1;
WaitTime \InPos, 1;
SetDO \Sync, DO_1, 0;
MoveL [[1094.917,-707.107,1050.707],[0.22604,-0.6336,0.67,0.31393],conf,extj],Speed001,Zone001,azureKinect \WObj:=DefaultFrame;
WaitTime \InPos, 2;
SetDO \Sync, DO_1, 1;
WaitTime \InPos, 1;
SetDO \Sync, DO_1, 0;
MoveL [[1157.346,-707.107,1039.378],[0.19575,-0.61888,0.67947,0.34204],conf,extj],Speed001,Zone001,azureKinect \WObj:=DefaultFrame;
WaitTime \InPos, 2;
SetDO \Sync, DO_1, 1;
WaitTime \InPos, 1;
SetDO \Sync, DO_1, 0;
MoveL [[1218.508,-707.107,1022.499],[0.16507,-0.60291,0.68757,0.36946],conf,extj],Speed001,Zone001,azureKinect \WObj:=DefaultFrame;
WaitTime \InPos, 2;
SetDO \Sync, DO_1, 1;
WaitTime \InPos, 1;
SetDO \Sync, DO_1, 0;
MoveAbsJ [[0,0,0,0,-90,105],extj],Speed000,Zone000,azureKinect;
SetDO \Sync, DO_0, 0;
ENDPROC
ENDMODULE