MODULE scanComp_3_1000_45_T_ROB1
VAR extjoint extj := [9E9,9E9,9E9,9E9,9E9,9E9];
VAR confdata conf := [0,0,0,0];
PERS tooldata azureKinect:=[TRUE,[[-45.634,-46.661,81.608],[0.09230,-0.09230,-0.70106,0.70106]],[0.001,[20.000,0.000,52.000],[1,0,0,0],0,0,0]];
TASK PERS wobjdata DefaultFrame:=[FALSE,TRUE,"",[[0.000,0.000,0.000],[1.00000,0.00000,0.00000,0.00000]],[[0,0,0],[1,0,0,0]]];
TASK PERS speeddata Speed000:=[500.000,180.000,5000.000,1080.000];
TASK PERS speeddata Speed001:=[250.000,180.000,5000.000,1080.000];
TASK PERS zonedata Zone000:=[FALSE,0.500,0.500,0.500,0.050,0.500,0.050];
TASK PERS zonedata Zone001:=[FALSE,0.010,0.010,0.010,0.001,0.010,0.001];
PROC Main()
ConfL \Off;
PathAccLim FALSE, TRUE\DecelMax := .1;
SetDO \Sync, DO_0, 0;
SetDO \Sync, DO_1, 0;
MoveAbsJ [[0,0,0,0,-90,105],extj],Speed000,Zone000,azureKinect;
SetDO \Sync, DO_0, 1;
MoveL [[778.849,685.254,925.814],[-0.16507,-0.60291,0.68757,-0.36946],conf,extj],Speed001,Zone001,azureKinect \WObj:=DefaultFrame;
WaitTime \InPos, 2;
SetDO \Sync, DO_1, 1;
WaitTime \InPos, 1;
SetDO \Sync, DO_1, 0;
MoveL [[735.705,510.18,1058.598],[-0.08705,-0.64048,0.70173,-0.29963],conf,extj],Speed001,Zone001,azureKinect \WObj:=DefaultFrame;
WaitTime \InPos, 2;
SetDO \Sync, DO_1, 1;
WaitTime \InPos, 1;
SetDO \Sync, DO_1, 0;
MoveL [[705.681,308.427,1151.002],[-0.00793,-0.67,0.70706,-0.22604],conf,extj],Speed001,Zone001,azureKinect \WObj:=DefaultFrame;
WaitTime \InPos, 2;
SetDO \Sync, DO_1, 1;
WaitTime \InPos, 1;
SetDO \Sync, DO_1, 0;
MoveL [[690.283,90.112,1198.392],[0.07128,-0.6911,0.7035,-0.1496],conf,extj],Speed001,Zone001,azureKinect \WObj:=DefaultFrame;
WaitTime \InPos, 2;
SetDO \Sync, DO_1, 1;
WaitTime \InPos, 1;
SetDO \Sync, DO_1, 0;
MoveL [[690.283,-133.817,1198.392],[-0.1496,0.7035,-0.6911,0.07128],conf,extj],Speed001,Zone001,azureKinect \WObj:=DefaultFrame;
WaitTime \InPos, 2;
SetDO \Sync, DO_1, 1;
WaitTime \InPos, 1;
SetDO \Sync, DO_1, 0;
MoveL [[705.681,-352.131,1151.002],[-0.22604,0.70706,-0.67,-0.00793],conf,extj],Speed001,Zone001,azureKinect \WObj:=DefaultFrame;
WaitTime \InPos, 2;
SetDO \Sync, DO_1, 1;
WaitTime \InPos, 1;
SetDO \Sync, DO_1, 0;
MoveL [[735.705,-553.884,1058.598],[-0.29963,0.70173,-0.64048,-0.08705],conf,extj],Speed001,Zone001,azureKinect \WObj:=DefaultFrame;
WaitTime \InPos, 2;
SetDO \Sync, DO_1, 1;
WaitTime \InPos, 1;
SetDO \Sync, DO_1, 0;
MoveL [[778.849,-728.959,925.814],[-0.36946,0.68757,-0.60291,-0.16507],conf,extj],Speed001,Zone001,azureKinect \WObj:=DefaultFrame;
WaitTime \InPos, 2;
SetDO \Sync, DO_1, 1;
WaitTime \InPos, 1;
SetDO \Sync, DO_1, 0;
MoveL [[840.011,-728.959,942.693],[-0.34204,0.67947,-0.61888,-0.19575],conf,extj],Speed001,Zone001,azureKinect \WObj:=DefaultFrame;
WaitTime \InPos, 2;
SetDO \Sync, DO_1, 1;
WaitTime \InPos, 1;
SetDO \Sync, DO_1, 0;
MoveL [[808.943,-553.884,1078.81],[-0.2706,0.69712,-0.65328,-0.11844],conf,extj],Speed001,Zone001,azureKinect \WObj:=DefaultFrame;
WaitTime \InPos, 2;
SetDO \Sync, DO_1, 1;
WaitTime \InPos, 1;
SetDO \Sync, DO_1, 0;
MoveL [[787.323,-352.131,1173.533],[-0.19575,0.70599,-0.67947,-0.03965],conf,extj],Speed001,Zone001,azureKinect \WObj:=DefaultFrame;
WaitTime \InPos, 2;
SetDO \Sync, DO_1, 1;
WaitTime \InPos, 1;
SetDO \Sync, DO_1, 0;
MoveL [[776.235,-133.817,1222.113],[-0.11844,0.70599,-0.69712,0.03965],conf,extj],Speed001,Zone001,azureKinect \WObj:=DefaultFrame;
WaitTime \InPos, 2;
SetDO \Sync, DO_1, 1;
WaitTime \InPos, 1;
SetDO \Sync, DO_1, 0;
MoveL [[776.235,90.112,1222.113],[0.03965,-0.69712,0.70599,-0.11844],conf,extj],Speed001,Zone001,azureKinect \WObj:=DefaultFrame;
WaitTime \InPos, 2;
SetDO \Sync, DO_1, 1;
WaitTime \InPos, 1;
SetDO \Sync, DO_1, 0;
MoveL [[787.323,308.427,1173.533],[-0.03965,-0.67947,0.70599,-0.19575],conf,extj],Speed001,Zone001,azureKinect \WObj:=DefaultFrame;
WaitTime \InPos, 2;
SetDO \Sync, DO_1, 1;
WaitTime \InPos, 1;
SetDO \Sync, DO_1, 0;
MoveL [[808.943,510.18,1078.81],[-0.11844,-0.65328,0.69712,-0.2706],conf,extj],Speed001,Zone001,azureKinect \WObj:=DefaultFrame;
WaitTime \InPos, 2;
SetDO \Sync, DO_1, 1;
WaitTime \InPos, 1;
SetDO \Sync, DO_1, 0;
MoveL [[840.011,685.254,942.693],[-0.19575,-0.61888,0.67947,-0.34204],conf,extj],Speed001,Zone001,azureKinect \WObj:=DefaultFrame;
WaitTime \InPos, 2;
SetDO \Sync, DO_1, 1;
WaitTime \InPos, 1;
SetDO \Sync, DO_1, 0;
MoveL [[902.44,685.254,954.023],[-0.22604,-0.6336,0.67,-0.31393],conf,extj],Speed001,Zone001,azureKinect \WObj:=DefaultFrame;
WaitTime \InPos, 2;
SetDO \Sync, DO_1, 1;
WaitTime \InPos, 1;
SetDO \Sync, DO_1, 0;
MoveL [[883.698,510.18,1092.376],[-0.1496,-0.66476,0.6911,-0.24102],conf,extj],Speed001,Zone001,azureKinect \WObj:=DefaultFrame;
WaitTime \InPos, 2;
SetDO \Sync, DO_1, 1;
WaitTime \InPos, 1;
SetDO \Sync, DO_1, 0;
MoveL [[870.656,308.427,1188.656],[-0.07128,-0.68757,0.7035,-0.16507],conf,extj],Speed001,Zone001,azureKinect \WObj:=DefaultFrame;
WaitTime \InPos, 2;
SetDO \Sync, DO_1, 1;
WaitTime \InPos, 1;
SetDO \Sync, DO_1, 0;
MoveL [[863.968,90.112,1238.034],[0.00793,-0.70173,0.70706,-0.08705],conf,extj],Speed001,Zone001,azureKinect \WObj:=DefaultFrame;
WaitTime \InPos, 2;
SetDO \Sync, DO_1, 1;
WaitTime \InPos, 1;
SetDO \Sync, DO_1, 0;
MoveL [[863.968,-133.817,1238.034],[-0.08705,0.70706,-0.70173,0.00793],conf,extj],Speed001,Zone001,azureKinect \WObj:=DefaultFrame;
WaitTime \InPos, 2;
SetDO \Sync, DO_1, 1;
WaitTime \InPos, 1;
SetDO \Sync, DO_1, 0;
MoveL [[870.656,-352.131,1188.656],[-0.16507,0.7035,-0.68757,-0.07128],conf,extj],Speed001,Zone001,azureKinect \WObj:=DefaultFrame;
WaitTime \InPos, 2;
SetDO \Sync, DO_1, 1;
WaitTime \InPos, 1;
SetDO \Sync, DO_1, 0;
MoveL [[883.698,-553.884,1092.376],[-0.24102,0.6911,-0.66476,-0.1496],conf,extj],Speed001,Zone001,azureKinect \WObj:=DefaultFrame;
WaitTime \InPos, 2;
SetDO \Sync, DO_1, 1;
WaitTime \InPos, 1;
SetDO \Sync, DO_1, 0;
MoveL [[902.44,-728.959,954.023],[-0.31393,0.67,-0.6336,-0.22604],conf,extj],Speed001,Zone001,azureKinect \WObj:=DefaultFrame;
WaitTime \InPos, 2;
SetDO \Sync, DO_1, 1;
WaitTime \InPos, 1;
SetDO \Sync, DO_1, 0;
MoveL [[965.633,-728.959,959.71],[-0.28519,0.65919,-0.64705,-0.25587],conf,extj],Speed001,Zone001,azureKinect \WObj:=DefaultFrame;
WaitTime \InPos, 2;
SetDO \Sync, DO_1, 1;
WaitTime \InPos, 1;
SetDO \Sync, DO_1, 0;
MoveL [[959.369,-553.884,1099.187],[-0.21095,0.68369,-0.67491,-0.18046],conf,extj],Speed001,Zone001,azureKinect \WObj:=DefaultFrame;
WaitTime \InPos, 2;
SetDO \Sync, DO_1, 1;
WaitTime \InPos, 1;
SetDO \Sync, DO_1, 0;
MoveL [[955.01,-352.131,1196.248],[-0.13406,0.6996,-0.69428,-0.10277],conf,extj],Speed001,Zone001,azureKinect \WObj:=DefaultFrame;
WaitTime \InPos, 2;
SetDO \Sync, DO_1, 1;
WaitTime \InPos, 1;
SetDO \Sync, DO_1, 0;
MoveL [[952.774,-133.817,1246.027],[-0.05548,0.70671,-0.70493,-0.0238],conf,extj],Speed001,Zone001,azureKinect \WObj:=DefaultFrame;
WaitTime \InPos, 2;
SetDO \Sync, DO_1, 1;
WaitTime \InPos, 1;
SetDO \Sync, DO_1, 0;
MoveL [[952.774,90.112,1246.027],[-0.0238,-0.70493,0.70671,-0.05548],conf,extj],Speed001,Zone001,azureKinect \WObj:=DefaultFrame;
WaitTime \InPos, 2;
SetDO \Sync, DO_1, 1;
WaitTime \InPos, 1;
SetDO \Sync, DO_1, 0;
MoveL [[955.01,308.427,1196.248],[-0.10277,-0.69428,0.6996,-0.13406],conf,extj],Speed001,Zone001,azureKinect \WObj:=DefaultFrame;
WaitTime \InPos, 2;
SetDO \Sync, DO_1, 1;
WaitTime \InPos, 1;
SetDO \Sync, DO_1, 0;
MoveL [[959.369,510.18,1099.187],[-0.18046,-0.67491,0.68369,-0.21095],conf,extj],Speed001,Zone001,azureKinect \WObj:=DefaultFrame;
WaitTime \InPos, 2;
SetDO \Sync, DO_1, 1;
WaitTime \InPos, 1;
SetDO \Sync, DO_1, 0;
MoveL [[965.633,685.254,959.71],[-0.25587,-0.64705,0.65919,-0.28519],conf,extj],Speed001,Zone001,azureKinect \WObj:=DefaultFrame;
WaitTime \InPos, 2;
SetDO \Sync, DO_1, 1;
WaitTime \InPos, 1;
SetDO \Sync, DO_1, 0;
MoveL [[1029.081,685.254,959.71],[0.28519,0.65919,-0.64705,0.25587],conf,extj],Speed001,Zone001,azureKinect \WObj:=DefaultFrame;
WaitTime \InPos, 2;
SetDO \Sync, DO_1, 1;
WaitTime \InPos, 1;
SetDO \Sync, DO_1, 0;
MoveL [[1035.345,510.18,1099.187],[0.21095,0.68369,-0.67491,0.18046],conf,extj],Speed001,Zone001,azureKinect \WObj:=DefaultFrame;
WaitTime \InPos, 2;
SetDO \Sync, DO_1, 1;
WaitTime \InPos, 1;
SetDO \Sync, DO_1, 0;
MoveL [[1039.704,308.427,1196.248],[0.13406,0.6996,-0.69428,0.10277],conf,extj],Speed001,Zone001,azureKinect \WObj:=DefaultFrame;
WaitTime \InPos, 2;
SetDO \Sync, DO_1, 1;
WaitTime \InPos, 1;
SetDO \Sync, DO_1, 0;
MoveL [[1041.94,90.112,1246.027],[0.05548,0.70671,-0.70493,0.0238],conf,extj],Speed001,Zone001,azureKinect \WObj:=DefaultFrame;
WaitTime \InPos, 2;
SetDO \Sync, DO_1, 1;
WaitTime \InPos, 1;
SetDO \Sync, DO_1, 0;
MoveL [[1041.94,-133.817,1246.027],[0.0238,-0.70493,0.70671,0.05548],conf,extj],Speed001,Zone001,azureKinect \WObj:=DefaultFrame;
WaitTime \InPos, 2;
SetDO \Sync, DO_1, 1;
WaitTime \InPos, 1;
SetDO \Sync, DO_1, 0;
MoveL [[1039.704,-352.131,1196.248],[0.10277,-0.69428,0.6996,0.13406],conf,extj],Speed001,Zone001,azureKinect \WObj:=DefaultFrame;
WaitTime \InPos, 2;
SetDO \Sync, DO_1, 1;
WaitTime \InPos, 1;
SetDO \Sync, DO_1, 0;
MoveL [[1035.345,-553.884,1099.187],[0.18046,-0.67491,0.68369,0.21095],conf,extj],Speed001,Zone001,azureKinect \WObj:=DefaultFrame;
WaitTime \InPos, 2;
SetDO \Sync, DO_1, 1;
WaitTime \InPos, 1;
SetDO \Sync, DO_1, 0;
MoveL [[1029.081,-728.959,959.71],[0.25587,-0.64705,0.65919,0.28519],conf,extj],Speed001,Zone001,azureKinect \WObj:=DefaultFrame;
WaitTime \InPos, 2;
SetDO \Sync, DO_1, 1;
WaitTime \InPos, 1;
SetDO \Sync, DO_1, 0;
MoveL [[1092.274,-728.959,954.023],[0.22604,-0.6336,0.67,0.31393],conf,extj],Speed001,Zone001,azureKinect \WObj:=DefaultFrame;
WaitTime \InPos, 2;
SetDO \Sync, DO_1, 1;
WaitTime \InPos, 1;
SetDO \Sync, DO_1, 0;
MoveL [[1111.016,-553.884,1092.376],[0.1496,-0.66476,0.6911,0.24102],conf,extj],Speed001,Zone001,azureKinect \WObj:=DefaultFrame;
WaitTime \InPos, 2;
SetDO \Sync, DO_1, 1;
WaitTime \InPos, 1;
SetDO \Sync, DO_1, 0;
MoveL [[1124.058,-352.131,1188.656],[0.07128,-0.68757,0.7035,0.16507],conf,extj],Speed001,Zone001,azureKinect \WObj:=DefaultFrame;
WaitTime \InPos, 2;
SetDO \Sync, DO_1, 1;
WaitTime \InPos, 1;
SetDO \Sync, DO_1, 0;
MoveL [[1130.746,-133.817,1238.034],[-0.00793,-0.70173,0.70706,0.08705],conf,extj],Speed001,Zone001,azureKinect \WObj:=DefaultFrame;
WaitTime \InPos, 2;
SetDO \Sync, DO_1, 1;
WaitTime \InPos, 1;
SetDO \Sync, DO_1, 0;
MoveL [[1130.746,90.112,1238.034],[0.08705,0.70706,-0.70173,-0.00793],conf,extj],Speed001,Zone001,azureKinect \WObj:=DefaultFrame;
WaitTime \InPos, 2;
SetDO \Sync, DO_1, 1;
WaitTime \InPos, 1;
SetDO \Sync, DO_1, 0;
MoveL [[1124.058,308.427,1188.656],[0.16507,0.7035,-0.68757,0.07128],conf,extj],Speed001,Zone001,azureKinect \WObj:=DefaultFrame;
WaitTime \InPos, 2;
SetDO \Sync, DO_1, 1;
WaitTime \InPos, 1;
SetDO \Sync, DO_1, 0;
MoveL [[1111.016,510.18,1092.376],[0.24102,0.6911,-0.66476,0.1496],conf,extj],Speed001,Zone001,azureKinect \WObj:=DefaultFrame;
WaitTime \InPos, 2;
SetDO \Sync, DO_1, 1;
WaitTime \InPos, 1;
SetDO \Sync, DO_1, 0;
MoveL [[1092.274,685.254,954.023],[0.31393,0.67,-0.6336,0.22604],conf,extj],Speed001,Zone001,azureKinect \WObj:=DefaultFrame;
WaitTime \InPos, 2;
SetDO \Sync, DO_1, 1;
WaitTime \InPos, 1;
SetDO \Sync, DO_1, 0;
MoveL [[1154.703,685.254,942.693],[0.34204,0.67947,-0.61888,0.19575],conf,extj],Speed001,Zone001,azureKinect \WObj:=DefaultFrame;
WaitTime \InPos, 2;
SetDO \Sync, DO_1, 1;
WaitTime \InPos, 1;
SetDO \Sync, DO_1, 0;
MoveL [[1185.771,510.18,1078.81],[0.2706,0.69712,-0.65328,0.11844],conf,extj],Speed001,Zone001,azureKinect \WObj:=DefaultFrame;
WaitTime \InPos, 2;
SetDO \Sync, DO_1, 1;
WaitTime \InPos, 1;
SetDO \Sync, DO_1, 0;
MoveL [[1207.391,308.427,1173.533],[0.19575,0.70599,-0.67947,0.03965],conf,extj],Speed001,Zone001,azureKinect \WObj:=DefaultFrame;
WaitTime \InPos, 2;
SetDO \Sync, DO_1, 1;
WaitTime \InPos, 1;
SetDO \Sync, DO_1, 0;
MoveL [[1218.479,90.112,1222.113],[0.11844,0.70599,-0.69712,-0.03965],conf,extj],Speed001,Zone001,azureKinect \WObj:=DefaultFrame;
WaitTime \InPos, 2;
SetDO \Sync, DO_1, 1;
WaitTime \InPos, 1;
SetDO \Sync, DO_1, 0;
MoveL [[1218.479,-133.817,1222.113],[-0.03965,-0.69712,0.70599,0.11844],conf,extj],Speed001,Zone001,azureKinect \WObj:=DefaultFrame;
WaitTime \InPos, 2;
SetDO \Sync, DO_1, 1;
WaitTime \InPos, 1;
SetDO \Sync, DO_1, 0;
MoveL [[1207.391,-352.131,1173.533],[0.03965,-0.67947,0.70599,0.19575],conf,extj],Speed001,Zone001,azureKinect \WObj:=DefaultFrame;
WaitTime \InPos, 2;
SetDO \Sync, DO_1, 1;
WaitTime \InPos, 1;
SetDO \Sync, DO_1, 0;
MoveL [[1185.771,-553.884,1078.81],[0.11844,-0.65328,0.69712,0.2706],conf,extj],Speed001,Zone001,azureKinect \WObj:=DefaultFrame;
WaitTime \InPos, 2;
SetDO \Sync, DO_1, 1;
WaitTime \InPos, 1;
SetDO \Sync, DO_1, 0;
MoveL [[1154.703,-728.959,942.693],[0.19575,-0.61888,0.67947,0.34204],conf,extj],Speed001,Zone001,azureKinect \WObj:=DefaultFrame;
WaitTime \InPos, 2;
SetDO \Sync, DO_1, 1;
WaitTime \InPos, 1;
SetDO \Sync, DO_1, 0;
MoveL [[1215.865,-728.959,925.814],[0.16507,-0.60291,0.68757,0.36946],conf,extj],Speed001,Zone001,azureKinect \WObj:=DefaultFrame;
WaitTime \InPos, 2;
SetDO \Sync, DO_1, 1;
WaitTime \InPos, 1;
SetDO \Sync, DO_1, 0;
MoveL [[1259.009,-553.884,1058.598],[0.08705,-0.64048,0.70173,0.29963],conf,extj],Speed001,Zone001,azureKinect \WObj:=DefaultFrame;
WaitTime \InPos, 2;
SetDO \Sync, DO_1, 1;
WaitTime \InPos, 1;
SetDO \Sync, DO_1, 0;
MoveL [[1289.033,-352.131,1151.002],[0.00793,-0.67,0.70706,0.22604],conf,extj],Speed001,Zone001,azureKinect \WObj:=DefaultFrame;
WaitTime \InPos, 2;
SetDO \Sync, DO_1, 1;
WaitTime \InPos, 1;
SetDO \Sync, DO_1, 0;
MoveL [[1304.431,-133.817,1198.392],[-0.07128,-0.6911,0.7035,0.1496],conf,extj],Speed001,Zone001,azureKinect \WObj:=DefaultFrame;
WaitTime \InPos, 2;
SetDO \Sync, DO_1, 1;
WaitTime \InPos, 1;
SetDO \Sync, DO_1, 0;
MoveL [[1304.431,90.112,1198.392],[0.1496,0.7035,-0.6911,-0.07128],conf,extj],Speed001,Zone001,azureKinect \WObj:=DefaultFrame;
WaitTime \InPos, 2;
SetDO \Sync, DO_1, 1;
WaitTime \InPos, 1;
SetDO \Sync, DO_1, 0;
MoveL [[1289.033,308.427,1151.002],[0.22604,0.70706,-0.67,0.00793],conf,extj],Speed001,Zone001,azureKinect \WObj:=DefaultFrame;
WaitTime \InPos, 2;
SetDO \Sync, DO_1, 1;
WaitTime \InPos, 1;
SetDO \Sync, DO_1, 0;
MoveL [[1259.009,510.18,1058.598],[0.29963,0.70173,-0.64048,0.08705],conf,extj],Speed001,Zone001,azureKinect \WObj:=DefaultFrame;
WaitTime \InPos, 2;
SetDO \Sync, DO_1, 1;
WaitTime \InPos, 1;
SetDO \Sync, DO_1, 0;
MoveL [[1215.865,685.254,925.814],[0.36946,0.68757,-0.60291,0.16507],conf,extj],Speed001,Zone001,azureKinect \WObj:=DefaultFrame;
WaitTime \InPos, 2;
SetDO \Sync, DO_1, 1;
WaitTime \InPos, 1;
SetDO \Sync, DO_1, 0;
MoveAbsJ [[0,0,0,0,-90,105],extj],Speed000,Zone000,azureKinect;
SetDO \Sync, DO_0, 0;
ENDPROC
ENDMODULE