MODULE doTest_100_T_ROB1
VAR extjoint extj := [9E9,9E9,9E9,9E9,9E9,9E9];
VAR confdata conf := [0,0,0,0];
PERS tooldata kinectAzure:=[TRUE,[[60.825,0.000,77.675],[-0.50000,0.50000,-0.50000,0.50000]],[2.000,[60.825,0.000,77.675],[1,0,0,0],0,0,0]];
TASK PERS wobjdata DefaultFrame:=[FALSE,TRUE,"",[[0.000,0.000,0.000],[1.00000,0.00000,0.00000,0.00000]],[[0,0,0],[1,0,0,0]]];
TASK PERS speeddata Speed000:=[500.000,180.000,5000.000,1080.000];
TASK PERS speeddata Speed001:=[250.000,180.000,5000.000,1080.000];
TASK PERS zonedata Zone000:=[FALSE,1.000,1.000,1.000,0.100,1.000,0.100];
TASK PERS zonedata Zone001:=[FALSE,0.010,0.010,0.010,0.001,0.010,0.001];
PROC Main()
ConfL \Off;
PathAccLim FALSE, TRUE\DecelMax := .1;
SetDO \Sync, DO_2, 0;
SetDO \Sync, DO_3, 0;
MoveAbsJ [[1,0,-1,1,-1,1],extj],Speed000,Zone000,kinectAzure;
SetDO \Sync, DO_2, 1;
MoveL [[761.082,636.396,897.033],[-0.11062,-0.57206,0.6984,-0.41563],conf,extj],Speed001,Zone001,kinectAzure \WObj:=DefaultFrame;
WaitTime \InPos, 2;
SetDO \Sync, DO_3, 1;
WaitTime 0.5;
SetDO \Sync, DO_3, 0;
MoveL [[715.301,516.219,986.883],[-0.04933,-0.60611,0.70538,-0.36419],conf,extj],Speed001,Zone001,kinectAzure \WObj:=DefaultFrame;
WaitTime \InPos, 2;
SetDO \Sync, DO_3, 1;
WaitTime 0.5;
SetDO \Sync, DO_3, 0;
MoveL [[679.69,380.356,1056.774],[0.01234,-0.63554,0.707,-0.30998],conf,extj],Speed001,Zone001,kinectAzure \WObj:=DefaultFrame;
WaitTime \InPos, 2;
SetDO \Sync, DO_3, 1;
WaitTime 0.5;
SetDO \Sync, DO_3, 0;
MoveL [[655.331,232.937,1104.582],[0.07391,-0.66014,0.70323,-0.2534],conf,extj],Speed001,Zone001,kinectAzure \WObj:=DefaultFrame;
WaitTime \InPos, 2;
SetDO \Sync, DO_3, 1;
WaitTime 0.5;
SetDO \Sync, DO_3, 0;
MoveL [[642.963,78.44,1128.854],[0.13492,-0.67971,0.69412,-0.19491],conf,extj],Speed001,Zone001,kinectAzure \WObj:=DefaultFrame;
WaitTime \InPos, 2;
SetDO \Sync, DO_3, 1;
WaitTime 0.5;
SetDO \Sync, DO_3, 0;
MoveL [[642.963,-78.44,1128.854],[-0.19491,0.69412,-0.67971,0.13492],conf,extj],Speed001,Zone001,kinectAzure \WObj:=DefaultFrame;
WaitTime \InPos, 2;
SetDO \Sync, DO_3, 1;
WaitTime 0.5;
SetDO \Sync, DO_3, 0;
MoveL [[655.331,-232.937,1104.582],[-0.2534,0.70323,-0.66014,0.07391],conf,extj],Speed001,Zone001,kinectAzure \WObj:=DefaultFrame;
WaitTime \InPos, 2;
SetDO \Sync, DO_3, 1;
WaitTime 0.5;
SetDO \Sync, DO_3, 0;
MoveL [[679.69,-380.356,1056.774],[-0.30998,0.707,-0.63554,0.01234],conf,extj],Speed001,Zone001,kinectAzure \WObj:=DefaultFrame;
WaitTime \InPos, 2;
SetDO \Sync, DO_3, 1;
WaitTime 0.5;
SetDO \Sync, DO_3, 0;
MoveL [[715.301,-516.219,986.883],[-0.36419,0.70538,-0.60611,-0.04933],conf,extj],Speed001,Zone001,kinectAzure \WObj:=DefaultFrame;
WaitTime \InPos, 2;
SetDO \Sync, DO_3, 1;
WaitTime 0.5;
SetDO \Sync, DO_3, 0;
MoveL [[761.082,-636.396,897.033],[-0.41563,0.6984,-0.57206,-0.11062],conf,extj],Speed001,Zone001,kinectAzure \WObj:=DefaultFrame;
WaitTime \InPos, 2;
SetDO \Sync, DO_3, 1;
WaitTime 0.5;
SetDO \Sync, DO_3, 0;
MoveL [[813.663,-636.396,920.885],[-0.38925,0.69266,-0.59033,-0.14218],conf,extj],Speed001,Zone001,kinectAzure \WObj:=DefaultFrame;
WaitTime \InPos, 2;
SetDO \Sync, DO_3, 1;
WaitTime 0.5;
SetDO \Sync, DO_3, 0;
MoveL [[776.214,-516.219,1014.514],[-0.33632,0.70242,-0.62201,-0.08127],conf,extj],Speed001,Zone001,kinectAzure \WObj:=DefaultFrame;
WaitTime \InPos, 2;
SetDO \Sync, DO_3, 1;
WaitTime 0.5;
SetDO \Sync, DO_3, 0;
MoveL [[747.084,-380.356,1087.345],[-0.28083,0.70683,-0.64895,-0.01974],conf,extj],Speed001,Zone001,kinectAzure \WObj:=DefaultFrame;
WaitTime \InPos, 2;
SetDO \Sync, DO_3, 1;
WaitTime 0.5;
SetDO \Sync, DO_3, 0;
MoveL [[727.158,-232.937,1137.164],[-0.2232,0.70586,-0.67096,0.04194],conf,extj],Speed001,Zone001,kinectAzure \WObj:=DefaultFrame;
WaitTime \InPos, 2;
SetDO \Sync, DO_3, 1;
WaitTime 0.5;
SetDO \Sync, DO_3, 0;
MoveL [[717.041,-78.44,1162.457],[-0.16387,0.69952,-0.68786,0.1033],conf,extj],Speed001,Zone001,kinectAzure \WObj:=DefaultFrame;
WaitTime \InPos, 2;
SetDO \Sync, DO_3, 1;
WaitTime 0.5;
SetDO \Sync, DO_3, 0;
MoveL [[717.041,78.44,1162.457],[0.1033,-0.68786,0.69952,-0.16387],conf,extj],Speed001,Zone001,kinectAzure \WObj:=DefaultFrame;
WaitTime \InPos, 2;
SetDO \Sync, DO_3, 1;
WaitTime 0.5;
SetDO \Sync, DO_3, 0;
MoveL [[727.158,232.937,1137.164],[0.04194,-0.67096,0.70586,-0.2232],conf,extj],Speed001,Zone001,kinectAzure \WObj:=DefaultFrame;
WaitTime \InPos, 2;
SetDO \Sync, DO_3, 1;
WaitTime 0.5;
SetDO \Sync, DO_3, 0;
MoveL [[747.084,380.356,1087.345],[-0.01974,-0.64895,0.70683,-0.28083],conf,extj],Speed001,Zone001,kinectAzure \WObj:=DefaultFrame;
WaitTime \InPos, 2;
SetDO \Sync, DO_3, 1;
WaitTime 0.5;
SetDO \Sync, DO_3, 0;
MoveL [[776.214,516.219,1014.514],[-0.08127,-0.62201,0.70242,-0.33632],conf,extj],Speed001,Zone001,kinectAzure \WObj:=DefaultFrame;
WaitTime \InPos, 2;
SetDO \Sync, DO_3, 1;
WaitTime 0.5;
SetDO \Sync, DO_3, 0;
MoveL [[813.663,636.396,920.885],[-0.14218,-0.59033,0.69266,-0.38925],conf,extj],Speed001,Zone001,kinectAzure \WObj:=DefaultFrame;
WaitTime \InPos, 2;
SetDO \Sync, DO_3, 1;
WaitTime 0.5;
SetDO \Sync, DO_3, 0;
MoveL [[868.189,636.396,939.873],[-0.17346,-0.60738,0.6855,-0.36207],conf,extj],Speed001,Zone001,kinectAzure \WObj:=DefaultFrame;
WaitTime \InPos, 2;
SetDO \Sync, DO_3, 1;
WaitTime 0.5;
SetDO \Sync, DO_3, 0;
MoveL [[839.38,516.219,1036.511],[-0.11305,-0.63662,0.69801,-0.30775],conf,extj],Speed001,Zone001,kinectAzure \WObj:=DefaultFrame;
WaitTime \InPos, 2;
SetDO \Sync, DO_3, 1;
WaitTime 0.5;
SetDO \Sync, DO_3, 0;
MoveL [[816.971,380.356,1111.682],[-0.05179,-0.66102,0.70521,-0.2511],conf,extj],Speed001,Zone001,kinectAzure \WObj:=DefaultFrame;
WaitTime \InPos, 2;
SetDO \Sync, DO_3, 1;
WaitTime 0.5;
SetDO \Sync, DO_3, 0;
MoveL [[801.642,232.937,1163.102],[0.00987,-0.68039,0.70704,-0.19253],conf,extj],Speed001,Zone001,kinectAzure \WObj:=DefaultFrame;
WaitTime \InPos, 2;
SetDO \Sync, DO_3, 1;
WaitTime 0.5;
SetDO \Sync, DO_3, 0;
MoveL [[793.859,78.44,1189.208],[0.07146,-0.69458,0.70349,-0.1325],conf,extj],Speed001,Zone001,kinectAzure \WObj:=DefaultFrame;
WaitTime \InPos, 2;
SetDO \Sync, DO_3, 1;
WaitTime 0.5;
SetDO \Sync, DO_3, 0;
MoveL [[793.859,-78.44,1189.208],[-0.1325,0.70349,-0.69458,0.07146],conf,extj],Speed001,Zone001,kinectAzure \WObj:=DefaultFrame;
WaitTime \InPos, 2;
SetDO \Sync, DO_3, 1;
WaitTime 0.5;
SetDO \Sync, DO_3, 0;
MoveL [[801.642,-232.937,1163.102],[-0.19253,0.70704,-0.68039,0.00987],conf,extj],Speed001,Zone001,kinectAzure \WObj:=DefaultFrame;
WaitTime \InPos, 2;
SetDO \Sync, DO_3, 1;
WaitTime 0.5;
SetDO \Sync, DO_3, 0;
MoveL [[816.971,-380.356,1111.682],[-0.2511,0.70521,-0.66102,-0.05179],conf,extj],Speed001,Zone001,kinectAzure \WObj:=DefaultFrame;
WaitTime \InPos, 2;
SetDO \Sync, DO_3, 1;
WaitTime 0.5;
SetDO \Sync, DO_3, 0;
MoveL [[839.38,-516.219,1036.511],[-0.30775,0.69801,-0.63662,-0.11305],conf,extj],Speed001,Zone001,kinectAzure \WObj:=DefaultFrame;
WaitTime \InPos, 2;
SetDO \Sync, DO_3, 1;
WaitTime 0.5;
SetDO \Sync, DO_3, 0;
MoveL [[868.189,-636.396,939.873],[-0.36207,0.6855,-0.60738,-0.17346],conf,extj],Speed001,Zone001,kinectAzure \WObj:=DefaultFrame;
WaitTime \InPos, 2;
SetDO \Sync, DO_3, 1;
WaitTime 0.5;
SetDO \Sync, DO_3, 0;
MoveL [[924.212,-636.396,953.841],[-0.33414,0.67693,-0.62318,-0.20438],conf,extj],Speed001,Zone001,kinectAzure \WObj:=DefaultFrame;
WaitTime \InPos, 2;
SetDO \Sync, DO_3, 1;
WaitTime 0.5;
SetDO \Sync, DO_3, 0;
MoveL [[904.28,-516.219,1052.692],[-0.27856,0.69216,-0.64993,-0.1446],conf,extj],Speed001,Zone001,kinectAzure \WObj:=DefaultFrame;
WaitTime \InPos, 2;
SetDO \Sync, DO_3, 1;
WaitTime 0.5;
SetDO \Sync, DO_3, 0;
MoveL [[888.775,-380.356,1129.585],[-0.22085,0.70213,-0.67173,-0.08372],conf,extj],Speed001,Zone001,kinectAzure \WObj:=DefaultFrame;
WaitTime \InPos, 2;
SetDO \Sync, DO_3, 1;
WaitTime 0.5;
SetDO \Sync, DO_3, 0;
MoveL [[878.17,-232.937,1182.182],[-0.16147,0.70676,-0.68842,-0.02221],conf,extj],Speed001,Zone001,kinectAzure \WObj:=DefaultFrame;
WaitTime \InPos, 2;
SetDO \Sync, DO_3, 1;
WaitTime 0.5;
SetDO \Sync, DO_3, 0;
MoveL [[872.785,-78.44,1208.887],[-0.10085,0.706,-0.69988,0.03947],conf,extj],Speed001,Zone001,kinectAzure \WObj:=DefaultFrame;
WaitTime \InPos, 2;
SetDO \Sync, DO_3, 1;
WaitTime 0.5;
SetDO \Sync, DO_3, 0;
MoveL [[872.785,78.44,1208.887],[0.03947,-0.69988,0.706,-0.10085],conf,extj],Speed001,Zone001,kinectAzure \WObj:=DefaultFrame;
WaitTime \InPos, 2;
SetDO \Sync, DO_3, 1;
WaitTime 0.5;
SetDO \Sync, DO_3, 0;
MoveL [[878.17,232.937,1182.182],[-0.02221,-0.68842,0.70676,-0.16147],conf,extj],Speed001,Zone001,kinectAzure \WObj:=DefaultFrame;
WaitTime \InPos, 2;
SetDO \Sync, DO_3, 1;
WaitTime 0.5;
SetDO \Sync, DO_3, 0;
MoveL [[888.775,380.356,1129.585],[-0.08372,-0.67173,0.70213,-0.22085],conf,extj],Speed001,Zone001,kinectAzure \WObj:=DefaultFrame;
WaitTime \InPos, 2;
SetDO \Sync, DO_3, 1;
WaitTime 0.5;
SetDO \Sync, DO_3, 0;
MoveL [[904.28,516.219,1052.692],[-0.1446,-0.64993,0.69216,-0.27856],conf,extj],Speed001,Zone001,kinectAzure \WObj:=DefaultFrame;
WaitTime \InPos, 2;
SetDO \Sync, DO_3, 1;
WaitTime 0.5;
SetDO \Sync, DO_3, 0;
MoveL [[924.212,636.396,953.841],[-0.20438,-0.62318,0.67693,-0.33414],conf,extj],Speed001,Zone001,kinectAzure \WObj:=DefaultFrame;
WaitTime \InPos, 2;
SetDO \Sync, DO_3, 1;
WaitTime 0.5;
SetDO \Sync, DO_3, 0;
MoveL [[981.27,636.396,962.674],[-0.23487,-0.63769,0.66696,-0.30553],conf,extj],Speed001,Zone001,kinectAzure \WObj:=DefaultFrame;
WaitTime \InPos, 2;
SetDO \Sync, DO_3, 1;
WaitTime 0.5;
SetDO \Sync, DO_3, 0;
MoveL [[970.379,516.219,1062.925],[-0.17585,-0.66189,0.68489,-0.24879],conf,extj],Speed001,Zone001,kinectAzure \WObj:=DefaultFrame;
WaitTime \InPos, 2;
SetDO \Sync, DO_3, 1;
WaitTime 0.5;
SetDO \Sync, DO_3, 0;
MoveL [[961.907,380.356,1140.906],[-0.11549,-0.68106,0.69761,-0.19016],conf,extj],Speed001,Zone001,kinectAzure \WObj:=DefaultFrame;
WaitTime \InPos, 2;
SetDO \Sync, DO_3, 1;
WaitTime 0.5;
SetDO \Sync, DO_3, 0;
MoveL [[956.113,232.937,1194.248],[-0.05425,-0.69504,0.70502,-0.13007],conf,extj],Speed001,Zone001,kinectAzure \WObj:=DefaultFrame;
WaitTime \InPos, 2;
SetDO \Sync, DO_3, 1;
WaitTime 0.5;
SetDO \Sync, DO_3, 0;
MoveL [[953.17,78.44,1221.331],[0.0074,-0.70373,0.70707,-0.069],conf,extj],Speed001,Zone001,kinectAzure \WObj:=DefaultFrame;
WaitTime \InPos, 2;
SetDO \Sync, DO_3, 1;
WaitTime 0.5;
SetDO \Sync, DO_3, 0;
MoveL [[953.17,-78.44,1221.331],[-0.069,0.70707,-0.70373,0.0074],conf,extj],Speed001,Zone001,kinectAzure \WObj:=DefaultFrame;
WaitTime \InPos, 2;
SetDO \Sync, DO_3, 1;
WaitTime 0.5;
SetDO \Sync, DO_3, 0;
MoveL [[956.113,-232.937,1194.248],[-0.13007,0.70502,-0.69504,-0.05425],conf,extj],Speed001,Zone001,kinectAzure \WObj:=DefaultFrame;
WaitTime \InPos, 2;
SetDO \Sync, DO_3, 1;
WaitTime 0.5;
SetDO \Sync, DO_3, 0;
MoveL [[961.907,-380.356,1140.906],[-0.19016,0.69761,-0.68106,-0.11549],conf,extj],Speed001,Zone001,kinectAzure \WObj:=DefaultFrame;
WaitTime \InPos, 2;
SetDO \Sync, DO_3, 1;
WaitTime 0.5;
SetDO \Sync, DO_3, 0;
MoveL [[970.379,-516.219,1062.925],[-0.24879,0.68489,-0.66189,-0.17585],conf,extj],Speed001,Zone001,kinectAzure \WObj:=DefaultFrame;
WaitTime \InPos, 2;
SetDO \Sync, DO_3, 1;
WaitTime 0.5;
SetDO \Sync, DO_3, 0;
MoveL [[981.27,-636.396,962.674],[-0.30553,0.66696,-0.63769,-0.23487],conf,extj],Speed001,Zone001,kinectAzure \WObj:=DefaultFrame;
WaitTime \InPos, 2;
SetDO \Sync, DO_3, 1;
WaitTime 0.5;
SetDO \Sync, DO_3, 0;
MoveL [[1038.893,-636.396,966.299],[-0.27629,0.65562,-0.6509,-0.26489],conf,extj],Speed001,Zone001,kinectAzure \WObj:=DefaultFrame;
WaitTime \InPos, 2;
SetDO \Sync, DO_3, 1;
WaitTime 0.5;
SetDO \Sync, DO_3, 0;
MoveL [[1037.133,-516.219,1067.125],[-0.21851,0.67621,-0.6725,-0.20674],conf,extj],Speed001,Zone001,kinectAzure \WObj:=DefaultFrame;
WaitTime \InPos, 2;
SetDO \Sync, DO_3, 1;
WaitTime 0.5;
SetDO \Sync, DO_3, 0;
MoveL [[1035.764,-380.356,1145.553],[-0.15906,0.69165,-0.68898,-0.14702],conf,extj],Speed001,Zone001,kinectAzure \WObj:=DefaultFrame;
WaitTime \InPos, 2;
SetDO \Sync, DO_3, 1;
WaitTime 0.5;
SetDO \Sync, DO_3, 0;
MoveL [[1034.828,-232.937,1199.201],[-0.09841,0.70184,-0.70023,-0.08617],conf,extj],Speed001,Zone001,kinectAzure \WObj:=DefaultFrame;
WaitTime \InPos, 2;
SetDO \Sync, DO_3, 1;
WaitTime 0.5;
SetDO \Sync, DO_3, 0;
MoveL [[1034.353,-78.44,1226.439],[-0.03701,0.70668,-0.70614,-0.02468],conf,extj],Speed001,Zone001,kinectAzure \WObj:=DefaultFrame;
WaitTime \InPos, 2;
SetDO \Sync, DO_3, 1;
WaitTime 0.5;
SetDO \Sync, DO_3, 0;
MoveL [[1034.353,78.44,1226.439],[-0.02468,-0.70614,0.70668,-0.03701],conf,extj],Speed001,Zone001,kinectAzure \WObj:=DefaultFrame;
WaitTime \InPos, 2;
SetDO \Sync, DO_3, 1;
WaitTime 0.5;
SetDO \Sync, DO_3, 0;
MoveL [[1034.828,232.937,1199.201],[-0.08617,-0.70023,0.70184,-0.09841],conf,extj],Speed001,Zone001,kinectAzure \WObj:=DefaultFrame;
WaitTime \InPos, 2;
SetDO \Sync, DO_3, 1;
WaitTime 0.5;
SetDO \Sync, DO_3, 0;
MoveL [[1035.764,380.356,1145.553],[-0.14702,-0.68898,0.69165,-0.15906],conf,extj],Speed001,Zone001,kinectAzure \WObj:=DefaultFrame;
WaitTime \InPos, 2;
SetDO \Sync, DO_3, 1;
WaitTime 0.5;
SetDO \Sync, DO_3, 0;
MoveL [[1037.133,516.219,1067.125],[-0.20674,-0.6725,0.67621,-0.21851],conf,extj],Speed001,Zone001,kinectAzure \WObj:=DefaultFrame;
WaitTime \InPos, 2;
SetDO \Sync, DO_3, 1;
WaitTime 0.5;
SetDO \Sync, DO_3, 0;
MoveL [[1038.893,636.396,966.299],[-0.26489,-0.6509,0.65562,-0.27629],conf,extj],Speed001,Zone001,kinectAzure \WObj:=DefaultFrame;
WaitTime \InPos, 2;
SetDO \Sync, DO_3, 1;
WaitTime 0.5;
SetDO \Sync, DO_3, 0;
MoveL [[1096.609,636.396,964.687],[0.29435,0.66276,-0.64293,0.24648],conf,extj],Speed001,Zone001,kinectAzure \WObj:=DefaultFrame;
WaitTime \InPos, 2;
SetDO \Sync, DO_3, 1;
WaitTime 0.5;
SetDO \Sync, DO_3, 0;
MoveL [[1103.994,516.219,1065.257],[0.2372,0.68172,-0.66614,0.18778],conf,extj],Speed001,Zone001,kinectAzure \WObj:=DefaultFrame;
WaitTime \InPos, 2;
SetDO \Sync, DO_3, 1;
WaitTime 0.5;
SetDO \Sync, DO_3, 0;
MoveL [[1109.739,380.356,1143.486],[0.17824,0.69549,-0.68427,0.12765],conf,extj],Speed001,Zone001,kinectAzure \WObj:=DefaultFrame;
WaitTime \InPos, 2;
SetDO \Sync, DO_3, 1;
WaitTime 0.5;
SetDO \Sync, DO_3, 0;
MoveL [[1113.668,232.937,1196.999],[0.11792,0.70397,-0.6972,0.06654],conf,extj],Speed001,Zone001,kinectAzure \WObj:=DefaultFrame;
WaitTime \InPos, 2;
SetDO \Sync, DO_3, 1;
WaitTime 0.5;
SetDO \Sync, DO_3, 0;
MoveL [[1115.664,78.44,1224.167],[0.05671,0.70709,-0.70483,0.00494],conf,extj],Speed001,Zone001,kinectAzure \WObj:=DefaultFrame;
WaitTime \InPos, 2;
SetDO \Sync, DO_3, 1;
WaitTime 0.5;
SetDO \Sync, DO_3, 0;
MoveL [[1115.664,-78.44,1224.167],[0.00494,-0.70483,0.70709,0.05671],conf,extj],Speed001,Zone001,kinectAzure \WObj:=DefaultFrame;
WaitTime \InPos, 2;
SetDO \Sync, DO_3, 1;
WaitTime 0.5;
SetDO \Sync, DO_3, 0;
MoveL [[1113.668,-232.937,1196.999],[0.06654,-0.6972,0.70397,0.11792],conf,extj],Speed001,Zone001,kinectAzure \WObj:=DefaultFrame;
WaitTime \InPos, 2;
SetDO \Sync, DO_3, 1;
WaitTime 0.5;
SetDO \Sync, DO_3, 0;
MoveL [[1109.739,-380.356,1143.486],[0.12765,-0.68427,0.69549,0.17824],conf,extj],Speed001,Zone001,kinectAzure \WObj:=DefaultFrame;
WaitTime \InPos, 2;
SetDO \Sync, DO_3, 1;
WaitTime 0.5;
SetDO \Sync, DO_3, 0;
MoveL [[1103.994,-516.219,1065.257],[0.18778,-0.66614,0.68172,0.2372],conf,extj],Speed001,Zone001,kinectAzure \WObj:=DefaultFrame;
WaitTime \InPos, 2;
SetDO \Sync, DO_3, 1;
WaitTime 0.5;
SetDO \Sync, DO_3, 0;
MoveL [[1096.609,-636.396,964.687],[0.24648,-0.64293,0.66276,0.29435],conf,extj],Speed001,Zone001,kinectAzure \WObj:=DefaultFrame;
WaitTime \InPos, 2;
SetDO \Sync, DO_3, 1;
WaitTime 0.5;
SetDO \Sync, DO_3, 0;
MoveL [[1153.94,-636.396,957.851],[0.21616,-0.62891,0.67326,0.32322],conf,extj],Speed001,Zone001,kinectAzure \WObj:=DefaultFrame;
WaitTime \InPos, 2;
SetDO \Sync, DO_3, 1;
WaitTime 0.5;
SetDO \Sync, DO_3, 0;
MoveL [[1170.41,-516.219,1057.337],[0.15666,-0.65469,0.68953,0.26717],conf,extj],Speed001,Zone001,kinectAzure \WObj:=DefaultFrame;
WaitTime \InPos, 2;
SetDO \Sync, DO_3, 1;
WaitTime 0.5;
SetDO \Sync, DO_3, 0;
MoveL [[1183.221,-380.356,1134.724],[0.09597,-0.67548,0.70056,0.2091],conf,extj],Speed001,Zone001,kinectAzure \WObj:=DefaultFrame;
WaitTime \InPos, 2;
SetDO \Sync, DO_3, 1;
WaitTime 0.5;
SetDO \Sync, DO_3, 0;
MoveL [[1191.985,-232.937,1187.66],[0.03454,-0.69114,0.70626,0.14943],conf,extj],Speed001,Zone001,kinectAzure \WObj:=DefaultFrame;
WaitTime \InPos, 2;
SetDO \Sync, DO_3, 1;
WaitTime 0.5;
SetDO \Sync, DO_3, 0;
MoveL [[1196.434,-78.44,1214.536],[-0.02714,-0.70153,0.70659,0.08862],conf,extj],Speed001,Zone001,kinectAzure \WObj:=DefaultFrame;
WaitTime \InPos, 2;
SetDO \Sync, DO_3, 1;
WaitTime 0.5;
SetDO \Sync, DO_3, 0;
MoveL [[1196.434,78.44,1214.536],[0.08862,0.70659,-0.70153,-0.02714],conf,extj],Speed001,Zone001,kinectAzure \WObj:=DefaultFrame;
WaitTime \InPos, 2;
SetDO \Sync, DO_3, 1;
WaitTime 0.5;
SetDO \Sync, DO_3, 0;
MoveL [[1191.985,232.937,1187.66],[0.14943,0.70626,-0.69114,0.03454],conf,extj],Speed001,Zone001,kinectAzure \WObj:=DefaultFrame;
WaitTime \InPos, 2;
SetDO \Sync, DO_3, 1;
WaitTime 0.5;
SetDO \Sync, DO_3, 0;
MoveL [[1183.221,380.356,1134.724],[0.2091,0.70056,-0.67548,0.09597],conf,extj],Speed001,Zone001,kinectAzure \WObj:=DefaultFrame;
WaitTime \InPos, 2;
SetDO \Sync, DO_3, 1;
WaitTime 0.5;
SetDO \Sync, DO_3, 0;
MoveL [[1170.41,516.219,1057.337],[0.26717,0.68953,-0.65469,0.15666],conf,extj],Speed001,Zone001,kinectAzure \WObj:=DefaultFrame;
WaitTime \InPos, 2;
SetDO \Sync, DO_3, 1;
WaitTime 0.5;
SetDO \Sync, DO_3, 0;
MoveL [[1153.94,636.396,957.851],[0.32322,0.67326,-0.62891,0.21616],conf,extj],Speed001,Zone001,kinectAzure \WObj:=DefaultFrame;
WaitTime \InPos, 2;
SetDO \Sync, DO_3, 1;
WaitTime 0.5;
SetDO \Sync, DO_3, 0;
MoveL [[1210.416,636.396,945.846],[0.35141,0.68237,-0.6136,0.1854],conf,extj],Speed001,Zone001,kinectAzure \WObj:=DefaultFrame;
WaitTime \InPos, 2;
SetDO \Sync, DO_3, 1;
WaitTime 0.5;
SetDO \Sync, DO_3, 0;
MoveL [[1235.835,516.219,1043.431],[0.2966,0.69593,-0.6419,0.12522],conf,extj],Speed001,Zone001,kinectAzure \WObj:=DefaultFrame;
WaitTime \InPos, 2;
SetDO \Sync, DO_3, 1;
WaitTime 0.5;
SetDO \Sync, DO_3, 0;
MoveL [[1255.607,380.356,1119.338],[0.23952,0.7042,-0.6653,0.06409],conf,extj],Speed001,Zone001,kinectAzure \WObj:=DefaultFrame;
WaitTime \InPos, 2;
SetDO \Sync, DO_3, 1;
WaitTime 0.5;
SetDO \Sync, DO_3, 0;
MoveL [[1269.132,232.937,1171.262],[0.18063,0.7071,-0.68365,0.00247],conf,extj],Speed001,Zone001,kinectAzure \WObj:=DefaultFrame;
WaitTime \InPos, 2;
SetDO \Sync, DO_3, 1;
WaitTime 0.5;
SetDO \Sync, DO_3, 0;
MoveL [[1275.999,78.44,1197.624],[0.12036,0.70463,-0.69679,-0.05917],conf,extj],Speed001,Zone001,kinectAzure \WObj:=DefaultFrame;
WaitTime \InPos, 2;
SetDO \Sync, DO_3, 1;
WaitTime 0.5;
SetDO \Sync, DO_3, 0;
MoveL [[1275.999,-78.44,1197.624],[-0.05917,-0.69679,0.70463,0.12036],conf,extj],Speed001,Zone001,kinectAzure \WObj:=DefaultFrame;
WaitTime \InPos, 2;
SetDO \Sync, DO_3, 1;
WaitTime 0.5;
SetDO \Sync, DO_3, 0;
MoveL [[1269.132,-232.937,1171.262],[0.00247,-0.68365,0.7071,0.18063],conf,extj],Speed001,Zone001,kinectAzure \WObj:=DefaultFrame;
WaitTime \InPos, 2;
SetDO \Sync, DO_3, 1;
WaitTime 0.5;
SetDO \Sync, DO_3, 0;
MoveL [[1255.607,-380.356,1119.338],[0.06409,-0.6653,0.7042,0.23952],conf,extj],Speed001,Zone001,kinectAzure \WObj:=DefaultFrame;
WaitTime \InPos, 2;
SetDO \Sync, DO_3, 1;
WaitTime 0.5;
SetDO \Sync, DO_3, 0;
MoveL [[1235.835,-516.219,1043.431],[0.12522,-0.6419,0.69593,0.2966],conf,extj],Speed001,Zone001,kinectAzure \WObj:=DefaultFrame;
WaitTime \InPos, 2;
SetDO \Sync, DO_3, 1;
WaitTime 0.5;
SetDO \Sync, DO_3, 0;
MoveL [[1210.416,-636.396,945.846],[0.1854,-0.6136,0.68237,0.35141],conf,extj],Speed001,Zone001,kinectAzure \WObj:=DefaultFrame;
WaitTime \InPos, 2;
SetDO \Sync, DO_3, 1;
WaitTime 0.5;
SetDO \Sync, DO_3, 0;
MoveL [[1265.571,-636.396,928.773],[0.15425,-0.59703,0.69008,0.37889],conf,extj],Speed001,Zone001,kinectAzure \WObj:=DefaultFrame;
WaitTime \InPos, 2;
SetDO \Sync, DO_3, 1;
WaitTime 0.5;
SetDO \Sync, DO_3, 0;
MoveL [[1299.73,-516.219,1023.652],[0.09352,-0.62778,0.7009,0.32541],conf,extj],Speed001,Zone001,kinectAzure \WObj:=DefaultFrame;
WaitTime \InPos, 2;
SetDO \Sync, DO_3, 1;
WaitTime 0.5;
SetDO \Sync, DO_3, 0;
MoveL [[1326.301,-380.356,1097.455],[0.03208,-0.65375,0.70638,0.26946],conf,extj],Speed001,Zone001,kinectAzure \WObj:=DefaultFrame;
WaitTime \InPos, 2;
SetDO \Sync, DO_3, 1;
WaitTime 0.5;
SetDO \Sync, DO_3, 0;
MoveL [[1344.476,-232.937,1147.939],[-0.02961,-0.67475,0.70649,0.21145],conf,extj],Speed001,Zone001,kinectAzure \WObj:=DefaultFrame;
WaitTime \InPos, 2;
SetDO \Sync, DO_3, 1;
WaitTime 0.5;
SetDO \Sync, DO_3, 0;
MoveL [[1353.704,-78.44,1173.57],[-0.09107,-0.69061,0.70122,0.15184],conf,extj],Speed001,Zone001,kinectAzure \WObj:=DefaultFrame;
WaitTime \InPos, 2;
SetDO \Sync, DO_3, 1;
WaitTime 0.5;
SetDO \Sync, DO_3, 0;
MoveL [[1353.704,78.44,1173.57],[0.15184,0.70122,-0.69061,-0.09107],conf,extj],Speed001,Zone001,kinectAzure \WObj:=DefaultFrame;
WaitTime \InPos, 2;
SetDO \Sync, DO_3, 1;
WaitTime 0.5;
SetDO \Sync, DO_3, 0;
MoveL [[1344.476,232.937,1147.939],[0.21145,0.70649,-0.67475,-0.02961],conf,extj],Speed001,Zone001,kinectAzure \WObj:=DefaultFrame;
WaitTime \InPos, 2;
SetDO \Sync, DO_3, 1;
WaitTime 0.5;
SetDO \Sync, DO_3, 0;
MoveL [[1326.301,380.356,1097.455],[0.26946,0.70638,-0.65375,0.03208],conf,extj],Speed001,Zone001,kinectAzure \WObj:=DefaultFrame;
WaitTime \InPos, 2;
SetDO \Sync, DO_3, 1;
WaitTime 0.5;
SetDO \Sync, DO_3, 0;
MoveL [[1299.73,516.219,1023.652],[0.32541,0.7009,-0.62778,0.09352],conf,extj],Speed001,Zone001,kinectAzure \WObj:=DefaultFrame;
WaitTime \InPos, 2;
SetDO \Sync, DO_3, 1;
WaitTime 0.5;
SetDO \Sync, DO_3, 0;
MoveL [[1265.571,636.396,928.773],[0.37889,0.69008,-0.59703,0.15425],conf,extj],Speed001,Zone001,kinectAzure \WObj:=DefaultFrame;
WaitTime \InPos, 2;
SetDO \Sync, DO_3, 1;
WaitTime 0.5;
SetDO \Sync, DO_3, 0;
MoveAbsJ [[1,0,-1,1,-1,1],extj],Speed000,Zone000,kinectAzure;
SetDO \Sync, DO_2, 0;
ENDPROC
ENDMODULE