MODULE sphereTest_T_ROB1
VAR extjoint extj := [9E9,9E9,9E9,9E9,9E9,9E9];
VAR confdata conf := [0,0,0,0];
PERS tooldata kinectAzure:=[TRUE,[[60.825,0.000,77.675],[-0.50000,0.50000,-0.50000,0.50000]],[2.000,[60.825,0.000,77.675],[1,0,0,0],0,0,0]];
TASK PERS wobjdata DefaultFrame:=[FALSE,TRUE,"",[[0.000,0.000,0.000],[1.00000,0.00000,0.00000,0.00000]],[[0,0,0],[1,0,0,0]]];
TASK PERS speeddata Speed000:=[500.000,180.000,5000.000,1080.000];
TASK PERS speeddata Speed001:=[250.000,180.000,5000.000,1080.000];
TASK PERS zonedata Zone000:=[FALSE,1.000,1.000,1.000,0.100,1.000,0.100];
TASK PERS zonedata Zone001:=[FALSE,0.010,0.010,0.010,0.001,0.010,0.001];
PROC Main()
ConfL \Off;
PathAccLim FALSE, TRUE\DecelMax := .01;
MoveAbsJ [[1,0,-1,1,-1,1],extj],Speed000,Zone000,kinectAzure;
MoveL [[1300,0,500],[0,0.70711,-0.70711,0],conf,extj],Speed001,Zone001,kinectAzure \WObj:=DefaultFrame;
WaitRob \InPos;
WaitTime 5;
MoveL [[1139.49,353.553,315.018],[-0.11062,-0.57206,0.6984,-0.41563],conf,extj],Speed001,Zone001,kinectAzure \WObj:=DefaultFrame;
WaitRob \InPos;
WaitTime 5;
MoveL [[1090.284,191.342,411.591],[0.02776,-0.64215,0.70656,-0.29604],conf,extj],Speed001,Zone001,kinectAzure \WObj:=DefaultFrame;
WaitRob \InPos;
WaitTime 5;
MoveL [[1073.005,0,445.503],[-0.16507,0.68757,-0.68757,0.16507],conf,extj],Speed001,Zone001,kinectAzure \WObj:=DefaultFrame;
WaitRob \InPos;
WaitTime 5;
MoveL [[1090.284,-191.342,411.591],[-0.29604,0.70656,-0.64215,0.02776],conf,extj],Speed001,Zone001,kinectAzure \WObj:=DefaultFrame;
WaitRob \InPos;
WaitTime 5;
MoveL [[1139.49,-353.553,315.018],[-0.41563,0.6984,-0.57206,-0.11062],conf,extj],Speed001,Zone001,kinectAzure \WObj:=DefaultFrame;
WaitRob \InPos;
WaitTime 5;
MoveL [[1201.362,-353.553,339.515],[-0.35995,0.68489,-0.60864,-0.17585],conf,extj],Speed001,Zone001,kinectAzure \WObj:=DefaultFrame;
WaitRob \InPos;
WaitTime 5;
MoveL [[1171.123,-191.342,443.598],[-0.23429,0.70604,-0.66716,-0.03886],conf,extj],Speed001,Zone001,kinectAzure \WObj:=DefaultFrame;
WaitRob \InPos;
WaitTime 5;
MoveL [[1160.504,0,480.147],[-0.09963,0.70005,-0.70005,0.09963],conf,extj],Speed001,Zone001,kinectAzure \WObj:=DefaultFrame;
WaitRob \InPos;
WaitTime 5;
MoveL [[1171.123,191.342,443.598],[-0.03886,-0.66716,0.70604,-0.23429],conf,extj],Speed001,Zone001,kinectAzure \WObj:=DefaultFrame;
WaitRob \InPos;
WaitTime 5;
MoveL [[1201.362,353.553,339.515],[-0.17585,-0.60864,0.68489,-0.35995],conf,extj],Speed001,Zone001,kinectAzure \WObj:=DefaultFrame;
WaitRob \InPos;
WaitTime 5;
MoveL [[1266.728,353.553,351.984],[-0.23952,-0.63981,0.6653,-0.30107],conf,extj],Speed001,Zone001,kinectAzure \WObj:=DefaultFrame;
WaitRob \InPos;
WaitTime 5;
MoveL [[1256.528,191.342,459.89],[-0.10513,-0.68625,0.69925,-0.17047],conf,extj],Speed001,Zone001,kinectAzure \WObj:=DefaultFrame;
WaitRob \InPos;
WaitTime 5;
MoveL [[1252.946,0,497.781],[-0.03331,0.70632,-0.70632,0.03331],conf,extj],Speed001,Zone001,kinectAzure \WObj:=DefaultFrame;
WaitRob \InPos;
WaitTime 5;
MoveL [[1256.528,-191.342,459.89],[-0.17047,0.69925,-0.68625,-0.10513],conf,extj],Speed001,Zone001,kinectAzure \WObj:=DefaultFrame;
WaitRob \InPos;
WaitTime 5;
MoveL [[1266.728,-353.553,351.984],[-0.30107,0.6653,-0.63981,-0.23952],conf,extj],Speed001,Zone001,kinectAzure \WObj:=DefaultFrame;
WaitRob \InPos;
WaitTime 5;
MoveL [[1333.272,-353.553,351.984],[0.23952,-0.63981,0.6653,0.30107],conf,extj],Speed001,Zone001,kinectAzure \WObj:=DefaultFrame;
WaitRob \InPos;
WaitTime 5;
MoveL [[1343.472,-191.342,459.89],[0.10513,-0.68625,0.69925,0.17047],conf,extj],Speed001,Zone001,kinectAzure \WObj:=DefaultFrame;
WaitRob \InPos;
WaitTime 5;
MoveL [[1347.054,0,497.781],[-0.03331,-0.70632,0.70632,0.03331],conf,extj],Speed001,Zone001,kinectAzure \WObj:=DefaultFrame;
WaitRob \InPos;
WaitTime 5;
MoveL [[1343.472,191.342,459.89],[0.17047,0.69925,-0.68625,0.10513],conf,extj],Speed001,Zone001,kinectAzure \WObj:=DefaultFrame;
WaitRob \InPos;
WaitTime 5;
MoveL [[1333.272,353.553,351.984],[0.30107,0.6653,-0.63981,0.23952],conf,extj],Speed001,Zone001,kinectAzure \WObj:=DefaultFrame;
WaitRob \InPos;
WaitTime 5;
MoveL [[1398.638,353.553,339.515],[0.35995,0.68489,-0.60864,0.17585],conf,extj],Speed001,Zone001,kinectAzure \WObj:=DefaultFrame;
WaitRob \InPos;
WaitTime 5;
MoveL [[1428.877,191.342,443.598],[0.23429,0.70604,-0.66716,0.03886],conf,extj],Speed001,Zone001,kinectAzure \WObj:=DefaultFrame;
WaitRob \InPos;
WaitTime 5;
MoveL [[1439.496,0,480.147],[-0.09963,-0.70005,0.70005,0.09963],conf,extj],Speed001,Zone001,kinectAzure \WObj:=DefaultFrame;
WaitRob \InPos;
WaitTime 5;
MoveL [[1428.877,-191.342,443.598],[0.03886,-0.66716,0.70604,0.23429],conf,extj],Speed001,Zone001,kinectAzure \WObj:=DefaultFrame;
WaitRob \InPos;
WaitTime 5;
MoveL [[1398.638,-353.553,339.515],[0.17585,-0.60864,0.68489,0.35995],conf,extj],Speed001,Zone001,kinectAzure \WObj:=DefaultFrame;
WaitRob \InPos;
WaitTime 5;
MoveL [[1460.51,-353.553,315.018],[0.11062,-0.57206,0.6984,0.41563],conf,extj],Speed001,Zone001,kinectAzure \WObj:=DefaultFrame;
WaitRob \InPos;
WaitTime 5;
MoveL [[1509.716,-191.342,411.591],[-0.02776,-0.64215,0.70656,0.29604],conf,extj],Speed001,Zone001,kinectAzure \WObj:=DefaultFrame;
WaitRob \InPos;
WaitTime 5;
MoveL [[1526.995,0,445.503],[-0.16507,-0.68757,0.68757,0.16507],conf,extj],Speed001,Zone001,kinectAzure \WObj:=DefaultFrame;
WaitRob \InPos;
WaitTime 5;
MoveL [[1509.716,191.342,411.591],[0.29604,0.70656,-0.64215,-0.02776],conf,extj],Speed001,Zone001,kinectAzure \WObj:=DefaultFrame;
WaitRob \InPos;
WaitTime 5;
MoveL [[1460.51,353.553,315.018],[0.41563,0.6984,-0.57206,0.11062],conf,extj],Speed001,Zone001,kinectAzure \WObj:=DefaultFrame;
WaitRob \InPos;
WaitTime 5;
MoveAbsJ [[1,0,-1,1,-1,1],extj],Speed000,Zone000,kinectAzure;
ENDPROC
ENDMODULE