MODULE hexScanSph_T_ROB1
VAR extjoint extj := [9E9,9E9,9E9,9E9,9E9,9E9];
VAR confdata conf := [0,0,0,0];
PERS tooldata kinectAzure:=[TRUE,[[-45.634,-46.661,81.608],[0.09230,-0.09230,-0.70106,0.70106]],[2.000,[-45.634,-46.661,81.608],[1,0,0,0],0,0,0]];
TASK PERS wobjdata DefaultFrame:=[FALSE,TRUE,"",[[0.000,0.000,0.000],[1.00000,0.00000,0.00000,0.00000]],[[0,0,0],[1,0,0,0]]];
TASK PERS speeddata Speed000:=[500.000,180.000,5000.000,1080.000];
TASK PERS speeddata Speed001:=[250.000,180.000,5000.000,1080.000];
TASK PERS zonedata Zone000:=[FALSE,1.000,1.000,1.000,0.100,1.000,0.100];
TASK PERS zonedata Zone001:=[FALSE,0.010,0.010,0.010,0.001,0.010,0.001];
PROC Main()
ConfL \Off;
PathAccLim FALSE, TRUE\DecelMax := .1;
SetDO \Sync, DO_0, 0;
SetDO \Sync, DO_1, 0;
MoveAbsJ [[1,0,-1,1,-1,105],extj],Speed000,Zone000,kinectAzure;
SetDO \Sync, DO_0, 1;
MoveL [[798.34,601.041,814.146],[-0.15425,-0.59703,0.69008,-0.37889],conf,extj],Speed001,Zone001,kinectAzure \WObj:=DefaultFrame;
WaitTime \InPos, 3;
SetDO \Sync, DO_1, 1;
WaitTime 0.5;
SetDO \Sync, DO_1, 0;
MoveL [[766.079,487.54,903.754],[-0.09352,-0.62778,0.7009,-0.32541],conf,extj],Speed001,Zone001,kinectAzure \WObj:=DefaultFrame;
WaitTime \InPos, 3;
SetDO \Sync, DO_1, 1;
WaitTime 0.5;
SetDO \Sync, DO_1, 0;
MoveL [[740.984,359.226,973.457],[-0.03208,-0.65375,0.70638,-0.26946],conf,extj],Speed001,Zone001,kinectAzure \WObj:=DefaultFrame;
WaitTime \InPos, 3;
SetDO \Sync, DO_1, 1;
WaitTime 0.5;
SetDO \Sync, DO_1, 0;
MoveL [[723.819,219.996,1021.136],[0.02961,-0.67475,0.70649,-0.21145],conf,extj],Speed001,Zone001,kinectAzure \WObj:=DefaultFrame;
WaitTime \InPos, 3;
SetDO \Sync, DO_1, 1;
WaitTime 0.5;
SetDO \Sync, DO_1, 0;
MoveL [[715.104,74.082,1045.344],[0.09107,-0.69061,0.70122,-0.15184],conf,extj],Speed001,Zone001,kinectAzure \WObj:=DefaultFrame;
WaitTime \InPos, 3;
SetDO \Sync, DO_1, 1;
WaitTime 0.5;
SetDO \Sync, DO_1, 0;
MoveL [[715.104,-74.082,1045.344],[-0.15184,0.70122,-0.69061,0.09107],conf,extj],Speed001,Zone001,kinectAzure \WObj:=DefaultFrame;
WaitTime \InPos, 3;
SetDO \Sync, DO_1, 1;
WaitTime 0.5;
SetDO \Sync, DO_1, 0;
MoveL [[723.819,-219.996,1021.136],[-0.21145,0.70649,-0.67475,0.02961],conf,extj],Speed001,Zone001,kinectAzure \WObj:=DefaultFrame;
WaitTime \InPos, 3;
SetDO \Sync, DO_1, 1;
WaitTime 0.5;
SetDO \Sync, DO_1, 0;
MoveL [[740.984,-359.226,973.457],[-0.26946,0.70638,-0.65375,-0.03208],conf,extj],Speed001,Zone001,kinectAzure \WObj:=DefaultFrame;
WaitTime \InPos, 3;
SetDO \Sync, DO_1, 1;
WaitTime 0.5;
SetDO \Sync, DO_1, 0;
MoveL [[766.079,-487.54,903.754],[-0.32541,0.7009,-0.62778,-0.09352],conf,extj],Speed001,Zone001,kinectAzure \WObj:=DefaultFrame;
WaitTime \InPos, 3;
SetDO \Sync, DO_1, 1;
WaitTime 0.5;
SetDO \Sync, DO_1, 0;
MoveL [[798.34,-601.041,814.146],[-0.37889,0.69008,-0.59703,-0.15425],conf,extj],Speed001,Zone001,kinectAzure \WObj:=DefaultFrame;
WaitTime \InPos, 3;
SetDO \Sync, DO_1, 1;
WaitTime 0.5;
SetDO \Sync, DO_1, 0;
MoveL [[848.402,-601.041,829.738],[-0.35248,0.68269,-0.61299,-0.1842],conf,extj],Speed001,Zone001,kinectAzure \WObj:=DefaultFrame;
WaitTime \InPos, 3;
SetDO \Sync, DO_1, 1;
WaitTime 0.5;
SetDO \Sync, DO_1, 0;
MoveL [[824.074,-487.54,921.817],[-0.29772,0.69615,-0.64138,-0.124],conf,extj],Speed001,Zone001,kinectAzure \WObj:=DefaultFrame;
WaitTime \InPos, 3;
SetDO \Sync, DO_1, 1;
WaitTime 0.5;
SetDO \Sync, DO_1, 0;
MoveL [[805.15,-359.226,993.442],[-0.24068,0.70431,-0.66488,-0.06286],conf,extj],Speed001,Zone001,kinectAzure \WObj:=DefaultFrame;
WaitTime \InPos, 3;
SetDO \Sync, DO_1, 1;
WaitTime 0.5;
SetDO \Sync, DO_1, 0;
MoveL [[792.205,-219.996,1042.436],[-0.18182,0.70711,-0.68333,-0.00123],conf,extj],Speed001,Zone001,kinectAzure \WObj:=DefaultFrame;
WaitTime \InPos, 3;
SetDO \Sync, DO_1, 1;
WaitTime 0.5;
SetDO \Sync, DO_1, 0;
MoveL [[785.633,-74.082,1067.311],[-0.12157,0.70452,-0.69658,0.0604],conf,extj],Speed001,Zone001,kinectAzure \WObj:=DefaultFrame;
WaitTime \InPos, 3;
SetDO \Sync, DO_1, 1;
WaitTime 0.5;
SetDO \Sync, DO_1, 0;
MoveL [[785.633,74.082,1067.311],[0.0604,-0.69658,0.70452,-0.12157],conf,extj],Speed001,Zone001,kinectAzure \WObj:=DefaultFrame;
WaitTime \InPos, 3;
SetDO \Sync, DO_1, 1;
WaitTime 0.5;
SetDO \Sync, DO_1, 0;
MoveL [[792.205,219.996,1042.436],[-0.00123,-0.68333,0.70711,-0.18182],conf,extj],Speed001,Zone001,kinectAzure \WObj:=DefaultFrame;
WaitTime \InPos, 3;
SetDO \Sync, DO_1, 1;
WaitTime 0.5;
SetDO \Sync, DO_1, 0;
MoveL [[805.15,359.226,993.442],[-0.06286,-0.66488,0.70431,-0.24068],conf,extj],Speed001,Zone001,kinectAzure \WObj:=DefaultFrame;
WaitTime \InPos, 3;
SetDO \Sync, DO_1, 1;
WaitTime 0.5;
SetDO \Sync, DO_1, 0;
MoveL [[824.074,487.54,921.817],[-0.124,-0.64138,0.69615,-0.29772],conf,extj],Speed001,Zone001,kinectAzure \WObj:=DefaultFrame;
WaitTime \InPos, 3;
SetDO \Sync, DO_1, 1;
WaitTime 0.5;
SetDO \Sync, DO_1, 0;
MoveL [[848.402,601.041,829.738],[-0.1842,-0.61299,0.68269,-0.35248],conf,extj],Speed001,Zone001,kinectAzure \WObj:=DefaultFrame;
WaitTime \InPos, 3;
SetDO \Sync, DO_1, 1;
WaitTime 0.5;
SetDO \Sync, DO_1, 0;
MoveL [[899.632,601.041,840.908],[-0.21381,-0.62778,0.67401,-0.32541],conf,extj],Speed001,Zone001,kinectAzure \WObj:=DefaultFrame;
WaitTime \InPos, 3;
SetDO \Sync, DO_1, 1;
WaitTime 0.5;
SetDO \Sync, DO_1, 0;
MoveL [[883.422,487.54,934.757],[-0.15425,-0.65375,0.69008,-0.26946],conf,extj],Speed001,Zone001,kinectAzure \WObj:=DefaultFrame;
WaitTime \InPos, 3;
SetDO \Sync, DO_1, 1;
WaitTime 0.5;
SetDO \Sync, DO_1, 0;
MoveL [[870.812,359.226,1007.759],[-0.09352,-0.67475,0.7009,-0.21145],conf,extj],Speed001,Zone001,kinectAzure \WObj:=DefaultFrame;
WaitTime \InPos, 3;
SetDO \Sync, DO_1, 1;
WaitTime 0.5;
SetDO \Sync, DO_1, 0;
MoveL [[862.187,219.996,1057.694],[-0.03208,-0.69061,0.70638,-0.15184],conf,extj],Speed001,Zone001,kinectAzure \WObj:=DefaultFrame;
WaitTime \InPos, 3;
SetDO \Sync, DO_1, 1;
WaitTime 0.5;
SetDO \Sync, DO_1, 0;
MoveL [[857.808,74.082,1083.048],[0.02961,-0.70122,0.70649,-0.09107],conf,extj],Speed001,Zone001,kinectAzure \WObj:=DefaultFrame;
WaitTime \InPos, 3;
SetDO \Sync, DO_1, 1;
WaitTime 0.5;
SetDO \Sync, DO_1, 0;
MoveL [[857.808,-74.082,1083.048],[-0.09107,0.70649,-0.70122,0.02961],conf,extj],Speed001,Zone001,kinectAzure \WObj:=DefaultFrame;
WaitTime \InPos, 3;
SetDO \Sync, DO_1, 1;
WaitTime 0.5;
SetDO \Sync, DO_1, 0;
MoveL [[862.187,-219.996,1057.694],[-0.15184,0.70638,-0.69061,-0.03208],conf,extj],Speed001,Zone001,kinectAzure \WObj:=DefaultFrame;
WaitTime \InPos, 3;
SetDO \Sync, DO_1, 1;
WaitTime 0.5;
SetDO \Sync, DO_1, 0;
MoveL [[870.812,-359.226,1007.759],[-0.21145,0.7009,-0.67475,-0.09352],conf,extj],Speed001,Zone001,kinectAzure \WObj:=DefaultFrame;
WaitTime \InPos, 3;
SetDO \Sync, DO_1, 1;
WaitTime 0.5;
SetDO \Sync, DO_1, 0;
MoveL [[883.422,-487.54,934.757],[-0.26946,0.69008,-0.65375,-0.15425],conf,extj],Speed001,Zone001,kinectAzure \WObj:=DefaultFrame;
WaitTime \InPos, 3;
SetDO \Sync, DO_1, 1;
WaitTime 0.5;
SetDO \Sync, DO_1, 0;
MoveL [[899.632,-601.041,840.908],[-0.32541,0.67401,-0.62778,-0.21381],conf,extj],Speed001,Zone001,kinectAzure \WObj:=DefaultFrame;
WaitTime \InPos, 3;
SetDO \Sync, DO_1, 1;
WaitTime 0.5;
SetDO \Sync, DO_1, 0;
MoveL [[951.641,-601.041,847.571],[-0.29772,0.66404,-0.64138,-0.243],conf,extj],Speed001,Zone001,kinectAzure \WObj:=DefaultFrame;
WaitTime \InPos, 3;
SetDO \Sync, DO_1, 1;
WaitTime 0.5;
SetDO \Sync, DO_1, 0;
MoveL [[943.672,-487.54,942.475],[-0.24068,0.68269,-0.66488,-0.1842],conf,extj],Speed001,Zone001,kinectAzure \WObj:=DefaultFrame;
WaitTime \InPos, 3;
SetDO \Sync, DO_1, 1;
WaitTime 0.5;
SetDO \Sync, DO_1, 0;
MoveL [[937.473,-359.226,1016.298],[-0.18182,0.69615,-0.68333,-0.124],conf,extj],Speed001,Zone001,kinectAzure \WObj:=DefaultFrame;
WaitTime \InPos, 3;
SetDO \Sync, DO_1, 1;
WaitTime 0.5;
SetDO \Sync, DO_1, 0;
MoveL [[933.233,-219.996,1066.796],[-0.12157,0.70431,-0.69658,-0.06286],conf,extj],Speed001,Zone001,kinectAzure \WObj:=DefaultFrame;
WaitTime \InPos, 3;
SetDO \Sync, DO_1, 1;
WaitTime 0.5;
SetDO \Sync, DO_1, 0;
MoveL [[931.08,-74.082,1092.434],[-0.0604,0.70711,-0.70452,-0.00123],conf,extj],Speed001,Zone001,kinectAzure \WObj:=DefaultFrame;
WaitTime \InPos, 3;
SetDO \Sync, DO_1, 1;
WaitTime 0.5;
SetDO \Sync, DO_1, 0;
MoveL [[931.08,74.082,1092.434],[-0.00123,-0.70452,0.70711,-0.0604],conf,extj],Speed001,Zone001,kinectAzure \WObj:=DefaultFrame;
WaitTime \InPos, 3;
SetDO \Sync, DO_1, 1;
WaitTime 0.5;
SetDO \Sync, DO_1, 0;
MoveL [[933.233,219.996,1066.796],[-0.06286,-0.69658,0.70431,-0.12157],conf,extj],Speed001,Zone001,kinectAzure \WObj:=DefaultFrame;
WaitTime \InPos, 3;
SetDO \Sync, DO_1, 1;
WaitTime 0.5;
SetDO \Sync, DO_1, 0;
MoveL [[937.473,359.226,1016.298],[-0.124,-0.68333,0.69615,-0.18182],conf,extj],Speed001,Zone001,kinectAzure \WObj:=DefaultFrame;
WaitTime \InPos, 3;
SetDO \Sync, DO_1, 1;
WaitTime 0.5;
SetDO \Sync, DO_1, 0;
MoveL [[943.672,487.54,942.475],[-0.1842,-0.66488,0.68269,-0.24068],conf,extj],Speed001,Zone001,kinectAzure \WObj:=DefaultFrame;
WaitTime \InPos, 3;
SetDO \Sync, DO_1, 1;
WaitTime 0.5;
SetDO \Sync, DO_1, 0;
MoveL [[951.641,601.041,847.571],[-0.243,-0.64138,0.66404,-0.29772],conf,extj],Speed001,Zone001,kinectAzure \WObj:=DefaultFrame;
WaitTime \InPos, 3;
SetDO \Sync, DO_1, 1;
WaitTime 0.5;
SetDO \Sync, DO_1, 0;
MoveL [[1004.033,601.041,849.675],[0.27174,0.65375,-0.65281,0.26946],conf,extj],Speed001,Zone001,kinectAzure \WObj:=DefaultFrame;
WaitTime \InPos, 3;
SetDO \Sync, DO_1, 1;
WaitTime 0.5;
SetDO \Sync, DO_1, 0;
MoveL [[1004.366,487.54,944.913],[0.21381,0.67475,-0.67401,0.21145],conf,extj],Speed001,Zone001,kinectAzure \WObj:=DefaultFrame;
WaitTime \InPos, 3;
SetDO \Sync, DO_1, 1;
WaitTime 0.5;
SetDO \Sync, DO_1, 0;
MoveL [[1004.624,359.226,1018.995],[0.15425,0.69061,-0.69008,0.15184],conf,extj],Speed001,Zone001,kinectAzure \WObj:=DefaultFrame;
WaitTime \InPos, 3;
SetDO \Sync, DO_1, 1;
WaitTime 0.5;
SetDO \Sync, DO_1, 0;
MoveL [[1004.801,219.996,1069.67],[0.09352,0.70122,-0.7009,0.09107],conf,extj],Speed001,Zone001,kinectAzure \WObj:=DefaultFrame;
WaitTime \InPos, 3;
SetDO \Sync, DO_1, 1;
WaitTime 0.5;
SetDO \Sync, DO_1, 0;
MoveL [[1004.891,74.082,1095.399],[0.03208,0.70649,-0.70638,0.02961],conf,extj],Speed001,Zone001,kinectAzure \WObj:=DefaultFrame;
WaitTime \InPos, 3;
SetDO \Sync, DO_1, 1;
WaitTime 0.5;
SetDO \Sync, DO_1, 0;
MoveL [[1004.891,-74.082,1095.399],[0.02961,-0.70638,0.70649,0.03208],conf,extj],Speed001,Zone001,kinectAzure \WObj:=DefaultFrame;
WaitTime \InPos, 3;
SetDO \Sync, DO_1, 1;
WaitTime 0.5;
SetDO \Sync, DO_1, 0;
MoveL [[1004.801,-219.996,1069.67],[0.09107,-0.7009,0.70122,0.09352],conf,extj],Speed001,Zone001,kinectAzure \WObj:=DefaultFrame;
WaitTime \InPos, 3;
SetDO \Sync, DO_1, 1;
WaitTime 0.5;
SetDO \Sync, DO_1, 0;
MoveL [[1004.624,-359.226,1018.995],[0.15184,-0.69008,0.69061,0.15425],conf,extj],Speed001,Zone001,kinectAzure \WObj:=DefaultFrame;
WaitTime \InPos, 3;
SetDO \Sync, DO_1, 1;
WaitTime 0.5;
SetDO \Sync, DO_1, 0;
MoveL [[1004.366,-487.54,944.913],[0.21145,-0.67401,0.67475,0.21381],conf,extj],Speed001,Zone001,kinectAzure \WObj:=DefaultFrame;
WaitTime \InPos, 3;
SetDO \Sync, DO_1, 1;
WaitTime 0.5;
SetDO \Sync, DO_1, 0;
MoveL [[1004.033,-601.041,849.675],[0.26946,-0.65281,0.65375,0.27174],conf,extj],Speed001,Zone001,kinectAzure \WObj:=DefaultFrame;
WaitTime \InPos, 3;
SetDO \Sync, DO_1, 1;
WaitTime 0.5;
SetDO \Sync, DO_1, 0;
MoveL [[1056.409,-601.041,847.205],[0.24068,-0.64033,0.66488,0.29995],conf,extj],Speed001,Zone001,kinectAzure \WObj:=DefaultFrame;
WaitTime \InPos, 3;
SetDO \Sync, DO_1, 1;
WaitTime 0.5;
SetDO \Sync, DO_1, 0;
MoveL [[1065.041,-487.54,942.052],[0.18182,-0.66404,0.68333,0.243],conf,extj],Speed001,Zone001,kinectAzure \WObj:=DefaultFrame;
WaitTime \InPos, 3;
SetDO \Sync, DO_1, 1;
WaitTime 0.5;
SetDO \Sync, DO_1, 0;
MoveL [[1071.755,-359.226,1015.829],[0.12157,-0.68269,0.69658,0.1842],conf,extj],Speed001,Zone001,kinectAzure \WObj:=DefaultFrame;
WaitTime \InPos, 3;
SetDO \Sync, DO_1, 1;
WaitTime 0.5;
SetDO \Sync, DO_1, 0;
MoveL [[1076.348,-219.996,1066.296],[0.0604,-0.69615,0.70452,0.124],conf,extj],Speed001,Zone001,kinectAzure \WObj:=DefaultFrame;
WaitTime \InPos, 3;
SetDO \Sync, DO_1, 1;
WaitTime 0.5;
SetDO \Sync, DO_1, 0;
MoveL [[1078.68,-74.082,1091.919],[-0.00123,-0.70431,0.70711,0.06286],conf,extj],Speed001,Zone001,kinectAzure \WObj:=DefaultFrame;
WaitTime \InPos, 3;
SetDO \Sync, DO_1, 1;
WaitTime 0.5;
SetDO \Sync, DO_1, 0;
MoveL [[1078.68,74.082,1091.919],[0.06286,0.70711,-0.70431,-0.00123],conf,extj],Speed001,Zone001,kinectAzure \WObj:=DefaultFrame;
WaitTime \InPos, 3;
SetDO \Sync, DO_1, 1;
WaitTime 0.5;
SetDO \Sync, DO_1, 0;
MoveL [[1076.348,219.996,1066.296],[0.124,0.70452,-0.69615,0.0604],conf,extj],Speed001,Zone001,kinectAzure \WObj:=DefaultFrame;
WaitTime \InPos, 3;
SetDO \Sync, DO_1, 1;
WaitTime 0.5;
SetDO \Sync, DO_1, 0;
MoveL [[1071.755,359.226,1015.829],[0.1842,0.69658,-0.68269,0.12157],conf,extj],Speed001,Zone001,kinectAzure \WObj:=DefaultFrame;
WaitTime \InPos, 3;
SetDO \Sync, DO_1, 1;
WaitTime 0.5;
SetDO \Sync, DO_1, 0;
MoveL [[1065.041,487.54,942.052],[0.243,0.68333,-0.66404,0.18182],conf,extj],Speed001,Zone001,kinectAzure \WObj:=DefaultFrame;
WaitTime \InPos, 3;
SetDO \Sync, DO_1, 1;
WaitTime 0.5;
SetDO \Sync, DO_1, 0;
MoveL [[1056.409,601.041,847.205],[0.29995,0.66488,-0.64033,0.24068],conf,extj],Speed001,Zone001,kinectAzure \WObj:=DefaultFrame;
WaitTime \InPos, 3;
SetDO \Sync, DO_1, 1;
WaitTime 0.5;
SetDO \Sync, DO_1, 0;
MoveL [[1108.37,601.041,840.18],[0.3276,0.67475,-0.62664,0.21145],conf,extj],Speed001,Zone001,kinectAzure \WObj:=DefaultFrame;
WaitTime \InPos, 3;
SetDO \Sync, DO_1, 1;
WaitTime 0.5;
SetDO \Sync, DO_1, 0;
MoveL [[1125.236,487.54,933.913],[0.27174,0.69061,-0.65281,0.15184],conf,extj],Speed001,Zone001,kinectAzure \WObj:=DefaultFrame;
WaitTime \InPos, 3;
SetDO \Sync, DO_1, 1;
WaitTime 0.5;
SetDO \Sync, DO_1, 0;
MoveL [[1138.354,359.226,1006.825],[0.21381,0.70122,-0.67401,0.09107],conf,extj],Speed001,Zone001,kinectAzure \WObj:=DefaultFrame;
WaitTime \InPos, 3;
SetDO \Sync, DO_1, 1;
WaitTime 0.5;
SetDO \Sync, DO_1, 0;
MoveL [[1147.328,219.996,1056.699],[0.15425,0.70649,-0.69008,0.02961],conf,extj],Speed001,Zone001,kinectAzure \WObj:=DefaultFrame;
WaitTime \InPos, 3;
SetDO \Sync, DO_1, 1;
WaitTime 0.5;
SetDO \Sync, DO_1, 0;
MoveL [[1151.884,74.082,1082.021],[0.09352,0.70638,-0.7009,-0.03208],conf,extj],Speed001,Zone001,kinectAzure \WObj:=DefaultFrame;
WaitTime \InPos, 3;
SetDO \Sync, DO_1, 1;
WaitTime 0.5;
SetDO \Sync, DO_1, 0;
MoveL [[1151.884,-74.082,1082.021],[-0.03208,-0.7009,0.70638,0.09352],conf,extj],Speed001,Zone001,kinectAzure \WObj:=DefaultFrame;
WaitTime \InPos, 3;
SetDO \Sync, DO_1, 1;
WaitTime 0.5;
SetDO \Sync, DO_1, 0;
MoveL [[1147.328,-219.996,1056.699],[0.02961,-0.69008,0.70649,0.15425],conf,extj],Speed001,Zone001,kinectAzure \WObj:=DefaultFrame;
WaitTime \InPos, 3;
SetDO \Sync, DO_1, 1;
WaitTime 0.5;
SetDO \Sync, DO_1, 0;
MoveL [[1138.354,-359.226,1006.825],[0.09107,-0.67401,0.70122,0.21381],conf,extj],Speed001,Zone001,kinectAzure \WObj:=DefaultFrame;
WaitTime \InPos, 3;
SetDO \Sync, DO_1, 1;
WaitTime 0.5;
SetDO \Sync, DO_1, 0;
MoveL [[1125.236,-487.54,933.913],[0.15184,-0.65281,0.69061,0.27174],conf,extj],Speed001,Zone001,kinectAzure \WObj:=DefaultFrame;
WaitTime \InPos, 3;
SetDO \Sync, DO_1, 1;
WaitTime 0.5;
SetDO \Sync, DO_1, 0;
MoveL [[1108.37,-601.041,840.18],[0.21145,-0.62664,0.67475,0.3276],conf,extj],Speed001,Zone001,kinectAzure \WObj:=DefaultFrame;
WaitTime \InPos, 3;
SetDO \Sync, DO_1, 1;
WaitTime 0.5;
SetDO \Sync, DO_1, 0;
MoveL [[1159.522,-601.041,828.652],[0.18182,-0.61175,0.68333,0.35462],conf,extj],Speed001,Zone001,kinectAzure \WObj:=DefaultFrame;
WaitTime \InPos, 3;
SetDO \Sync, DO_1, 1;
WaitTime 0.5;
SetDO \Sync, DO_1, 0;
MoveL [[1184.492,-487.54,920.559],[0.12157,-0.64033,0.69658,0.29995],conf,extj],Speed001,Zone001,kinectAzure \WObj:=DefaultFrame;
WaitTime \InPos, 3;
SetDO \Sync, DO_1, 1;
WaitTime 0.5;
SetDO \Sync, DO_1, 0;
MoveL [[1203.916,-359.226,992.05],[0.0604,-0.66404,0.70452,0.243],conf,extj],Speed001,Zone001,kinectAzure \WObj:=DefaultFrame;
WaitTime \InPos, 3;
SetDO \Sync, DO_1, 1;
WaitTime 0.5;
SetDO \Sync, DO_1, 0;
MoveL [[1217.202,-219.996,1040.952],[-0.00123,-0.68269,0.70711,0.1842],conf,extj],Speed001,Zone001,kinectAzure \WObj:=DefaultFrame;
WaitTime \InPos, 3;
SetDO \Sync, DO_1, 1;
WaitTime 0.5;
SetDO \Sync, DO_1, 0;
MoveL [[1223.948,-74.082,1065.781],[-0.06286,-0.69615,0.70431,0.124],conf,extj],Speed001,Zone001,kinectAzure \WObj:=DefaultFrame;
WaitTime \InPos, 3;
SetDO \Sync, DO_1, 1;
WaitTime 0.5;
SetDO \Sync, DO_1, 0;
MoveL [[1223.948,74.082,1065.781],[0.124,0.70431,-0.69615,-0.06286],conf,extj],Speed001,Zone001,kinectAzure \WObj:=DefaultFrame;
WaitTime \InPos, 3;
SetDO \Sync, DO_1, 1;
WaitTime 0.5;
SetDO \Sync, DO_1, 0;
MoveL [[1217.202,219.996,1040.952],[0.1842,0.70711,-0.68269,-0.00123],conf,extj],Speed001,Zone001,kinectAzure \WObj:=DefaultFrame;
WaitTime \InPos, 3;
SetDO \Sync, DO_1, 1;
WaitTime 0.5;
SetDO \Sync, DO_1, 0;
MoveL [[1203.916,359.226,992.05],[0.243,0.70452,-0.66404,0.0604],conf,extj],Speed001,Zone001,kinectAzure \WObj:=DefaultFrame;
WaitTime \InPos, 3;
SetDO \Sync, DO_1, 1;
WaitTime 0.5;
SetDO \Sync, DO_1, 0;
MoveL [[1184.492,487.54,920.559],[0.29995,0.69658,-0.64033,0.12157],conf,extj],Speed001,Zone001,kinectAzure \WObj:=DefaultFrame;
WaitTime \InPos, 3;
SetDO \Sync, DO_1, 1;
WaitTime 0.5;
SetDO \Sync, DO_1, 0;
MoveL [[1159.522,601.041,828.652],[0.35462,0.68333,-0.61175,0.18182],conf,extj],Speed001,Zone001,kinectAzure \WObj:=DefaultFrame;
WaitTime \InPos, 3;
SetDO \Sync, DO_1, 1;
WaitTime 0.5;
SetDO \Sync, DO_1, 0;
MoveL [[1209.473,601.041,812.711],[0.38097,0.69061,-0.5957,0.15184],conf,extj],Speed001,Zone001,kinectAzure \WObj:=DefaultFrame;
WaitTime \InPos, 3;
SetDO \Sync, DO_1, 1;
WaitTime 0.5;
SetDO \Sync, DO_1, 0;
MoveL [[1242.359,487.54,902.091],[0.3276,0.70122,-0.62664,0.09107],conf,extj],Speed001,Zone001,kinectAzure \WObj:=DefaultFrame;
WaitTime \InPos, 3;
SetDO \Sync, DO_1, 1;
WaitTime 0.5;
SetDO \Sync, DO_1, 0;
MoveL [[1267.94,359.226,971.617],[0.27174,0.70649,-0.65281,0.02961],conf,extj],Speed001,Zone001,kinectAzure \WObj:=DefaultFrame;
WaitTime \InPos, 3;
SetDO \Sync, DO_1, 1;
WaitTime 0.5;
SetDO \Sync, DO_1, 0;
MoveL [[1285.438,219.996,1019.176],[0.21381,0.70638,-0.67401,-0.03208],conf,extj],Speed001,Zone001,kinectAzure \WObj:=DefaultFrame;
WaitTime \InPos, 3;
SetDO \Sync, DO_1, 1;
WaitTime 0.5;
SetDO \Sync, DO_1, 0;
MoveL [[1294.322,74.082,1043.322],[0.15425,0.7009,-0.69008,-0.09352],conf,extj],Speed001,Zone001,kinectAzure \WObj:=DefaultFrame;
WaitTime \InPos, 3;
SetDO \Sync, DO_1, 1;
WaitTime 0.5;
SetDO \Sync, DO_1, 0;
MoveL [[1294.322,-74.082,1043.322],[-0.09352,-0.69008,0.7009,0.15425],conf,extj],Speed001,Zone001,kinectAzure \WObj:=DefaultFrame;
WaitTime \InPos, 3;
SetDO \Sync, DO_1, 1;
WaitTime 0.5;
SetDO \Sync, DO_1, 0;
MoveL [[1285.438,-219.996,1019.176],[-0.03208,-0.67401,0.70638,0.21381],conf,extj],Speed001,Zone001,kinectAzure \WObj:=DefaultFrame;
WaitTime \InPos, 3;
SetDO \Sync, DO_1, 1;
WaitTime 0.5;
SetDO \Sync, DO_1, 0;
MoveL [[1267.94,-359.226,971.617],[0.02961,-0.65281,0.70649,0.27174],conf,extj],Speed001,Zone001,kinectAzure \WObj:=DefaultFrame;
WaitTime \InPos, 3;
SetDO \Sync, DO_1, 1;
WaitTime 0.5;
SetDO \Sync, DO_1, 0;
MoveL [[1242.359,-487.54,902.091],[0.09107,-0.62664,0.70122,0.3276],conf,extj],Speed001,Zone001,kinectAzure \WObj:=DefaultFrame;
WaitTime \InPos, 3;
SetDO \Sync, DO_1, 1;
WaitTime 0.5;
SetDO \Sync, DO_1, 0;
MoveL [[1209.473,-601.041,812.711],[0.15184,-0.5957,0.69061,0.38097],conf,extj],Speed001,Zone001,kinectAzure \WObj:=DefaultFrame;
WaitTime \InPos, 3;
SetDO \Sync, DO_1, 1;
WaitTime 0.5;
SetDO \Sync, DO_1, 0;
MoveL [[1257.846,-601.041,792.476],[0.12157,-0.57852,0.69658,0.40659],conf,extj],Speed001,Zone001,kinectAzure \WObj:=DefaultFrame;
WaitTime \InPos, 3;
SetDO \Sync, DO_1, 1;
WaitTime 0.5;
SetDO \Sync, DO_1, 0;
MoveL [[1298.396,-487.54,878.65],[0.0604,-0.61175,0.70452,0.35462],conf,extj],Speed001,Zone001,kinectAzure \WObj:=DefaultFrame;
WaitTime \InPos, 3;
SetDO \Sync, DO_1, 1;
WaitTime 0.5;
SetDO \Sync, DO_1, 0;
MoveL [[1329.939,-359.226,945.682],[-0.00123,-0.64033,0.70711,0.29995],conf,extj],Speed001,Zone001,kinectAzure \WObj:=DefaultFrame;
WaitTime \InPos, 3;
SetDO \Sync, DO_1, 1;
WaitTime 0.5;
SetDO \Sync, DO_1, 0;
MoveL [[1351.516,-219.996,991.535],[-0.06286,-0.66404,0.70431,0.243],conf,extj],Speed001,Zone001,kinectAzure \WObj:=DefaultFrame;
WaitTime \InPos, 3;
SetDO \Sync, DO_1, 1;
WaitTime 0.5;
SetDO \Sync, DO_1, 0;
MoveL [[1362.47,-74.082,1014.815],[-0.124,-0.68269,0.69615,0.1842],conf,extj],Speed001,Zone001,kinectAzure \WObj:=DefaultFrame;
WaitTime \InPos, 3;
SetDO \Sync, DO_1, 1;
WaitTime 0.5;
SetDO \Sync, DO_1, 0;
MoveL [[1362.47,74.082,1014.815],[0.1842,0.69615,-0.68269,-0.124],conf,extj],Speed001,Zone001,kinectAzure \WObj:=DefaultFrame;
WaitTime \InPos, 3;
SetDO \Sync, DO_1, 1;
WaitTime 0.5;
SetDO \Sync, DO_1, 0;
MoveL [[1351.516,219.996,991.535],[0.243,0.70431,-0.66404,-0.06286],conf,extj],Speed001,Zone001,kinectAzure \WObj:=DefaultFrame;
WaitTime \InPos, 3;
SetDO \Sync, DO_1, 1;
WaitTime 0.5;
SetDO \Sync, DO_1, 0;
MoveL [[1329.939,359.226,945.682],[0.29995,0.70711,-0.64033,-0.00123],conf,extj],Speed001,Zone001,kinectAzure \WObj:=DefaultFrame;
WaitTime \InPos, 3;
SetDO \Sync, DO_1, 1;
WaitTime 0.5;
SetDO \Sync, DO_1, 0;
MoveL [[1298.396,487.54,878.65],[0.35462,0.70452,-0.61175,0.0604],conf,extj],Speed001,Zone001,kinectAzure \WObj:=DefaultFrame;
WaitTime \InPos, 3;
SetDO \Sync, DO_1, 1;
WaitTime 0.5;
SetDO \Sync, DO_1, 0;
MoveL [[1257.846,601.041,792.476],[0.40659,0.69658,-0.57852,0.12157],conf,extj],Speed001,Zone001,kinectAzure \WObj:=DefaultFrame;
WaitTime \InPos, 3;
SetDO \Sync, DO_1, 1;
WaitTime 0.5;
SetDO \Sync, DO_1, 0;
MoveAbsJ [[1,0,-1,1,-1,105],extj],Speed000,Zone000,kinectAzure;
SetDO \Sync, DO_0, 0;
ENDPROC
ENDMODULE