MODULE scan_ksTest_T_ROB1
VAR extjoint extj := [9E9,9E9,9E9,9E9,9E9,9E9];
VAR confdata conf := [0,0,0,0];
PERS tooldata azureKinect:=[TRUE,[[-45.634,-46.661,81.608],[0.0923,-0.0923,-0.70106,0.70106]],[0.001,[20,0,52],[1,0,0,0],0,0,0]];
TASK PERS wobjdata DefaultFrame:=[FALSE,TRUE,"",[[0,0,0],[1,0,0,0]],[[0,0,0],[1,0,0,0]]];
TASK PERS speeddata Speed000:=[500,180,5000,1080];
TASK PERS speeddata Speed001:=[250,180,5000,1080];
TASK PERS zonedata Zone000:=[FALSE,0.5,0.5,0.5,0.05,0.5,0.05];
TASK PERS zonedata Zone001:=[FALSE,0.01,0.01,0.01,0.001,0.01,0.001];
PROC Main()
ConfL \Off;
PathAccLim FALSE, TRUE\DecelMax := .1;
SetDO \Sync, DO_0, 0;
SetDO \Sync, DO_1, 0;
MoveAbsJ [[0,0,0,0,-90,105],extj],Speed000,Zone000,azureKinect;
SetDO \Sync, DO_0, 1;
MoveL [[678.98,707.107,1230.037],[-0.11062,-0.57206,0.6984,-0.41563],conf,extj],Speed001,Zone001,azureKinect \WObj:=DefaultFrame;
WaitTime \InPos, 2;
SetDO \Sync, DO_1, 1;
WaitTime \InPos, 1;
SetDO \Sync, DO_1, 0;
MoveL [[766.457,707.107,1267.426],[-0.15735,-0.59872,0.68938,-0.3762],conf,extj],Speed001,Zone001,azureKinect \WObj:=DefaultFrame;
WaitTime \InPos, 2;
SetDO \Sync, DO_1, 1;
WaitTime \InPos, 1;
SetDO \Sync, DO_1, 0;
MoveL [[858.162,707.107,1292.735],[-0.20336,-0.62268,0.67723,-0.33508],conf,extj],Speed001,Zone001,azureKinect \WObj:=DefaultFrame;
WaitTime \InPos, 2;
SetDO \Sync, DO_1, 1;
WaitTime \InPos, 1;
SetDO \Sync, DO_1, 0;
MoveL [[952.434,707.107,1305.505],[-0.24846,-0.6438,0.66202,-0.29243],conf,extj],Speed001,Zone001,azureKinect \WObj:=DefaultFrame;
WaitTime \InPos, 2;
SetDO \Sync, DO_1, 1;
WaitTime \InPos, 1;
SetDO \Sync, DO_1, 0;
MoveL [[1047.566,707.107,1305.505],[0.29243,0.66202,-0.6438,0.24846],conf,extj],Speed001,Zone001,azureKinect \WObj:=DefaultFrame;
WaitTime \InPos, 2;
SetDO \Sync, DO_1, 1;
WaitTime \InPos, 1;
SetDO \Sync, DO_1, 0;
MoveL [[1141.838,707.107,1292.735],[0.33508,0.67723,-0.62268,0.20336],conf,extj],Speed001,Zone001,azureKinect \WObj:=DefaultFrame;
WaitTime \InPos, 2;
SetDO \Sync, DO_1, 1;
WaitTime \InPos, 1;
SetDO \Sync, DO_1, 0;
MoveL [[1233.543,707.107,1267.426],[0.3762,0.68938,-0.59872,0.15735],conf,extj],Speed001,Zone001,azureKinect \WObj:=DefaultFrame;
WaitTime \InPos, 2;
SetDO \Sync, DO_1, 1;
WaitTime \InPos, 1;
SetDO \Sync, DO_1, 0;
MoveL [[1321.02,707.107,1230.037],[0.41563,0.6984,-0.57206,0.11062],conf,extj],Speed001,Zone001,azureKinect \WObj:=DefaultFrame;
WaitTime \InPos, 2;
SetDO \Sync, DO_1, 1;
WaitTime \InPos, 1;
SetDO \Sync, DO_1, 0;
MoveL [[1384.405,532.032,1354.437],[0.34896,0.70639,-0.615,0.03172],conf,extj],Speed001,Zone001,azureKinect \WObj:=DefaultFrame;
WaitTime \InPos, 2;
SetDO \Sync, DO_1, 1;
WaitTime \InPos, 1;
SetDO \Sync, DO_1, 0;
MoveL [[1279.655,532.032,1399.209],[0.3068,0.70266,-0.63708,0.07917],conf,extj],Speed001,Zone001,azureKinect \WObj:=DefaultFrame;
WaitTime \InPos, 2;
SetDO \Sync, DO_1, 1;
WaitTime \InPos, 1;
SetDO \Sync, DO_1, 0;
MoveL [[1169.844,532.032,1429.515],[0.26325,0.69574,-0.65628,0.12626],conf,extj],Speed001,Zone001,azureKinect \WObj:=DefaultFrame;
WaitTime \InPos, 2;
SetDO \Sync, DO_1, 1;
WaitTime \InPos, 1;
SetDO \Sync, DO_1, 0;
MoveL [[1056.958,532.032,1444.806],[0.21851,0.68567,-0.6725,0.17277],conf,extj],Speed001,Zone001,azureKinect \WObj:=DefaultFrame;
WaitTime \InPos, 2;
SetDO \Sync, DO_1, 1;
WaitTime \InPos, 1;
SetDO \Sync, DO_1, 0;
MoveL [[943.042,532.032,1444.806],[-0.17277,-0.6725,0.68567,-0.21851],conf,extj],Speed001,Zone001,azureKinect \WObj:=DefaultFrame;
WaitTime \InPos, 2;
SetDO \Sync, DO_1, 1;
WaitTime \InPos, 1;
SetDO \Sync, DO_1, 0;
MoveL [[830.156,532.032,1429.515],[-0.12626,-0.65628,0.69574,-0.26325],conf,extj],Speed001,Zone001,azureKinect \WObj:=DefaultFrame;
WaitTime \InPos, 2;
SetDO \Sync, DO_1, 1;
WaitTime \InPos, 1;
SetDO \Sync, DO_1, 0;
MoveL [[720.345,532.032,1399.209],[-0.07917,-0.63708,0.70266,-0.3068],conf,extj],Speed001,Zone001,azureKinect \WObj:=DefaultFrame;
WaitTime \InPos, 2;
SetDO \Sync, DO_1, 1;
WaitTime \InPos, 1;
SetDO \Sync, DO_1, 0;
MoveL [[615.595,532.032,1354.437],[-0.03172,-0.615,0.70639,-0.34896],conf,extj],Speed001,Zone001,azureKinect \WObj:=DefaultFrame;
WaitTime \InPos, 2;
SetDO \Sync, DO_1, 1;
WaitTime \InPos, 1;
SetDO \Sync, DO_1, 0;
MoveL [[571.486,330.279,1441.006],[0.04757,-0.6502,0.70551,-0.27791],conf,extj],Speed001,Zone001,azureKinect \WObj:=DefaultFrame;
WaitTime \InPos, 2;
SetDO \Sync, DO_1, 1;
WaitTime \InPos, 1;
SetDO \Sync, DO_1, 0;
MoveL [[688.255,330.279,1490.916],[0,-0.66743,0.70711,-0.23354],conf,extj],Speed001,Zone001,azureKinect \WObj:=DefaultFrame;
WaitTime \InPos, 2;
SetDO \Sync, DO_1, 1;
WaitTime \InPos, 1;
SetDO \Sync, DO_1, 0;
MoveL [[810.667,330.279,1524.699],[-0.04757,-0.68162,0.70551,-0.18812],conf,extj],Speed001,Zone001,azureKinect \WObj:=DefaultFrame;
WaitTime \InPos, 2;
SetDO \Sync, DO_1, 1;
WaitTime \InPos, 1;
SetDO \Sync, DO_1, 0;
MoveL [[936.506,330.279,1541.745],[-0.09492,-0.69274,0.70071,-0.14184],conf,extj],Speed001,Zone001,azureKinect \WObj:=DefaultFrame;
WaitTime \InPos, 2;
SetDO \Sync, DO_1, 1;
WaitTime \InPos, 1;
SetDO \Sync, DO_1, 0;
MoveL [[1063.494,330.279,1541.745],[0.14184,0.70071,-0.69274,0.09492],conf,extj],Speed001,Zone001,azureKinect \WObj:=DefaultFrame;
WaitTime \InPos, 2;
SetDO \Sync, DO_1, 1;
WaitTime \InPos, 1;
SetDO \Sync, DO_1, 0;
MoveL [[1189.333,330.279,1524.699],[0.18812,0.70551,-0.68162,0.04757],conf,extj],Speed001,Zone001,azureKinect \WObj:=DefaultFrame;
WaitTime \InPos, 2;
SetDO \Sync, DO_1, 1;
WaitTime \InPos, 1;
SetDO \Sync, DO_1, 0;
MoveL [[1311.745,330.279,1490.916],[0.23354,0.70711,-0.66743,0],conf,extj],Speed001,Zone001,azureKinect \WObj:=DefaultFrame;
WaitTime \InPos, 2;
SetDO \Sync, DO_1, 1;
WaitTime \InPos, 1;
SetDO \Sync, DO_1, 0;
MoveL [[1428.514,330.279,1441.006],[0.27791,0.70551,-0.6502,-0.04757],conf,extj],Speed001,Zone001,azureKinect \WObj:=DefaultFrame;
WaitTime \InPos, 2;
SetDO \Sync, DO_1, 1;
WaitTime \InPos, 1;
SetDO \Sync, DO_1, 0;
MoveL [[1451.136,111.964,1485.404],[0.20336,0.69574,-0.67723,-0.12626],conf,extj],Speed001,Zone001,azureKinect \WObj:=DefaultFrame;
WaitTime \InPos, 2;
SetDO \Sync, DO_1, 1;
WaitTime \InPos, 1;
SetDO \Sync, DO_1, 0;
MoveL [[1328.202,111.964,1537.948],[0.15735,0.70266,-0.68938,-0.07917],conf,extj],Speed001,Zone001,azureKinect \WObj:=DefaultFrame;
WaitTime \InPos, 2;
SetDO \Sync, DO_1, 1;
WaitTime \InPos, 1;
SetDO \Sync, DO_1, 0;
MoveL [[1199.328,111.964,1573.515],[0.11062,0.70639,-0.6984,-0.03172],conf,extj],Speed001,Zone001,azureKinect \WObj:=DefaultFrame;
WaitTime \InPos, 2;
SetDO \Sync, DO_1, 1;
WaitTime \InPos, 1;
SetDO \Sync, DO_1, 0;
MoveL [[1066.846,111.964,1591.461],[0.06338,0.70693,-0.70426,0.01587],conf,extj],Speed001,Zone001,azureKinect \WObj:=DefaultFrame;
WaitTime \InPos, 2;
SetDO \Sync, DO_1, 1;
WaitTime \InPos, 1;
SetDO \Sync, DO_1, 0;
MoveL [[933.154,111.964,1591.461],[-0.01587,-0.70426,0.70693,-0.06338],conf,extj],Speed001,Zone001,azureKinect \WObj:=DefaultFrame;
WaitTime \InPos, 2;
SetDO \Sync, DO_1, 1;
WaitTime \InPos, 1;
SetDO \Sync, DO_1, 0;
MoveL [[800.672,111.964,1573.515],[0.03172,-0.6984,0.70639,-0.11062],conf,extj],Speed001,Zone001,azureKinect \WObj:=DefaultFrame;
WaitTime \InPos, 2;
SetDO \Sync, DO_1, 1;
WaitTime \InPos, 1;
SetDO \Sync, DO_1, 0;
MoveL [[671.798,111.964,1537.948],[0.07917,-0.68938,0.70266,-0.15735],conf,extj],Speed001,Zone001,azureKinect \WObj:=DefaultFrame;
WaitTime \InPos, 2;
SetDO \Sync, DO_1, 1;
WaitTime \InPos, 1;
SetDO \Sync, DO_1, 0;
MoveL [[548.864,111.964,1485.404],[0.12626,-0.67723,0.69574,-0.20336],conf,extj],Speed001,Zone001,azureKinect \WObj:=DefaultFrame;
WaitTime \InPos, 2;
SetDO \Sync, DO_1, 1;
WaitTime \InPos, 1;
SetDO \Sync, DO_1, 0;
MoveL [[548.864,-111.964,1485.404],[-0.20336,0.69574,-0.67723,0.12626],conf,extj],Speed001,Zone001,azureKinect \WObj:=DefaultFrame;
WaitTime \InPos, 2;
SetDO \Sync, DO_1, 1;
WaitTime \InPos, 1;
SetDO \Sync, DO_1, 0;
MoveL [[671.798,-111.964,1537.948],[-0.15735,0.70266,-0.68938,0.07917],conf,extj],Speed001,Zone001,azureKinect \WObj:=DefaultFrame;
WaitTime \InPos, 2;
SetDO \Sync, DO_1, 1;
WaitTime \InPos, 1;
SetDO \Sync, DO_1, 0;
MoveL [[800.672,-111.964,1573.515],[-0.11062,0.70639,-0.6984,0.03172],conf,extj],Speed001,Zone001,azureKinect \WObj:=DefaultFrame;
WaitTime \InPos, 2;
SetDO \Sync, DO_1, 1;
WaitTime \InPos, 1;
SetDO \Sync, DO_1, 0;
MoveL [[933.154,-111.964,1591.461],[-0.06338,0.70693,-0.70426,-0.01587],conf,extj],Speed001,Zone001,azureKinect \WObj:=DefaultFrame;
WaitTime \InPos, 2;
SetDO \Sync, DO_1, 1;
WaitTime \InPos, 1;
SetDO \Sync, DO_1, 0;
MoveL [[1066.846,-111.964,1591.461],[0.01587,-0.70426,0.70693,0.06338],conf,extj],Speed001,Zone001,azureKinect \WObj:=DefaultFrame;
WaitTime \InPos, 2;
SetDO \Sync, DO_1, 1;
WaitTime \InPos, 1;
SetDO \Sync, DO_1, 0;
MoveL [[1199.328,-111.964,1573.515],[-0.03172,-0.6984,0.70639,0.11062],conf,extj],Speed001,Zone001,azureKinect \WObj:=DefaultFrame;
WaitTime \InPos, 2;
SetDO \Sync, DO_1, 1;
WaitTime \InPos, 1;
SetDO \Sync, DO_1, 0;
MoveL [[1328.202,-111.964,1537.948],[-0.07917,-0.68938,0.70266,0.15735],conf,extj],Speed001,Zone001,azureKinect \WObj:=DefaultFrame;
WaitTime \InPos, 2;
SetDO \Sync, DO_1, 1;
WaitTime \InPos, 1;
SetDO \Sync, DO_1, 0;
MoveL [[1451.136,-111.964,1485.404],[-0.12626,-0.67723,0.69574,0.20336],conf,extj],Speed001,Zone001,azureKinect \WObj:=DefaultFrame;
WaitTime \InPos, 2;
SetDO \Sync, DO_1, 1;
WaitTime \InPos, 1;
SetDO \Sync, DO_1, 0;
MoveL [[1428.514,-330.279,1441.006],[-0.04757,-0.6502,0.70551,0.27791],conf,extj],Speed001,Zone001,azureKinect \WObj:=DefaultFrame;
WaitTime \InPos, 2;
SetDO \Sync, DO_1, 1;
WaitTime \InPos, 1;
SetDO \Sync, DO_1, 0;
MoveL [[1311.745,-330.279,1490.916],[0,-0.66743,0.70711,0.23354],conf,extj],Speed001,Zone001,azureKinect \WObj:=DefaultFrame;
WaitTime \InPos, 2;
SetDO \Sync, DO_1, 1;
WaitTime \InPos, 1;
SetDO \Sync, DO_1, 0;
MoveL [[1189.333,-330.279,1524.699],[0.04757,-0.68162,0.70551,0.18812],conf,extj],Speed001,Zone001,azureKinect \WObj:=DefaultFrame;
WaitTime \InPos, 2;
SetDO \Sync, DO_1, 1;
WaitTime \InPos, 1;
SetDO \Sync, DO_1, 0;
MoveL [[1063.494,-330.279,1541.745],[0.09492,-0.69274,0.70071,0.14184],conf,extj],Speed001,Zone001,azureKinect \WObj:=DefaultFrame;
WaitTime \InPos, 2;
SetDO \Sync, DO_1, 1;
WaitTime \InPos, 1;
SetDO \Sync, DO_1, 0;
MoveL [[936.506,-330.279,1541.745],[-0.14184,0.70071,-0.69274,-0.09492],conf,extj],Speed001,Zone001,azureKinect \WObj:=DefaultFrame;
WaitTime \InPos, 2;
SetDO \Sync, DO_1, 1;
WaitTime \InPos, 1;
SetDO \Sync, DO_1, 0;
MoveL [[810.667,-330.279,1524.699],[-0.18812,0.70551,-0.68162,-0.04757],conf,extj],Speed001,Zone001,azureKinect \WObj:=DefaultFrame;
WaitTime \InPos, 2;
SetDO \Sync, DO_1, 1;
WaitTime \InPos, 1;
SetDO \Sync, DO_1, 0;
MoveL [[688.255,-330.279,1490.916],[-0.23354,0.70711,-0.66743,0],conf,extj],Speed001,Zone001,azureKinect \WObj:=DefaultFrame;
WaitTime \InPos, 2;
SetDO \Sync, DO_1, 1;
WaitTime \InPos, 1;
SetDO \Sync, DO_1, 0;
MoveL [[571.486,-330.279,1441.006],[-0.27791,0.70551,-0.6502,0.04757],conf,extj],Speed001,Zone001,azureKinect \WObj:=DefaultFrame;
WaitTime \InPos, 2;
SetDO \Sync, DO_1, 1;
WaitTime \InPos, 1;
SetDO \Sync, DO_1, 0;
MoveL [[615.595,-532.032,1354.437],[-0.34896,0.70639,-0.615,-0.03172],conf,extj],Speed001,Zone001,azureKinect \WObj:=DefaultFrame;
WaitTime \InPos, 2;
SetDO \Sync, DO_1, 1;
WaitTime \InPos, 1;
SetDO \Sync, DO_1, 0;
MoveL [[720.345,-532.032,1399.209],[-0.3068,0.70266,-0.63708,-0.07917],conf,extj],Speed001,Zone001,azureKinect \WObj:=DefaultFrame;
WaitTime \InPos, 2;
SetDO \Sync, DO_1, 1;
WaitTime \InPos, 1;
SetDO \Sync, DO_1, 0;
MoveL [[830.156,-532.032,1429.515],[-0.26325,0.69574,-0.65628,-0.12626],conf,extj],Speed001,Zone001,azureKinect \WObj:=DefaultFrame;
WaitTime \InPos, 2;
SetDO \Sync, DO_1, 1;
WaitTime \InPos, 1;
SetDO \Sync, DO_1, 0;
MoveL [[943.042,-532.032,1444.806],[-0.21851,0.68567,-0.6725,-0.17277],conf,extj],Speed001,Zone001,azureKinect \WObj:=DefaultFrame;
WaitTime \InPos, 2;
SetDO \Sync, DO_1, 1;
WaitTime \InPos, 1;
SetDO \Sync, DO_1, 0;
MoveL [[1056.958,-532.032,1444.806],[0.17277,-0.6725,0.68567,0.21851],conf,extj],Speed001,Zone001,azureKinect \WObj:=DefaultFrame;
WaitTime \InPos, 2;
SetDO \Sync, DO_1, 1;
WaitTime \InPos, 1;
SetDO \Sync, DO_1, 0;
MoveL [[1169.844,-532.032,1429.515],[0.12626,-0.65628,0.69574,0.26325],conf,extj],Speed001,Zone001,azureKinect \WObj:=DefaultFrame;
WaitTime \InPos, 2;
SetDO \Sync, DO_1, 1;
WaitTime \InPos, 1;
SetDO \Sync, DO_1, 0;
MoveL [[1279.655,-532.032,1399.209],[0.07917,-0.63708,0.70266,0.3068],conf,extj],Speed001,Zone001,azureKinect \WObj:=DefaultFrame;
WaitTime \InPos, 2;
SetDO \Sync, DO_1, 1;
WaitTime \InPos, 1;
SetDO \Sync, DO_1, 0;
MoveL [[1384.405,-532.032,1354.437],[0.03172,-0.615,0.70639,0.34896],conf,extj],Speed001,Zone001,azureKinect \WObj:=DefaultFrame;
WaitTime \InPos, 2;
SetDO \Sync, DO_1, 1;
WaitTime \InPos, 1;
SetDO \Sync, DO_1, 0;
MoveL [[1321.02,-707.107,1230.037],[0.11062,-0.57206,0.6984,0.41563],conf,extj],Speed001,Zone001,azureKinect \WObj:=DefaultFrame;
WaitTime \InPos, 2;
SetDO \Sync, DO_1, 1;
WaitTime \InPos, 1;
SetDO \Sync, DO_1, 0;
MoveL [[1233.543,-707.107,1267.426],[0.15735,-0.59872,0.68938,0.3762],conf,extj],Speed001,Zone001,azureKinect \WObj:=DefaultFrame;
WaitTime \InPos, 2;
SetDO \Sync, DO_1, 1;
WaitTime \InPos, 1;
SetDO \Sync, DO_1, 0;
MoveL [[1141.838,-707.107,1292.735],[0.20336,-0.62268,0.67723,0.33508],conf,extj],Speed001,Zone001,azureKinect \WObj:=DefaultFrame;
WaitTime \InPos, 2;
SetDO \Sync, DO_1, 1;
WaitTime \InPos, 1;
SetDO \Sync, DO_1, 0;
MoveL [[1047.566,-707.107,1305.505],[0.24846,-0.6438,0.66202,0.29243],conf,extj],Speed001,Zone001,azureKinect \WObj:=DefaultFrame;
WaitTime \InPos, 2;
SetDO \Sync, DO_1, 1;
WaitTime \InPos, 1;
SetDO \Sync, DO_1, 0;
MoveL [[952.434,-707.107,1305.505],[-0.29243,0.66202,-0.6438,-0.24846],conf,extj],Speed001,Zone001,azureKinect \WObj:=DefaultFrame;
WaitTime \InPos, 2;
SetDO \Sync, DO_1, 1;
WaitTime \InPos, 1;
SetDO \Sync, DO_1, 0;
MoveL [[858.162,-707.107,1292.735],[-0.33508,0.67723,-0.62268,-0.20336],conf,extj],Speed001,Zone001,azureKinect \WObj:=DefaultFrame;
WaitTime \InPos, 2;
SetDO \Sync, DO_1, 1;
WaitTime \InPos, 1;
SetDO \Sync, DO_1, 0;
MoveL [[766.457,-707.107,1267.426],[-0.3762,0.68938,-0.59872,-0.15735],conf,extj],Speed001,Zone001,azureKinect \WObj:=DefaultFrame;
WaitTime \InPos, 2;
SetDO \Sync, DO_1, 1;
WaitTime \InPos, 1;
SetDO \Sync, DO_1, 0;
MoveL [[678.98,-707.107,1230.037],[-0.41563,0.6984,-0.57206,-0.11062],conf,extj],Speed001,Zone001,azureKinect \WObj:=DefaultFrame;
WaitTime \InPos, 2;
SetDO \Sync, DO_1, 1;
WaitTime \InPos, 1;
SetDO \Sync, DO_1, 0;
MoveAbsJ [[0,0,0,0,-90,105],extj],Speed000,Zone000,azureKinect;
SetDO \Sync, DO_0, 0;
ENDPROC
ENDMODULE