MODULE scanCalib_f_T_ROB1
VAR extjoint extj := [9E9,9E9,9E9,9E9,9E9,9E9];
VAR confdata conf := [0,0,0,0];
PERS tooldata azureKinect:=[TRUE,[[-18.478,-68.949,83.547],[-0.08734,0.097,0.73679,-0.66341]],[0.001,[20,0,52],[1,0,0,0],0,0,0]];
TASK PERS wobjdata DefaultFrame:=[FALSE,TRUE,"",[[0,0,0],[1,0,0,0]],[[0,0,0],[1,0,0,0]]];
TASK PERS speeddata Speed000:=[500,180,5000,1080];
TASK PERS speeddata Speed001:=[250,180,5000,1080];
TASK PERS zonedata Zone000:=[FALSE,0.5,0.5,0.5,0.05,0.5,0.05];
TASK PERS zonedata Zone001:=[FALSE,0.01,0.01,0.01,0.001,0.01,0.001];
PROC Main()
ConfL \Off;
PathAccLim FALSE, TRUE\DecelMax := .1;
SetDO \Sync, DO_0, 0;
SetDO \Sync, DO_1, 0;
MoveAbsJ [[0,0,0,0,-90,105],extj],Speed000,Zone000,azureKinect;
SetDO \Sync, DO_0, 1;
MoveL [[759.975,593.645,944.455],[-0.05969,-0.54345,0.77863,-0.30795],conf,extj],Speed001,Zone001,azureKinect \WObj:=DefaultFrame;
WaitTime \InPos, 2;
SetDO \Sync, DO_1, 1;
WaitTime \InPos, 1;
SetDO \Sync, DO_1, 0;
MoveL [[853.367,549.257,895.397],[-0.04849,-0.52163,0.79077,-0.3166],conf,extj],Speed001,Zone001,azureKinect \WObj:=DefaultFrame;
WaitTime \InPos, 2;
SetDO \Sync, DO_1, 1;
WaitTime \InPos, 1;
SetDO \Sync, DO_1, 0;
MoveL [[927.343,535.139,888.246],[-0.05477,-0.56318,0.77437,-0.28315],conf,extj],Speed001,Zone001,azureKinect \WObj:=DefaultFrame;
WaitTime \InPos, 2;
SetDO \Sync, DO_1, 1;
WaitTime \InPos, 1;
SetDO \Sync, DO_1, 0;
MoveL [[992.724,551.977,927.156],[-0.12349,-0.65219,0.70577,-0.24755],conf,extj],Speed001,Zone001,azureKinect \WObj:=DefaultFrame;
WaitTime \InPos, 2;
SetDO \Sync, DO_1, 1;
WaitTime \InPos, 1;
SetDO \Sync, DO_1, 0;
MoveL [[1066.634,514.03,868.537],[0.20642,0.77405,-0.57147,0.17794],conf,extj],Speed001,Zone001,azureKinect \WObj:=DefaultFrame;
WaitTime \InPos, 2;
SetDO \Sync, DO_1, 1;
WaitTime \InPos, 1;
SetDO \Sync, DO_1, 0;
MoveL [[1141.418,638.088,1078.153],[-0.17707,-0.66901,0.69572,-0.19249],conf,extj],Speed001,Zone001,azureKinect \WObj:=DefaultFrame;
WaitTime \InPos, 2;
SetDO \Sync, DO_1, 1;
WaitTime \InPos, 1;
SetDO \Sync, DO_1, 0;
MoveL [[1199.959,514.33,863.921],[-0.17021,-0.54138,0.79113,-0.22813],conf,extj],Speed001,Zone001,azureKinect \WObj:=DefaultFrame;
WaitTime \InPos, 2;
SetDO \Sync, DO_1, 1;
WaitTime \InPos, 1;
SetDO \Sync, DO_1, 0;
MoveL [[1305.379,636.556,1056.581],[0.25099,0.71598,-0.64418,0.09702],conf,extj],Speed001,Zone001,azureKinect \WObj:=DefaultFrame;
WaitTime \InPos, 2;
SetDO \Sync, DO_1, 1;
WaitTime \InPos, 1;
SetDO \Sync, DO_1, 0;
MoveL [[1367.949,596.728,972.784],[-0.21161,-0.52942,0.80146,-0.18054],conf,extj],Speed001,Zone001,azureKinect \WObj:=DefaultFrame;
WaitTime \InPos, 2;
SetDO \Sync, DO_1, 1;
WaitTime \InPos, 1;
SetDO \Sync, DO_1, 0;
MoveL [[1391.495,508.918,809.659],[0.31697,0.77212,-0.54981,0.0327],conf,extj],Speed001,Zone001,azureKinect \WObj:=DefaultFrame;
WaitTime \InPos, 2;
SetDO \Sync, DO_1, 1;
WaitTime \InPos, 1;
SetDO \Sync, DO_1, 0;
MoveL [[770.417,429.133,915.453],[0.06396,0.72612,-0.63162,0.26403],conf,extj],Speed001,Zone001,azureKinect \WObj:=DefaultFrame;
WaitTime \InPos, 2;
SetDO \Sync, DO_1, 1;
WaitTime \InPos, 1;
SetDO \Sync, DO_1, 0;
MoveL [[814.132,474.788,1037.837],[-0.06629,-0.67402,0.69207,-0.24968],conf,extj],Speed001,Zone001,azureKinect \WObj:=DefaultFrame;
WaitTime \InPos, 2;
SetDO \Sync, DO_1, 1;
WaitTime \InPos, 1;
SetDO \Sync, DO_1, 0;
MoveL [[884.264,498.671,1109.866],[-0.04814,-0.62911,0.74981,-0.19923],conf,extj],Speed001,Zone001,azureKinect \WObj:=DefaultFrame;
WaitTime \InPos, 2;
SetDO \Sync, DO_1, 1;
WaitTime \InPos, 1;
SetDO \Sync, DO_1, 0;
MoveL [[968.22,505.682,1138.937],[0.10514,0.69316,-0.68433,0.20041],conf,extj],Speed001,Zone001,azureKinect \WObj:=DefaultFrame;
WaitTime \InPos, 2;
SetDO \Sync, DO_1, 1;
WaitTime \InPos, 1;
SetDO \Sync, DO_1, 0;
MoveL [[1057.289,490.725,1111.803],[-0.07474,-0.49683,0.8511,-0.15234],conf,extj],Speed001,Zone001,azureKinect \WObj:=DefaultFrame;
WaitTime \InPos, 2;
SetDO \Sync, DO_1, 1;
WaitTime \InPos, 1;
SetDO \Sync, DO_1, 0;
MoveL [[1134.462,395.943,897.062],[0.18776,0.84116,-0.49902,0.09042],conf,extj],Speed001,Zone001,azureKinect \WObj:=DefaultFrame;
WaitTime \InPos, 2;
SetDO \Sync, DO_1, 1;
WaitTime \InPos, 1;
SetDO \Sync, DO_1, 0;
MoveL [[1210.209,422.907,952.505],[-0.17857,-0.55192,0.80813,-0.10208],conf,extj],Speed001,Zone001,azureKinect \WObj:=DefaultFrame;
WaitTime \InPos, 2;
SetDO \Sync, DO_1, 1;
WaitTime \InPos, 1;
SetDO \Sync, DO_1, 0;
MoveL [[1329.534,530.564,1180.848],[-0.15072,-0.51422,0.83179,-0.14487],conf,extj],Speed001,Zone001,azureKinect \WObj:=DefaultFrame;
WaitTime \InPos, 2;
SetDO \Sync, DO_1, 1;
WaitTime \InPos, 1;
SetDO \Sync, DO_1, 0;
MoveL [[1423.112,536.646,1173.052],[-0.23919,-0.6414,0.72272,-0.09524],conf,extj],Speed001,Zone001,azureKinect \WObj:=DefaultFrame;
WaitTime \InPos, 2;
SetDO \Sync, DO_1, 1;
WaitTime \InPos, 1;
SetDO \Sync, DO_1, 0;
MoveL [[1472.852,485.47,1035.636],[0.25582,0.77011,-0.58432,0.00791],conf,extj],Speed001,Zone001,azureKinect \WObj:=DefaultFrame;
WaitTime \InPos, 2;
SetDO \Sync, DO_1, 1;
WaitTime \InPos, 1;
SetDO \Sync, DO_1, 0;
MoveL [[684.633,374.893,1153.726],[0.04588,-0.53896,0.80492,-0.24395],conf,extj],Speed001,Zone001,azureKinect \WObj:=DefaultFrame;
WaitTime \InPos, 2;
SetDO \Sync, DO_1, 1;
WaitTime \InPos, 1;
SetDO \Sync, DO_1, 0;
MoveL [[806.704,337.667,1064.805],[-0.00998,-0.53384,0.82264,-0.19541],conf,extj],Speed001,Zone001,azureKinect \WObj:=DefaultFrame;
WaitTime \InPos, 2;
SetDO \Sync, DO_1, 1;
WaitTime \InPos, 1;
SetDO \Sync, DO_1, 0;
MoveL [[912.769,299.998,963.22],[0.00768,-0.47907,0.8503,-0.2178],conf,extj],Speed001,Zone001,azureKinect \WObj:=DefaultFrame;
WaitTime \InPos, 2;
SetDO \Sync, DO_1, 1;
WaitTime \InPos, 1;
SetDO \Sync, DO_1, 0;
MoveL [[977.385,326.154,1059.732],[0.09756,0.84203,-0.51534,0.1261],conf,extj],Speed001,Zone001,azureKinect \WObj:=DefaultFrame;
WaitTime \InPos, 2;
SetDO \Sync, DO_1, 1;
WaitTime \InPos, 1;
SetDO \Sync, DO_1, 0;
MoveL [[1054.667,361.041,1180.041],[-0.05033,-0.62401,0.76921,-0.12802],conf,extj],Speed001,Zone001,azureKinect \WObj:=DefaultFrame;
WaitTime \InPos, 2;
SetDO \Sync, DO_1, 1;
WaitTime \InPos, 1;
SetDO \Sync, DO_1, 0;
MoveL [[1137.39,297.787,973.298],[-0.09202,-0.69493,0.70767,-0.08835],conf,extj],Speed001,Zone001,azureKinect \WObj:=DefaultFrame;
WaitTime \InPos, 2;
SetDO \Sync, DO_1, 1;
WaitTime \InPos, 1;
SetDO \Sync, DO_1, 0;
MoveL [[1215.753,307.902,1000.428],[-0.16402,-0.52286,0.83314,-0.0748],conf,extj],Speed001,Zone001,azureKinect \WObj:=DefaultFrame;
WaitTime \InPos, 2;
SetDO \Sync, DO_1, 1;
WaitTime \InPos, 1;
SetDO \Sync, DO_1, 0;
MoveL [[1317.222,348.052,1117.512],[-0.17308,-0.63159,0.7553,-0.02591],conf,extj],Speed001,Zone001,azureKinect \WObj:=DefaultFrame;
WaitTime \InPos, 2;
SetDO \Sync, DO_1, 1;
WaitTime \InPos, 1;
SetDO \Sync, DO_1, 0;
MoveL [[1360.813,300.27,946.877],[-0.19043,-0.68759,0.7006,0.0105],conf,extj],Speed001,Zone001,azureKinect \WObj:=DefaultFrame;
WaitTime \InPos, 2;
SetDO \Sync, DO_1, 1;
WaitTime \InPos, 1;
SetDO \Sync, DO_1, 0;
MoveL [[1509.73,369.805,1138.069],[0.2169,0.83547,-0.50064,-0.06566],conf,extj],Speed001,Zone001,azureKinect \WObj:=DefaultFrame;
WaitTime \InPos, 2;
SetDO \Sync, DO_1, 1;
WaitTime \InPos, 1;
SetDO \Sync, DO_1, 0;
MoveL [[773.068,173.657,908.088],[-0.02012,0.7873,-0.58487,0.19412],conf,extj],Speed001,Zone001,azureKinect \WObj:=DefaultFrame;
WaitTime \InPos, 2;
SetDO \Sync, DO_1, 1;
WaitTime \InPos, 1;
SetDO \Sync, DO_1, 0;
MoveL [[829.315,183.403,982.715],[-0.04024,0.70531,-0.68606,0.17389],conf,extj],Speed001,Zone001,azureKinect \WObj:=DefaultFrame;
WaitTime \InPos, 2;
SetDO \Sync, DO_1, 1;
WaitTime \InPos, 1;
SetDO \Sync, DO_1, 0;
MoveL [[874.333,212.798,1160.955],[-0.00036,0.76611,-0.6278,0.13761],conf,extj],Speed001,Zone001,azureKinect \WObj:=DefaultFrame;
WaitTime \InPos, 2;
SetDO \Sync, DO_1, 1;
WaitTime \InPos, 1;
SetDO \Sync, DO_1, 0;
MoveL [[973.641,197.808,1092.087],[-0.03633,-0.49295,0.86095,-0.12017],conf,extj],Speed001,Zone001,azureKinect \WObj:=DefaultFrame;
WaitTime \InPos, 2;
SetDO \Sync, DO_1, 1;
WaitTime \InPos, 1;
SetDO \Sync, DO_1, 0;
MoveL [[1049.294,237.663,1319.904],[-0.04902,-0.64725,0.75377,-0.1024],conf,extj],Speed001,Zone001,azureKinect \WObj:=DefaultFrame;
WaitTime \InPos, 2;
SetDO \Sync, DO_1, 1;
WaitTime \InPos, 1;
SetDO \Sync, DO_1, 0;
MoveL [[1145.171,211.724,1175.846],[-0.09246,-0.6002,0.79053,-0.07915],conf,extj],Speed001,Zone001,azureKinect \WObj:=DefaultFrame;
WaitTime \InPos, 2;
SetDO \Sync, DO_1, 1;
WaitTime \InPos, 1;
SetDO \Sync, DO_1, 0;
MoveL [[1242.963,223.801,1235.59],[0.10663,0.85571,-0.50634,-0.00305],conf,extj],Speed001,Zone001,azureKinect \WObj:=DefaultFrame;
WaitTime \InPos, 2;
SetDO \Sync, DO_1, 1;
WaitTime \InPos, 1;
SetDO \Sync, DO_1, 0;
MoveL [[1337.124,223.602,1219.895],[0.13455,0.74979,-0.64785,0.00099],conf,extj],Speed001,Zone001,azureKinect \WObj:=DefaultFrame;
WaitTime \InPos, 2;
SetDO \Sync, DO_1, 1;
WaitTime \InPos, 1;
SetDO \Sync, DO_1, 0;
MoveL [[1402.469,204.939,1098.108],[0.16722,0.75952,-0.62717,-0.04275],conf,extj],Speed001,Zone001,azureKinect \WObj:=DefaultFrame;
WaitTime \InPos, 2;
SetDO \Sync, DO_1, 1;
WaitTime \InPos, 1;
SetDO \Sync, DO_1, 0;
MoveL [[1456.23,189.22,989.467],[-0.18706,-0.52994,0.82661,-0.02972],conf,extj],Speed001,Zone001,azureKinect \WObj:=DefaultFrame;
WaitTime \InPos, 2;
SetDO \Sync, DO_1, 1;
WaitTime \InPos, 1;
SetDO \Sync, DO_1, 0;
MoveL [[744.93,62.275,986.245],[0.11006,-0.68738,0.69941,-0.16194],conf,extj],Speed001,Zone001,azureKinect \WObj:=DefaultFrame;
WaitTime \InPos, 2;
SetDO \Sync, DO_1, 1;
WaitTime \InPos, 1;
SetDO \Sync, DO_1, 0;
MoveL [[759.488,76.18,1236.22],[0.10932,-0.61252,0.77371,-0.11935],conf,extj],Speed001,Zone001,azureKinect \WObj:=DefaultFrame;
WaitTime \InPos, 2;
SetDO \Sync, DO_1, 1;
WaitTime \InPos, 1;
SetDO \Sync, DO_1, 0;
MoveL [[887.795,66.073,1091.699],[-0.02549,0.82693,-0.55266,0.10055],conf,extj],Speed001,Zone001,azureKinect \WObj:=DefaultFrame;
WaitTime \InPos, 2;
SetDO \Sync, DO_1, 1;
WaitTime \InPos, 1;
SetDO \Sync, DO_1, 0;
MoveL [[973.714,65.277,1091.458],[-0.00006,0.78258,-0.6191,0.06539],conf,extj],Speed001,Zone001,azureKinect \WObj:=DefaultFrame;
WaitTime \InPos, 2;
SetDO \Sync, DO_1, 1;
WaitTime \InPos, 1;
SetDO \Sync, DO_1, 0;
MoveL [[1057.392,65.942,1109.12],[0.02993,-0.54062,0.8384,-0.0626],conf,extj],Speed001,Zone001,azureKinect \WObj:=DefaultFrame;
WaitTime \InPos, 2;
SetDO \Sync, DO_1, 1;
WaitTime \InPos, 1;
SetDO \Sync, DO_1, 0;
MoveL [[1142.441,65.684,1104.77],[-0.06574,-0.58848,0.80584,0.00132],conf,extj],Speed001,Zone001,azureKinect \WObj:=DefaultFrame;
WaitTime \InPos, 2;
SetDO \Sync, DO_1, 1;
WaitTime \InPos, 1;
SetDO \Sync, DO_1, 0;
MoveL [[1219.349,61.691,1031.504],[0.05275,0.76352,-0.64242,-0.03951],conf,extj],Speed001,Zone001,azureKinect \WObj:=DefaultFrame;
WaitTime \InPos, 2;
SetDO \Sync, DO_1, 1;
WaitTime \InPos, 1;
SetDO \Sync, DO_1, 0;
MoveL [[1304.327,63.62,1051.171],[0.06832,0.72065,-0.68751,-0.05767],conf,extj],Speed001,Zone001,azureKinect \WObj:=DefaultFrame;
WaitTime \InPos, 2;
SetDO \Sync, DO_1, 1;
WaitTime \InPos, 1;
SetDO \Sync, DO_1, 0;
MoveL [[1416.508,70.81,1149.076],[0.10009,0.81869,-0.55656,-0.09984],conf,extj],Speed001,Zone001,azureKinect \WObj:=DefaultFrame;
WaitTime \InPos, 2;
SetDO \Sync, DO_1, 1;
WaitTime \InPos, 1;
SetDO \Sync, DO_1, 0;
MoveL [[1541.192,77.38,1225.458],[0.13396,0.7932,-0.58208,-0.11862],conf,extj],Speed001,Zone001,azureKinect \WObj:=DefaultFrame;
WaitTime \InPos, 2;
SetDO \Sync, DO_1, 1;
WaitTime \InPos, 1;
SetDO \Sync, DO_1, 0;
MoveL [[760.636,-59.521,942.619],[-0.125,0.73452,-0.66051,0.09263],conf,extj],Speed001,Zone001,azureKinect \WObj:=DefaultFrame;
WaitTime \InPos, 2;
SetDO \Sync, DO_1, 1;
WaitTime \InPos, 1;
SetDO \Sync, DO_1, 0;
MoveL [[753.068,-77.617,1259.529],[0.14675,-0.61961,0.76957,-0.04808],conf,extj],Speed001,Zone001,azureKinect \WObj:=DefaultFrame;
WaitTime \InPos, 2;
SetDO \Sync, DO_1, 1;
WaitTime \InPos, 1;
SetDO \Sync, DO_1, 0;
MoveL [[851.135,-77.487,1280.298],[0.07269,-0.6619,0.74556,-0.02719],conf,extj],Speed001,Zone001,azureKinect \WObj:=DefaultFrame;
WaitTime \InPos, 2;
SetDO \Sync, DO_1, 1;
WaitTime \InPos, 1;
SetDO \Sync, DO_1, 0;
MoveL [[964.374,-70.105,1172.181],[-0.0715,0.70978,-0.69976,0.03791],conf,extj],Speed001,Zone001,azureKinect \WObj:=DefaultFrame;
WaitTime \InPos, 2;
SetDO \Sync, DO_1, 1;
WaitTime \InPos, 1;
SetDO \Sync, DO_1, 0;
MoveL [[1060.944,-60.445,1016.656],[-0.04474,0.81011,-0.58456,-0.00284],conf,extj],Speed001,Zone001,azureKinect \WObj:=DefaultFrame;
WaitTime \InPos, 2;
SetDO \Sync, DO_1, 1;
WaitTime \InPos, 1;
SetDO \Sync, DO_1, 0;
MoveL [[1137.732,-58.395,982.183],[0.00784,-0.55177,0.83024,0.07872],conf,extj],Speed001,Zone001,azureKinect \WObj:=DefaultFrame;
WaitTime \InPos, 2;
SetDO \Sync, DO_1, 1;
WaitTime \InPos, 1;
SetDO \Sync, DO_1, 0;
MoveL [[1217.177,-60.569,1012.734],[-0.0164,-0.57134,0.81505,0.09478],conf,extj],Speed001,Zone001,azureKinect \WObj:=DefaultFrame;
WaitTime \InPos, 2;
SetDO \Sync, DO_1, 1;
WaitTime \InPos, 1;
SetDO \Sync, DO_1, 0;
MoveL [[1317.772,-67.806,1120.341],[-0.02599,-0.60761,0.78887,0.08843],conf,extj],Speed001,Zone001,azureKinect \WObj:=DefaultFrame;
WaitTime \InPos, 2;
SetDO \Sync, DO_1, 1;
WaitTime \InPos, 1;
SetDO \Sync, DO_1, 0;
MoveL [[1362.291,-58.68,952.242],[-0.0563,-0.54981,0.82469,0.12015],conf,extj],Speed001,Zone001,azureKinect \WObj:=DefaultFrame;
WaitTime \InPos, 2;
SetDO \Sync, DO_1, 1;
WaitTime \InPos, 1;
SetDO \Sync, DO_1, 0;
MoveL [[1438.093,-59.298,939.089],[-0.09717,-0.6278,0.7652,0.1044],conf,extj],Speed001,Zone001,azureKinect \WObj:=DefaultFrame;
WaitTime \InPos, 2;
SetDO \Sync, DO_1, 1;
WaitTime \InPos, 1;
SetDO \Sync, DO_1, 0;
MoveL [[770.939,-174.788,914.002],[0.17441,-0.65431,0.73194,-0.07574],conf,extj],Speed001,Zone001,azureKinect \WObj:=DefaultFrame;
WaitTime \InPos, 2;
SetDO \Sync, DO_1, 1;
WaitTime \InPos, 1;
SetDO \Sync, DO_1, 0;
MoveL [[791.773,-208.84,1119.011],[-0.14462,0.80141,-0.57839,0.04793],conf,extj],Speed001,Zone001,azureKinect \WObj:=DefaultFrame;
WaitTime \InPos, 2;
SetDO \Sync, DO_1, 1;
WaitTime \InPos, 1;
SetDO \Sync, DO_1, 0;
MoveL [[897.563,-190.894,1041.45],[0.13847,-0.55149,0.82034,0.06102],conf,extj],Speed001,Zone001,azureKinect \WObj:=DefaultFrame;
WaitTime \InPos, 2;
SetDO \Sync, DO_1, 1;
WaitTime \InPos, 1;
SetDO \Sync, DO_1, 0;
MoveL [[978.601,-190.044,1049.218],[0.09115,-0.54976,0.8261,0.08378],conf,extj],Speed001,Zone001,azureKinect \WObj:=DefaultFrame;
WaitTime \InPos, 2;
SetDO \Sync, DO_1, 1;
WaitTime \InPos, 1;
SetDO \Sync, DO_1, 0;
MoveL [[1058.225,-195.803,1087.427],[-0.08641,0.83972,-0.53537,-0.02807],conf,extj],Speed001,Zone001,azureKinect \WObj:=DefaultFrame;
WaitTime \InPos, 2;
SetDO \Sync, DO_1, 1;
WaitTime \InPos, 1;
SetDO \Sync, DO_1, 0;
MoveL [[1148.673,-228.138,1267.005],[0.06583,-0.5647,0.81934,0.0739],conf,extj],Speed001,Zone001,azureKinect \WObj:=DefaultFrame;
WaitTime \InPos, 2;
SetDO \Sync, DO_1, 1;
WaitTime \InPos, 1;
SetDO \Sync, DO_1, 0;
MoveL [[1234.91,-211.195,1165.996],[-0.03385,0.8113,-0.57603,-0.094],conf,extj],Speed001,Zone001,azureKinect \WObj:=DefaultFrame;
WaitTime \InPos, 2;
SetDO \Sync, DO_1, 1;
WaitTime \InPos, 1;
SetDO \Sync, DO_1, 0;
MoveL [[1329.08,-216.017,1178.516],[-0.00767,-0.64126,0.76011,0.10464],conf,extj],Speed001,Zone001,azureKinect \WObj:=DefaultFrame;
WaitTime \InPos, 2;
SetDO \Sync, DO_1, 1;
WaitTime \InPos, 1;
SetDO \Sync, DO_1, 0;
MoveL [[1423.383,-219.11,1174.036],[-0.06314,-0.55529,0.80968,0.17913],conf,extj],Speed001,Zone001,azureKinect \WObj:=DefaultFrame;
WaitTime \InPos, 2;
SetDO \Sync, DO_1, 1;
WaitTime \InPos, 1;
SetDO \Sync, DO_1, 0;
MoveL [[1472.771,-198.006,1035.412],[0.0398,0.7788,-0.59512,-0.19424],conf,extj],Speed001,Zone001,azureKinect \WObj:=DefaultFrame;
WaitTime \InPos, 2;
SetDO \Sync, DO_1, 1;
WaitTime \InPos, 1;
SetDO \Sync, DO_1, 0;
MoveL [[682.132,-377.151,1160.674],[0.22827,-0.51357,0.82358,0.07653],conf,extj],Speed001,Zone001,azureKinect \WObj:=DefaultFrame;
WaitTime \InPos, 2;
SetDO \Sync, DO_1, 1;
WaitTime \InPos, 1;
SetDO \Sync, DO_1, 0;
MoveL [[849.667,-288.204,908.826],[-0.17591,0.71769,-0.6736,-0.01548],conf,extj],Speed001,Zone001,azureKinect \WObj:=DefaultFrame;
WaitTime \InPos, 2;
SetDO \Sync, DO_1, 1;
WaitTime \InPos, 1;
SetDO \Sync, DO_1, 0;
MoveL [[915.608,-295.448,948.613],[0.16621,-0.65209,0.73515,0.08186],conf,extj],Speed001,Zone001,azureKinect \WObj:=DefaultFrame;
WaitTime \InPos, 2;
SetDO \Sync, DO_1, 1;
WaitTime \InPos, 1;
SetDO \Sync, DO_1, 0;
MoveL [[967.127,-353.439,1148.384],[0.15489,-0.61819,0.76404,0.10045],conf,extj],Speed001,Zone001,azureKinect \WObj:=DefaultFrame;
WaitTime \InPos, 2;
SetDO \Sync, DO_1, 1;
WaitTime \InPos, 1;
SetDO \Sync, DO_1, 0;
MoveL [[1057.416,-339.152,1108.497],[0.09482,-0.58086,0.79596,0.14164],conf,extj],Speed001,Zone001,azureKinect \WObj:=DefaultFrame;
WaitTime \InPos, 2;
SetDO \Sync, DO_1, 1;
WaitTime \InPos, 1;
SetDO \Sync, DO_1, 0;
MoveL [[1148.366,-385.197,1258.993],[-0.111,0.82792,-0.54168,-0.09388],conf,extj],Speed001,Zone001,azureKinect \WObj:=DefaultFrame;
WaitTime \InPos, 2;
SetDO \Sync, DO_1, 1;
WaitTime \InPos, 1;
SetDO \Sync, DO_1, 0;
MoveL [[1244.617,-384.677,1249.885],[0.03323,-0.60596,0.7844,0.12816],conf,extj],Speed001,Zone001,azureKinect \WObj:=DefaultFrame;
WaitTime \InPos, 2;
SetDO \Sync, DO_1, 1;
WaitTime \InPos, 1;
SetDO \Sync, DO_1, 0;
MoveL [[1309.865,-336.263,1079.66],[0.04545,-0.59552,0.78057,0.18438],conf,extj],Speed001,Zone001,azureKinect \WObj:=DefaultFrame;
WaitTime \InPos, 2;
SetDO \Sync, DO_1, 1;
WaitTime \InPos, 1;
SetDO \Sync, DO_1, 0;
MoveL [[1418.264,-366.412,1155.45],[-0.05282,0.8029,-0.56166,-0.19259],conf,extj],Speed001,Zone001,azureKinect \WObj:=DefaultFrame;
WaitTime \InPos, 2;
SetDO \Sync, DO_1, 1;
WaitTime \InPos, 1;
SetDO \Sync, DO_1, 0;
MoveL [[1486.754,-349.068,1074.25],[-0.0588,-0.51177,0.8379,0.18042],conf,extj],Speed001,Zone001,azureKinect \WObj:=DefaultFrame;
WaitTime \InPos, 2;
SetDO \Sync, DO_1, 1;
WaitTime \InPos, 1;
SetDO \Sync, DO_1, 0;
MoveL [[792.573,-400.285,853.912],[-0.25961,0.80306,-0.53571,0.02657],conf,extj],Speed001,Zone001,azureKinect \WObj:=DefaultFrame;
WaitTime \InPos, 2;
SetDO \Sync, DO_1, 1;
WaitTime \InPos, 1;
SetDO \Sync, DO_1, 0;
MoveL [[781.251,-529.398,1157.21],[-0.2433,0.714,-0.6533,-0.0648],conf,extj],Speed001,Zone001,azureKinect \WObj:=DefaultFrame;
WaitTime \InPos, 2;
SetDO \Sync, DO_1, 1;
WaitTime \InPos, 1;
SetDO \Sync, DO_1, 0;
MoveL [[886.685,-493.076,1097.412],[0.22274,-0.68365,0.69179,0.06659],conf,extj],Speed001,Zone001,azureKinect \WObj:=DefaultFrame;
WaitTime \InPos, 2;
SetDO \Sync, DO_1, 1;
WaitTime \InPos, 1;
SetDO \Sync, DO_1, 0;
MoveL [[959.575,-538.857,1213.656],[-0.18318,0.76078,-0.61635,-0.08817],conf,extj],Speed001,Zone001,azureKinect \WObj:=DefaultFrame;
WaitTime \InPos, 2;
SetDO \Sync, DO_1, 1;
WaitTime \InPos, 1;
SetDO \Sync, DO_1, 0;
MoveL [[1062.08,-435.677,987.085],[0.13051,-0.63372,0.74292,0.17155],conf,extj],Speed001,Zone001,azureKinect \WObj:=DefaultFrame;
WaitTime \InPos, 2;
SetDO \Sync, DO_1, 1;
WaitTime \InPos, 1;
SetDO \Sync, DO_1, 0;
MoveL [[1135.341,-406.048,919.955],[-0.13051,0.70156,-0.68728,-0.13573],conf,extj],Speed001,Zone001,azureKinect \WObj:=DefaultFrame;
WaitTime \InPos, 2;
SetDO \Sync, DO_1, 1;
WaitTime \InPos, 1;
SetDO \Sync, DO_1, 0;
MoveL [[1218.838,-456.023,1027.089],[0.05324,-0.55569,0.81154,0.17255],conf,extj],Speed001,Zone001,azureKinect \WObj:=DefaultFrame;
WaitTime \InPos, 2;
SetDO \Sync, DO_1, 1;
WaitTime \InPos, 1;
SetDO \Sync, DO_1, 0;
MoveL [[1331.823,-535.857,1192.628],[0.03989,-0.55087,0.79611,0.24729],conf,extj],Speed001,Zone001,azureKinect \WObj:=DefaultFrame;
WaitTime \InPos, 2;
SetDO \Sync, DO_1, 1;
WaitTime \InPos, 1;
SetDO \Sync, DO_1, 0;
MoveL [[1385.373,-473.966,1036.04],[-0.00807,-0.55233,0.79124,0.2623],conf,extj],Speed001,Zone001,azureKinect \WObj:=DefaultFrame;
WaitTime \InPos, 2;
SetDO \Sync, DO_1, 1;
WaitTime \InPos, 1;
SetDO \Sync, DO_1, 0;
MoveL [[1440.335,-443.132,945.316],[-0.02151,-0.55932,0.79478,0.23456],conf,extj],Speed001,Zone001,azureKinect \WObj:=DefaultFrame;
WaitTime \InPos, 2;
SetDO \Sync, DO_1, 1;
WaitTime \InPos, 1;
SetDO \Sync, DO_1, 0;
MoveL [[783.014,-553.422,880.462],[0.25375,-0.54246,0.79369,0.10682],conf,extj],Speed001,Zone001,azureKinect \WObj:=DefaultFrame;
WaitTime \InPos, 2;
SetDO \Sync, DO_1, 1;
WaitTime \InPos, 1;
SetDO \Sync, DO_1, 0;
MoveL [[873.847,-503.646,821.043],[-0.28551,0.76451,-0.57584,-0.04918],conf,extj],Speed001,Zone001,azureKinect \WObj:=DefaultFrame;
WaitTime \InPos, 2;
SetDO \Sync, DO_1, 1;
WaitTime \InPos, 1;
SetDO \Sync, DO_1, 0;
MoveL [[906.111,-600.945,997.473],[-0.2593,0.68432,-0.67347,-0.10443],conf,extj],Speed001,Zone001,azureKinect \WObj:=DefaultFrame;
WaitTime \InPos, 2;
SetDO \Sync, DO_1, 1;
WaitTime \InPos, 1;
SetDO \Sync, DO_1, 0;
MoveL [[993.63,-547.317,919.329],[0.23455,-0.6244,0.73039,0.14708],conf,extj],Speed001,Zone001,azureKinect \WObj:=DefaultFrame;
WaitTime \InPos, 2;
SetDO \Sync, DO_1, 1;
WaitTime \InPos, 1;
SetDO \Sync, DO_1, 0;
MoveL [[1056.608,-668.491,1129.523],[-0.22399,0.73936,-0.61728,-0.14879],conf,extj],Speed001,Zone001,azureKinect \WObj:=DefaultFrame;
WaitTime \InPos, 2;
SetDO \Sync, DO_1, 1;
WaitTime \InPos, 1;
SetDO \Sync, DO_1, 0;
MoveL [[1136.474,-561.911,949.439],[-0.19118,0.75118,-0.60237,-0.1906],conf,extj],Speed001,Zone001,azureKinect \WObj:=DefaultFrame;
WaitTime \InPos, 2;
SetDO \Sync, DO_1, 1;
WaitTime \InPos, 1;
SetDO \Sync, DO_1, 0;
MoveL [[1198.324,-505.919,849.793],[0.14244,-0.53602,0.80015,0.22836],conf,extj],Speed001,Zone001,azureKinect \WObj:=DefaultFrame;
WaitTime \InPos, 2;
SetDO \Sync, DO_1, 1;
WaitTime \InPos, 1;
SetDO \Sync, DO_1, 0;
MoveL [[1306.618,-640.398,1062.96],[-0.14938,0.75696,-0.59435,-0.2268],conf,extj],Speed001,Zone001,azureKinect \WObj:=DefaultFrame;
WaitTime \InPos, 2;
SetDO \Sync, DO_1, 1;
WaitTime \InPos, 1;
SetDO \Sync, DO_1, 0;
MoveL [[1407.683,-685.216,1117.037],[-0.13159,0.75838,-0.58501,-0.25556],conf,extj],Speed001,Zone001,azureKinect \WObj:=DefaultFrame;
WaitTime \InPos, 2;
SetDO \Sync, DO_1, 1;
WaitTime \InPos, 1;
SetDO \Sync, DO_1, 0;
MoveL [[1461.057,-630.364,1002.873],[-0.13285,0.78145,-0.54347,-0.27628],conf,extj],Speed001,Zone001,azureKinect \WObj:=DefaultFrame;
WaitTime \InPos, 2;
SetDO \Sync, DO_1, 1;
WaitTime \InPos, 1;
SetDO \Sync, DO_1, 0;
MoveAbsJ [[0,0,0,0,-90,105],extj],Speed000,Zone000,azureKinect;
SetDO \Sync, DO_0, 0;
ENDPROC
ENDMODULE