MODULE scanRuled_apr_T_ROB1
VAR extjoint extj := [9E9,9E9,9E9,9E9,9E9,9E9];
VAR confdata conf := [0,0,0,0];
PERS tooldata kinectAzure:=[TRUE,[[-45.634,-46.661,81.608],[0.09230,-0.09230,-0.70106,0.70106]],[2.000,[-45.634,-46.661,81.608],[1,0,0,0],0,0,0]];
TASK PERS wobjdata DefaultFrame:=[FALSE,TRUE,"",[[0.000,0.000,0.000],[1.00000,0.00000,0.00000,0.00000]],[[0,0,0],[1,0,0,0]]];
TASK PERS speeddata Speed000:=[500.000,180.000,5000.000,1080.000];
TASK PERS speeddata Speed001:=[250.000,180.000,5000.000,1080.000];
TASK PERS zonedata Zone000:=[FALSE,1.000,1.000,1.000,0.100,1.000,0.100];
TASK PERS zonedata Zone001:=[FALSE,0.010,0.010,0.010,0.001,0.010,0.001];
PROC Main()
ConfL \Off;
PathAccLim FALSE, TRUE\DecelMax := .1;
SetDO \Sync, DO_0, 0;
SetDO \Sync, DO_1, 0;
MoveAbsJ [[1,0,-1,1,-1,105],extj],Speed000,Zone000,kinectAzure;
SetDO \Sync, DO_0, 1;
MoveL [[759.567,599.842,882.545],[-0.1325,-0.58483,0.69458,-0.39745],conf,extj],Speed001,Zone001,kinectAzure \WObj:=DefaultFrame;
WaitTime \InPos, 3;
SetDO \Sync, DO_1, 1;
WaitTime 0.5;
SetDO \Sync, DO_1, 0;
MoveL [[712.436,451.029,991.46],[-0.0539,-0.62566,0.70505,-0.32947],conf,extj],Speed001,Zone001,kinectAzure \WObj:=DefaultFrame;
WaitTime \InPos, 3;
SetDO \Sync, DO_1, 1;
WaitTime 0.5;
SetDO \Sync, DO_1, 0;
MoveL [[679.637,279.539,1067.253],[0.02538,-0.65861,0.70665,-0.25735],conf,extj],Speed001,Zone001,kinectAzure \WObj:=DefaultFrame;
WaitTime \InPos, 3;
SetDO \Sync, DO_1, 1;
WaitTime 0.5;
SetDO \Sync, DO_1, 0;
MoveL [[662.816,93.971,1106.124],[0.10434,-0.68329,0.69937,-0.18199],conf,extj],Speed001,Zone001,kinectAzure \WObj:=DefaultFrame;
WaitTime \InPos, 3;
SetDO \Sync, DO_1, 1;
WaitTime 0.5;
SetDO \Sync, DO_1, 0;
MoveL [[662.816,-96.368,1106.124],[-0.18199,0.69937,-0.68329,0.10434],conf,extj],Speed001,Zone001,kinectAzure \WObj:=DefaultFrame;
WaitTime \InPos, 3;
SetDO \Sync, DO_1, 1;
WaitTime 0.5;
SetDO \Sync, DO_1, 0;
MoveL [[679.637,-281.936,1067.253],[-0.25735,0.70665,-0.65861,0.02538],conf,extj],Speed001,Zone001,kinectAzure \WObj:=DefaultFrame;
WaitTime \InPos, 3;
SetDO \Sync, DO_1, 1;
WaitTime 0.5;
SetDO \Sync, DO_1, 0;
MoveL [[712.436,-453.426,991.46],[-0.32947,0.70505,-0.62566,-0.0539],conf,extj],Speed001,Zone001,kinectAzure \WObj:=DefaultFrame;
WaitTime \InPos, 3;
SetDO \Sync, DO_1, 1;
WaitTime 0.5;
SetDO \Sync, DO_1, 0;
MoveL [[759.567,-602.239,882.545],[-0.39745,0.69458,-0.58483,-0.1325],conf,extj],Speed001,Zone001,kinectAzure \WObj:=DefaultFrame;
WaitTime \InPos, 3;
SetDO \Sync, DO_1, 1;
WaitTime 0.5;
SetDO \Sync, DO_1, 0;
MoveL [[825.41,-602.239,906.585],[-0.36267,0.68567,-0.60701,-0.17277],conf,extj],Speed001,Zone001,kinectAzure \WObj:=DefaultFrame;
WaitTime \InPos, 3;
SetDO \Sync, DO_1, 1;
WaitTime 0.5;
SetDO \Sync, DO_1, 0;
MoveL [[791.28,-453.426,1020.246],[-0.29243,0.70071,-0.6438,-0.09492],conf,extj],Speed001,Zone001,kinectAzure \WObj:=DefaultFrame;
WaitTime \InPos, 3;
SetDO \Sync, DO_1, 1;
WaitTime 0.5;
SetDO \Sync, DO_1, 0;
MoveL [[767.528,-281.936,1099.342],[-0.21851,0.70693,-0.6725,-0.01587],conf,extj],Speed001,Zone001,kinectAzure \WObj:=DefaultFrame;
WaitTime \InPos, 3;
SetDO \Sync, DO_1, 1;
WaitTime 0.5;
SetDO \Sync, DO_1, 0;
MoveL [[755.347,-96.368,1139.907],[-0.14184,0.70426,-0.69274,0.06338],conf,extj],Speed001,Zone001,kinectAzure \WObj:=DefaultFrame;
WaitTime \InPos, 3;
SetDO \Sync, DO_1, 1;
WaitTime 0.5;
SetDO \Sync, DO_1, 0;
MoveL [[755.347,93.971,1139.907],[0.06338,-0.69274,0.70426,-0.14184],conf,extj],Speed001,Zone001,kinectAzure \WObj:=DefaultFrame;
WaitTime \InPos, 3;
SetDO \Sync, DO_1, 1;
WaitTime 0.5;
SetDO \Sync, DO_1, 0;
MoveL [[767.528,279.539,1099.342],[-0.01587,-0.6725,0.70693,-0.21851],conf,extj],Speed001,Zone001,kinectAzure \WObj:=DefaultFrame;
WaitTime \InPos, 3;
SetDO \Sync, DO_1, 1;
WaitTime 0.5;
SetDO \Sync, DO_1, 0;
MoveL [[791.28,451.029,1020.246],[-0.09492,-0.6438,0.70071,-0.29243],conf,extj],Speed001,Zone001,kinectAzure \WObj:=DefaultFrame;
WaitTime \InPos, 3;
SetDO \Sync, DO_1, 1;
WaitTime 0.5;
SetDO \Sync, DO_1, 0;
MoveL [[825.41,599.842,906.585],[-0.17277,-0.60701,0.68567,-0.36267],conf,extj],Speed001,Zone001,kinectAzure \WObj:=DefaultFrame;
WaitTime \InPos, 3;
SetDO \Sync, DO_1, 1;
WaitTime 0.5;
SetDO \Sync, DO_1, 0;
MoveL [[893.604,599.842,922.795],[-0.21246,-0.62713,0.67443,-0.32666],conf,extj],Speed001,Zone001,kinectAzure \WObj:=DefaultFrame;
WaitTime \InPos, 3;
SetDO \Sync, DO_1, 1;
WaitTime 0.5;
SetDO \Sync, DO_1, 0;
MoveL [[872.939,451.029,1039.657],[-0.13561,-0.65976,0.69398,-0.25439],conf,extj],Speed001,Zone001,kinectAzure \WObj:=DefaultFrame;
WaitTime \InPos, 3;
SetDO \Sync, DO_1, 1;
WaitTime 0.5;
SetDO \Sync, DO_1, 0;
MoveL [[858.557,279.539,1120.98],[-0.05706,-0.6841,0.7048,-0.17892],conf,extj],Speed001,Zone001,kinectAzure \WObj:=DefaultFrame;
WaitTime \InPos, 3;
SetDO \Sync, DO_1, 1;
WaitTime 0.5;
SetDO \Sync, DO_1, 0;
MoveL [[851.182,93.971,1162.687],[0.02221,-0.69983,0.70676,-0.1012],conf,extj],Speed001,Zone001,kinectAzure \WObj:=DefaultFrame;
WaitTime \InPos, 3;
SetDO \Sync, DO_1, 1;
WaitTime 0.5;
SetDO \Sync, DO_1, 0;
MoveL [[851.182,-96.368,1162.687],[-0.1012,0.70676,-0.69983,0.02221],conf,extj],Speed001,Zone001,kinectAzure \WObj:=DefaultFrame;
WaitTime \InPos, 3;
SetDO \Sync, DO_1, 1;
WaitTime 0.5;
SetDO \Sync, DO_1, 0;
MoveL [[858.557,-281.936,1120.98],[-0.17892,0.7048,-0.6841,-0.05706],conf,extj],Speed001,Zone001,kinectAzure \WObj:=DefaultFrame;
WaitTime \InPos, 3;
SetDO \Sync, DO_1, 1;
WaitTime 0.5;
SetDO \Sync, DO_1, 0;
MoveL [[872.939,-453.426,1039.657],[-0.25439,0.69398,-0.65976,-0.13561],conf,extj],Speed001,Zone001,kinectAzure \WObj:=DefaultFrame;
WaitTime \InPos, 3;
SetDO \Sync, DO_1, 1;
WaitTime 0.5;
SetDO \Sync, DO_1, 0;
MoveL [[893.604,-602.239,922.795],[-0.32666,0.67443,-0.62713,-0.21246],conf,extj],Speed001,Zone001,kinectAzure \WObj:=DefaultFrame;
WaitTime \InPos, 3;
SetDO \Sync, DO_1, 1;
WaitTime 0.5;
SetDO \Sync, DO_1, 0;
MoveL [[963.222,-602.239,930.956],[-0.28954,0.6609,-0.64511,-0.25143],conf,extj],Speed001,Zone001,kinectAzure \WObj:=DefaultFrame;
WaitTime \InPos, 3;
SetDO \Sync, DO_1, 1;
WaitTime 0.5;
SetDO \Sync, DO_1, 0;
MoveL [[956.302,-453.426,1049.428],[-0.21549,0.68489,-0.67347,-0.17585],conf,extj],Speed001,Zone001,kinectAzure \WObj:=DefaultFrame;
WaitTime \InPos, 3;
SetDO \Sync, DO_1, 1;
WaitTime 0.5;
SetDO \Sync, DO_1, 0;
MoveL [[951.486,-281.936,1131.873],[-0.13873,0.70027,-0.69336,-0.09806],conf,extj],Speed001,Zone001,kinectAzure \WObj:=DefaultFrame;
WaitTime \InPos, 3;
SetDO \Sync, DO_1, 1;
WaitTime 0.5;
SetDO \Sync, DO_1, 0;
MoveL [[949.017,-96.368,1174.156],[-0.06022,0.70685,-0.70454,-0.01904],conf,extj],Speed001,Zone001,kinectAzure \WObj:=DefaultFrame;
WaitTime \InPos, 3;
SetDO \Sync, DO_1, 1;
WaitTime 0.5;
SetDO \Sync, DO_1, 0;
MoveL [[949.017,93.971,1174.156],[-0.01904,-0.70454,0.70685,-0.06022],conf,extj],Speed001,Zone001,kinectAzure \WObj:=DefaultFrame;
WaitTime \InPos, 3;
SetDO \Sync, DO_1, 1;
WaitTime 0.5;
SetDO \Sync, DO_1, 0;
MoveL [[951.486,279.539,1131.873],[-0.09806,-0.69336,0.70027,-0.13873],conf,extj],Speed001,Zone001,kinectAzure \WObj:=DefaultFrame;
WaitTime \InPos, 3;
SetDO \Sync, DO_1, 1;
WaitTime 0.5;
SetDO \Sync, DO_1, 0;
MoveL [[956.302,451.029,1049.428],[-0.17585,-0.67347,0.68489,-0.21549],conf,extj],Speed001,Zone001,kinectAzure \WObj:=DefaultFrame;
WaitTime \InPos, 3;
SetDO \Sync, DO_1, 1;
WaitTime 0.5;
SetDO \Sync, DO_1, 0;
MoveL [[963.222,599.842,930.956],[-0.25143,-0.64511,0.6609,-0.28954],conf,extj],Speed001,Zone001,kinectAzure \WObj:=DefaultFrame;
WaitTime \InPos, 3;
SetDO \Sync, DO_1, 1;
WaitTime 0.5;
SetDO \Sync, DO_1, 0;
MoveL [[1033.316,599.842,930.956],[0.28954,0.6609,-0.64511,0.25143],conf,extj],Speed001,Zone001,kinectAzure \WObj:=DefaultFrame;
WaitTime \InPos, 3;
SetDO \Sync, DO_1, 1;
WaitTime 0.5;
SetDO \Sync, DO_1, 0;
MoveL [[1040.236,451.029,1049.428],[0.21549,0.68489,-0.67347,0.17585],conf,extj],Speed001,Zone001,kinectAzure \WObj:=DefaultFrame;
WaitTime \InPos, 3;
SetDO \Sync, DO_1, 1;
WaitTime 0.5;
SetDO \Sync, DO_1, 0;
MoveL [[1045.052,279.539,1131.873],[0.13873,0.70027,-0.69336,0.09806],conf,extj],Speed001,Zone001,kinectAzure \WObj:=DefaultFrame;
WaitTime \InPos, 3;
SetDO \Sync, DO_1, 1;
WaitTime 0.5;
SetDO \Sync, DO_1, 0;
MoveL [[1047.522,93.971,1174.156],[0.06022,0.70685,-0.70454,0.01904],conf,extj],Speed001,Zone001,kinectAzure \WObj:=DefaultFrame;
WaitTime \InPos, 3;
SetDO \Sync, DO_1, 1;
WaitTime 0.5;
SetDO \Sync, DO_1, 0;
MoveL [[1047.522,-96.368,1174.156],[0.01904,-0.70454,0.70685,0.06022],conf,extj],Speed001,Zone001,kinectAzure \WObj:=DefaultFrame;
WaitTime \InPos, 3;
SetDO \Sync, DO_1, 1;
WaitTime 0.5;
SetDO \Sync, DO_1, 0;
MoveL [[1045.052,-281.936,1131.873],[0.09806,-0.69336,0.70027,0.13873],conf,extj],Speed001,Zone001,kinectAzure \WObj:=DefaultFrame;
WaitTime \InPos, 3;
SetDO \Sync, DO_1, 1;
WaitTime 0.5;
SetDO \Sync, DO_1, 0;
MoveL [[1040.236,-453.426,1049.428],[0.17585,-0.67347,0.68489,0.21549],conf,extj],Speed001,Zone001,kinectAzure \WObj:=DefaultFrame;
WaitTime \InPos, 3;
SetDO \Sync, DO_1, 1;
WaitTime 0.5;
SetDO \Sync, DO_1, 0;
MoveL [[1033.316,-602.239,930.956],[0.25143,-0.64511,0.6609,0.28954],conf,extj],Speed001,Zone001,kinectAzure \WObj:=DefaultFrame;
WaitTime \InPos, 3;
SetDO \Sync, DO_1, 1;
WaitTime 0.5;
SetDO \Sync, DO_1, 0;
MoveL [[1102.934,-602.239,922.795],[0.21246,-0.62713,0.67443,0.32666],conf,extj],Speed001,Zone001,kinectAzure \WObj:=DefaultFrame;
WaitTime \InPos, 3;
SetDO \Sync, DO_1, 1;
WaitTime 0.5;
SetDO \Sync, DO_1, 0;
MoveL [[1123.6,-453.426,1039.657],[0.13561,-0.65976,0.69398,0.25439],conf,extj],Speed001,Zone001,kinectAzure \WObj:=DefaultFrame;
WaitTime \InPos, 3;
SetDO \Sync, DO_1, 1;
WaitTime 0.5;
SetDO \Sync, DO_1, 0;
MoveL [[1137.981,-281.936,1120.98],[0.05706,-0.6841,0.7048,0.17892],conf,extj],Speed001,Zone001,kinectAzure \WObj:=DefaultFrame;
WaitTime \InPos, 3;
SetDO \Sync, DO_1, 1;
WaitTime 0.5;
SetDO \Sync, DO_1, 0;
MoveL [[1145.357,-96.368,1162.687],[-0.02221,-0.69983,0.70676,0.1012],conf,extj],Speed001,Zone001,kinectAzure \WObj:=DefaultFrame;
WaitTime \InPos, 3;
SetDO \Sync, DO_1, 1;
WaitTime 0.5;
SetDO \Sync, DO_1, 0;
MoveL [[1145.357,93.971,1162.687],[0.1012,0.70676,-0.69983,-0.02221],conf,extj],Speed001,Zone001,kinectAzure \WObj:=DefaultFrame;
WaitTime \InPos, 3;
SetDO \Sync, DO_1, 1;
WaitTime 0.5;
SetDO \Sync, DO_1, 0;
MoveL [[1137.981,279.539,1120.98],[0.17892,0.7048,-0.6841,0.05706],conf,extj],Speed001,Zone001,kinectAzure \WObj:=DefaultFrame;
WaitTime \InPos, 3;
SetDO \Sync, DO_1, 1;
WaitTime 0.5;
SetDO \Sync, DO_1, 0;
MoveL [[1123.6,451.029,1039.657],[0.25439,0.69398,-0.65976,0.13561],conf,extj],Speed001,Zone001,kinectAzure \WObj:=DefaultFrame;
WaitTime \InPos, 3;
SetDO \Sync, DO_1, 1;
WaitTime 0.5;
SetDO \Sync, DO_1, 0;
MoveL [[1102.934,599.842,922.795],[0.32666,0.67443,-0.62713,0.21246],conf,extj],Speed001,Zone001,kinectAzure \WObj:=DefaultFrame;
WaitTime \InPos, 3;
SetDO \Sync, DO_1, 1;
WaitTime 0.5;
SetDO \Sync, DO_1, 0;
MoveL [[1171.128,599.842,906.585],[0.36267,0.68567,-0.60701,0.17277],conf,extj],Speed001,Zone001,kinectAzure \WObj:=DefaultFrame;
WaitTime \InPos, 3;
SetDO \Sync, DO_1, 1;
WaitTime 0.5;
SetDO \Sync, DO_1, 0;
MoveL [[1205.259,451.029,1020.246],[0.29243,0.70071,-0.6438,0.09492],conf,extj],Speed001,Zone001,kinectAzure \WObj:=DefaultFrame;
WaitTime \InPos, 3;
SetDO \Sync, DO_1, 1;
WaitTime 0.5;
SetDO \Sync, DO_1, 0;
MoveL [[1229.01,279.539,1099.342],[0.21851,0.70693,-0.6725,0.01587],conf,extj],Speed001,Zone001,kinectAzure \WObj:=DefaultFrame;
WaitTime \InPos, 3;
SetDO \Sync, DO_1, 1;
WaitTime 0.5;
SetDO \Sync, DO_1, 0;
MoveL [[1241.192,93.971,1139.907],[0.14184,0.70426,-0.69274,-0.06338],conf,extj],Speed001,Zone001,kinectAzure \WObj:=DefaultFrame;
WaitTime \InPos, 3;
SetDO \Sync, DO_1, 1;
WaitTime 0.5;
SetDO \Sync, DO_1, 0;
MoveL [[1241.192,-96.368,1139.907],[-0.06338,-0.69274,0.70426,0.14184],conf,extj],Speed001,Zone001,kinectAzure \WObj:=DefaultFrame;
WaitTime \InPos, 3;
SetDO \Sync, DO_1, 1;
WaitTime 0.5;
SetDO \Sync, DO_1, 0;
MoveL [[1229.01,-281.936,1099.342],[0.01587,-0.6725,0.70693,0.21851],conf,extj],Speed001,Zone001,kinectAzure \WObj:=DefaultFrame;
WaitTime \InPos, 3;
SetDO \Sync, DO_1, 1;
WaitTime 0.5;
SetDO \Sync, DO_1, 0;
MoveL [[1205.259,-453.426,1020.246],[0.09492,-0.6438,0.70071,0.29243],conf,extj],Speed001,Zone001,kinectAzure \WObj:=DefaultFrame;
WaitTime \InPos, 3;
SetDO \Sync, DO_1, 1;
WaitTime 0.5;
SetDO \Sync, DO_1, 0;
MoveL [[1171.128,-602.239,906.585],[0.17277,-0.60701,0.68567,0.36267],conf,extj],Speed001,Zone001,kinectAzure \WObj:=DefaultFrame;
WaitTime \InPos, 3;
SetDO \Sync, DO_1, 1;
WaitTime 0.5;
SetDO \Sync, DO_1, 0;
MoveL [[1236.971,-602.239,882.545],[0.1325,-0.58483,0.69458,0.39745],conf,extj],Speed001,Zone001,kinectAzure \WObj:=DefaultFrame;
WaitTime \InPos, 3;
SetDO \Sync, DO_1, 1;
WaitTime 0.5;
SetDO \Sync, DO_1, 0;
MoveL [[1284.103,-453.426,991.46],[0.0539,-0.62566,0.70505,0.32947],conf,extj],Speed001,Zone001,kinectAzure \WObj:=DefaultFrame;
WaitTime \InPos, 3;
SetDO \Sync, DO_1, 1;
WaitTime 0.5;
SetDO \Sync, DO_1, 0;
MoveL [[1316.901,-281.936,1067.253],[-0.02538,-0.65861,0.70665,0.25735],conf,extj],Speed001,Zone001,kinectAzure \WObj:=DefaultFrame;
WaitTime \InPos, 3;
SetDO \Sync, DO_1, 1;
WaitTime 0.5;
SetDO \Sync, DO_1, 0;
MoveL [[1333.722,-96.368,1106.124],[-0.10434,-0.68329,0.69937,0.18199],conf,extj],Speed001,Zone001,kinectAzure \WObj:=DefaultFrame;
WaitTime \InPos, 3;
SetDO \Sync, DO_1, 1;
WaitTime 0.5;
SetDO \Sync, DO_1, 0;
MoveL [[1333.722,93.971,1106.124],[0.18199,0.69937,-0.68329,-0.10434],conf,extj],Speed001,Zone001,kinectAzure \WObj:=DefaultFrame;
WaitTime \InPos, 3;
SetDO \Sync, DO_1, 1;
WaitTime 0.5;
SetDO \Sync, DO_1, 0;
MoveL [[1316.901,279.539,1067.253],[0.25735,0.70665,-0.65861,-0.02538],conf,extj],Speed001,Zone001,kinectAzure \WObj:=DefaultFrame;
WaitTime \InPos, 3;
SetDO \Sync, DO_1, 1;
WaitTime 0.5;
SetDO \Sync, DO_1, 0;
MoveL [[1284.103,451.029,991.46],[0.32947,0.70505,-0.62566,0.0539],conf,extj],Speed001,Zone001,kinectAzure \WObj:=DefaultFrame;
WaitTime \InPos, 3;
SetDO \Sync, DO_1, 1;
WaitTime 0.5;
SetDO \Sync, DO_1, 0;
MoveL [[1236.971,599.842,882.545],[0.39745,0.69458,-0.58483,0.1325],conf,extj],Speed001,Zone001,kinectAzure \WObj:=DefaultFrame;
WaitTime \InPos, 3;
SetDO \Sync, DO_1, 1;
WaitTime 0.5;
SetDO \Sync, DO_1, 0;
MoveAbsJ [[1,0,-1,1,-1,105],extj],Speed000,Zone000,kinectAzure;
SetDO \Sync, DO_0, 0;
ENDPROC
ENDMODULE